static/images/IMG_3870.auh/Contents/History/resources/30199EE2-3866-4BBB-B9E6-B0C44FAE34DE.cube
#Created by: Adobe Photoshop Export Color Lookup Plugin
#Copyright: (C) Copyright 2017 ©ThinkTAP
TITLE "Faded Afternoon"
#LUT size
LUT_3D_SIZE 32
#data domain
DOMAIN_MIN 0.0 0.0 0.0
DOMAIN_MAX 1.0 1.0 1.0
#LUT data points
0.000000 0.000000 0.000000
0.098145 0.000000 0.000000
0.161804 0.000000 0.000000
0.206329 0.000000 0.000000
0.248749 0.000000 0.000000
0.287567 0.000000 0.000000
0.325714 0.000000 0.000000
0.363373 0.000000 0.000000
0.399323 0.000000 0.000000
0.431091 0.000000 0.000000
0.463501 0.000000 0.000000
0.497589 0.000000 0.000000
0.529907 0.000000 0.000000
0.559143 0.000000 0.000000
0.585968 0.000000 0.000000
0.610504 0.000000 0.000000
0.635071 0.000000 0.000000
0.659637 0.000000 0.000000
0.683167 0.000000 0.000000
0.705719 0.000000 0.000000
0.727325 0.000000 0.000000
0.748108 0.000000 0.000000
0.766937 0.000000 0.000000
0.784576 0.000000 0.000000
0.803864 0.000000 0.000000
0.823090 0.000000 0.000000
0.840393 0.000000 0.000000
0.856781 0.000000 0.000000
0.871399 0.000000 0.000000
0.885376 0.000000 0.000000
0.899963 0.000000 0.000000
0.914062 0.000000 0.000000
0.000000 0.087433 0.000000
0.098145 0.087433 0.000000
0.161804 0.087433 0.000000
0.206329 0.087433 0.000000
0.248749 0.087433 0.000000
0.287567 0.087433 0.000000
0.325714 0.087433 0.000000
0.363373 0.087433 0.000000
0.399323 0.087433 0.000000
0.431091 0.087433 0.000000
0.463501 0.087433 0.000000
0.497589 0.087433 0.000000
0.530853 0.090149 0.000000
0.561523 0.094635 0.000000
0.589264 0.094635 0.000000
0.614838 0.094635 0.000000
0.639252 0.094635 0.000000
0.663605 0.094635 0.000000
0.686951 0.094635 0.000000
0.709381 0.094635 0.000000
0.730835 0.094635 0.000000
0.751495 0.094635 0.000000
0.771301 0.094635 0.000000
0.789276 0.094635 0.000000
0.806152 0.094635 0.000000
0.824554 0.094635 0.000000
0.842926 0.094635 0.000000
0.859467 0.094635 0.000000
0.875122 0.094635 0.000000
0.889099 0.094635 0.000000
0.903534 0.094635 0.000000
0.917480 0.094635 0.000000
0.000000 0.143280 0.000000
0.098145 0.143280 0.000000
0.161804 0.143280 0.000000
0.206329 0.143280 0.000000
0.248901 0.143463 0.000000
0.287720 0.143463 0.000000
0.325897 0.143463 0.000000
0.363525 0.143463 0.000000
0.399658 0.143463 0.000000
0.431458 0.143463 0.000000
0.463806 0.143707 0.000000
0.497925 0.143707 0.000000
0.531158 0.145630 0.000000
0.562683 0.151886 0.000000
0.591675 0.155304 0.000000
0.618103 0.155304 0.000000
0.643341 0.155731 0.000000
0.667542 0.155731 0.000000
0.690765 0.155731 0.000000
0.713013 0.155731 0.000000
0.734467 0.155731 0.000000
0.754944 0.155731 0.000000
0.774536 0.155914 0.000000
0.793457 0.155914 0.000000
0.810638 0.155914 0.000000
0.826721 0.155914 0.000000
0.844391 0.155914 0.000000
0.861938 0.155914 0.000000
0.877655 0.155914 0.000000
0.892609 0.155914 0.000000
0.907074 0.155914 0.000000
0.920898 0.155914 0.000000
0.000000 0.179932 0.000000
0.098145 0.179932 0.000000
0.161804 0.179932 0.000000
0.206329 0.179932 0.000000
0.249084 0.180267 0.000000
0.290466 0.183105 0.000000
0.328613 0.183105 0.000000
0.366180 0.183105 0.000000
0.402802 0.183105 0.000000
0.436707 0.183105 0.000000
0.469086 0.183990 0.000000
0.503143 0.186218 0.000000
0.536102 0.186218 0.000000
0.567413 0.188080 0.000000
0.596130 0.191406 0.000000
0.622345 0.191406 0.000000
0.647491 0.194305 0.000000
0.671509 0.197601 0.000000
0.694550 0.197601 0.000000
0.716644 0.197601 0.000000
0.738892 0.197601 0.000000
0.759949 0.197601 0.000000
0.778320 0.199615 0.000000
0.796539 0.200684 0.000000
0.814606 0.200684 0.000000
0.830994 0.200684 0.000000
0.847473 0.200684 0.000000
0.864563 0.200684 0.000000
0.880188 0.200684 0.000000
0.895050 0.200684 0.000000
0.910431 0.200684 0.000000
0.924255 0.200684 0.000000
0.000000 0.214661 0.000000
0.098145 0.215363 0.000000
0.162231 0.215363 0.000000
0.207092 0.215363 0.000000
0.249420 0.215759 0.000000
0.290985 0.218597 0.000000
0.331299 0.220917 0.000000
0.368896 0.220917 0.000000
0.405487 0.221313 0.000000
0.439850 0.221313 0.000000
0.474335 0.221802 0.000000
0.508362 0.224701 0.000000
0.540741 0.226440 0.000000
0.571777 0.226440 0.000000
0.600342 0.226440 0.000000
0.626373 0.226440 0.000000
0.651306 0.228943 0.000000
0.675171 0.234619 0.000000
0.698273 0.237823 0.000000
0.720215 0.237823 0.000000
0.742126 0.237823 0.000000
0.763947 0.237823 0.000000
0.782928 0.239746 0.000000
0.799988 0.242554 0.000000
0.817719 0.243286 0.000000
0.834991 0.243286 0.000000
0.851562 0.243591 0.000000
0.867523 0.243591 0.000000
0.882996 0.243591 0.000000
0.897766 0.243591 0.000000
0.912903 0.243591 0.000000
0.927643 0.243591 0.000000
0.000000 0.245911 0.000000
0.098145 0.251526 0.000000
0.162231 0.252197 0.000000
0.212494 0.252197 0.000000
0.255035 0.252563 0.000000
0.293701 0.255371 0.000000
0.334015 0.257660 0.000000
0.371582 0.257660 0.000000
0.408112 0.258331 0.000000
0.442474 0.260803 0.000000
0.477478 0.260803 0.000000
0.513489 0.261292 0.000000
0.545044 0.263000 0.000000
0.574097 0.263000 0.000000
0.602509 0.263000 0.000000
0.628479 0.263000 0.000000
0.653351 0.264435 0.000000
0.677094 0.268250 0.000000
0.700958 0.273743 0.000000
0.723785 0.276886 0.000000
0.744690 0.276886 0.000000
0.765625 0.276886 0.000000
0.785370 0.278809 0.000000
0.803009 0.281555 0.000000
0.821564 0.282257 0.000000
0.839172 0.282257 0.000000
0.855591 0.284454 0.000000
0.871399 0.285309 0.000000
0.887665 0.285309 0.000000
0.902557 0.285309 0.000000
0.916565 0.285309 0.000000
0.930939 0.285309 0.000000
0.000000 0.277618 0.000000
0.099457 0.282043 0.000000
0.162994 0.287384 0.000000
0.212494 0.287720 0.000000
0.259552 0.288086 0.000000
0.298187 0.290833 0.000000
0.336700 0.293060 0.000000
0.374237 0.293060 0.000000
0.410797 0.293701 0.000000
0.445129 0.296509 0.000000
0.479614 0.298889 0.000000
0.516083 0.298889 0.000000
0.549408 0.298889 0.000000
0.577698 0.298889 0.000000
0.605164 0.298889 0.000000
0.631012 0.298889 0.000000
0.655701 0.300232 0.000000
0.679382 0.302948 0.000000
0.703156 0.307220 0.000000
0.726685 0.312622 0.000000
0.748108 0.315247 0.000000
0.768066 0.315247 0.000000
0.787231 0.316589 0.000000
0.805664 0.319275 0.000000
0.824463 0.320465 0.000000
0.842834 0.320465 0.000000
0.859589 0.322662 0.000000
0.875275 0.325378 0.000000
0.891144 0.325714 0.000000
0.906769 0.325714 0.000000
0.920685 0.325714 0.000000
0.933990 0.325714 0.000000
0.000000 0.313171 0.000000
0.105072 0.313171 0.000000
0.169067 0.317413 0.000000
0.213196 0.320129 0.000000
0.259552 0.320801 0.000000
0.298187 0.323547 0.000000
0.336700 0.325714 0.000000
0.376923 0.325714 0.000000
0.413452 0.326385 0.000000
0.447723 0.329071 0.000000
0.481873 0.331818 0.000000
0.516083 0.334137 0.000000
0.549835 0.334137 0.000000
0.580017 0.334137 0.000000
0.607910 0.334137 0.000000
0.635193 0.334137 0.000000
0.659729 0.335510 0.000000
0.683258 0.338196 0.000000
0.706848 0.342407 0.000000
0.730194 0.347809 0.000000
0.751495 0.351501 0.000000
0.771301 0.352997 0.000000
0.790375 0.352997 0.000000
0.808655 0.354340 0.000000
0.827332 0.357056 0.000000
0.845581 0.358215 0.000000
0.863098 0.360352 0.000000
0.879089 0.363037 0.000000
0.894012 0.363373 0.000000
0.909149 0.363373 0.000000
0.922943 0.363373 0.000000
0.936157 0.363373 0.000000
0.000000 0.347595 0.000000
0.105072 0.348267 0.000000
0.173767 0.348267 0.000000
0.218262 0.350464 0.000000
0.260590 0.352814 0.000000
0.299530 0.355164 0.000000
0.337555 0.357849 0.000000
0.377533 0.358002 0.000000
0.416077 0.359375 0.000000
0.450348 0.362000 0.000000
0.485199 0.364716 0.000000
0.518890 0.367340 0.000000
0.551025 0.369751 0.000000
0.581604 0.369751 0.000000
0.610107 0.369751 0.000000
0.637756 0.369751 0.000000
0.663239 0.371063 0.000000
0.686615 0.373718 0.000000
0.710052 0.377228 0.000000
0.733276 0.382568 0.000000
0.754852 0.386230 0.000000
0.774536 0.388855 0.000000
0.793854 0.390411 0.000000
0.812012 0.390411 0.000000
0.830200 0.391693 0.000000
0.848328 0.394379 0.000000
0.865387 0.397003 0.000000
0.882111 0.399658 0.000000
0.897308 0.400696 0.000000
0.911530 0.400696 0.000000
0.925446 0.400696 0.000000
0.938599 0.400696 0.000000
0.000000 0.379730 0.000000
0.105072 0.382416 0.000000
0.173767 0.383057 0.000000
0.220551 0.383057 0.000000
0.263397 0.384918 0.000000
0.304688 0.384918 0.000000
0.342896 0.387207 0.000000
0.380371 0.389862 0.000000
0.418671 0.391357 0.000000
0.453003 0.396698 0.000000
0.487946 0.399323 0.000000
0.523987 0.402008 0.000000
0.555878 0.404663 0.000000
0.586121 0.406982 0.000000
0.614014 0.406982 0.000000
0.639862 0.406982 0.000000
0.665222 0.408264 0.000000
0.688507 0.410980 0.000000
0.711853 0.413605 0.000000
0.734985 0.417084 0.000000
0.757141 0.420654 0.000000
0.777740 0.423340 0.000000
0.797577 0.425995 0.000000
0.816437 0.427460 0.000000
0.833740 0.427460 0.000000
0.851074 0.428772 0.000000
0.867249 0.431458 0.000000
0.883331 0.434082 0.000000
0.899261 0.436707 0.000000
0.913849 0.437683 0.000000
0.928436 0.437683 0.000000
0.941803 0.437683 0.000000
0.000000 0.411621 0.000000
0.105072 0.414246 0.000000
0.173767 0.416748 0.000000
0.220551 0.416748 0.000000
0.265656 0.417084 0.000000
0.307373 0.417542 0.000000
0.346954 0.418060 0.000000
0.384064 0.420654 0.000000
0.421844 0.423981 0.000000
0.456482 0.429260 0.000000
0.490570 0.433746 0.000000
0.526611 0.436371 0.000000
0.559875 0.438995 0.000000
0.589935 0.441589 0.000000
0.618347 0.443939 0.000000
0.643616 0.443939 0.000000
0.668427 0.445282 0.000000
0.691589 0.447876 0.000000
0.714264 0.450500 0.000000
0.737305 0.453156 0.000000
0.759857 0.455811 0.000000
0.780945 0.458405 0.000000
0.800629 0.460236 0.000000
0.819977 0.462860 0.000000
0.837524 0.464325 0.000000
0.854034 0.464325 0.000000
0.870697 0.466461 0.000000
0.885895 0.469086 0.000000
0.901215 0.471741 0.000000
0.916412 0.474335 0.000000
0.930298 0.475311 0.000000
0.944305 0.475311 0.000000
0.000000 0.443298 0.000000
0.105072 0.445923 0.000000
0.173767 0.448395 0.000000
0.220551 0.448395 0.000000
0.265656 0.448730 0.000000
0.309601 0.451324 0.000000
0.349640 0.452332 0.000000
0.384369 0.454956 0.000000
0.421844 0.458252 0.000000
0.461395 0.463501 0.000000
0.495789 0.467957 0.000000
0.529144 0.470551 0.000000
0.562225 0.473175 0.000000
0.592194 0.475830 0.000000
0.620758 0.478424 0.000000
0.647675 0.480743 0.000000
0.672729 0.482025 0.000000
0.697205 0.484680 0.000000
0.719238 0.487274 0.000000
0.740723 0.489868 0.000000
0.763672 0.492584 0.000000
0.785675 0.495117 0.000000
0.804626 0.496002 0.000000
0.822937 0.496918 0.000000
0.840302 0.499603 0.000000
0.856720 0.501007 0.000000
0.874573 0.503143 0.000000
0.890839 0.505768 0.000000
0.905304 0.508362 0.000000
0.919861 0.510925 0.000000
0.932220 0.513489 0.000000
0.945312 0.514465 0.000000
0.000000 0.474854 0.000000
0.105072 0.478424 0.000000
0.173920 0.480896 0.000000
0.221649 0.480896 0.000000
0.266327 0.481232 0.000000
0.309601 0.483856 0.000000
0.352325 0.486969 0.000000
0.388062 0.490051 0.000000
0.423187 0.492676 0.000000
0.462402 0.497589 0.000000
0.500854 0.501190 0.000000
0.534119 0.503632 0.000000
0.564606 0.507233 0.000000
0.594482 0.509796 0.000000
0.623718 0.512360 0.000000
0.650757 0.514893 0.000000
0.675903 0.517487 0.000000
0.700623 0.519989 0.000000
0.723877 0.522583 0.000000
0.744812 0.525085 0.000000
0.766327 0.526611 0.000000
0.788666 0.529144 0.000000
0.808533 0.531799 0.000000
0.826172 0.531799 0.000000
0.843628 0.533630 0.000000
0.859863 0.536102 0.000000
0.876617 0.538574 0.000000
0.894073 0.541046 0.000000
0.908691 0.542542 0.000000
0.922455 0.545044 0.000000
0.935883 0.547455 0.000000
0.947540 0.549835 0.000000
0.000000 0.506256 0.000000
0.105072 0.511383 0.000000
0.173920 0.514740 0.000000
0.223602 0.514740 0.000000
0.269073 0.515106 0.000000
0.310303 0.517609 0.000000
0.352325 0.520660 0.000000
0.392365 0.525665 0.000000
0.428467 0.528687 0.000000
0.465302 0.531158 0.000000
0.503479 0.534241 0.000000
0.538879 0.534241 0.000000
0.569305 0.537476 0.000000
0.596710 0.542419 0.000000
0.625977 0.544830 0.000000
0.654846 0.547272 0.000000
0.679535 0.549683 0.000000
0.702484 0.552094 0.000000
0.726013 0.554535 0.000000
0.748199 0.556915 0.000000
0.769196 0.557800 0.000000
0.790283 0.558380 0.000000
0.810516 0.562378 0.000000
0.829041 0.565643 0.000000
0.846893 0.567413 0.000000
0.863831 0.569763 0.000000
0.879333 0.572083 0.000000
0.895294 0.574371 0.000000
0.909851 0.574707 0.000000
0.923584 0.575836 0.000000
0.938782 0.578125 0.000000
0.951691 0.580444 0.000000
0.000000 0.536591 0.000000
0.106598 0.540405 0.000000
0.175079 0.545166 0.000000
0.223602 0.546112 0.000000
0.270660 0.546356 0.000000
0.311859 0.548798 0.000000
0.352814 0.551666 0.000000
0.393494 0.556488 0.000000
0.432617 0.559998 0.000000
0.469421 0.561951 0.000000
0.505249 0.565033 0.000000
0.540283 0.565643 0.000000
0.573669 0.566498 0.000000
0.601166 0.571045 0.000000
0.628082 0.574707 0.000000
0.656952 0.576996 0.000000
0.683350 0.579285 0.000000
0.705902 0.581604 0.000000
0.728546 0.584869 0.000000
0.750946 0.587128 0.000000
0.772400 0.588959 0.000000
0.792969 0.588959 0.000000
0.812683 0.591095 0.000000
0.831512 0.595612 0.000000
0.849030 0.598358 0.000000
0.866394 0.600616 0.000000
0.883118 0.602814 0.000000
0.897827 0.605042 0.000000
0.912018 0.606232 0.000000
0.925690 0.606232 0.000000
0.939850 0.608307 0.000000
0.954437 0.610504 0.000000
0.000000 0.565460 0.000000
0.108459 0.567810 0.000000
0.178070 0.571320 0.000000
0.224701 0.573669 0.000000
0.270660 0.574829 0.000000
0.311859 0.577148 0.000000
0.352814 0.579865 0.000000
0.395538 0.584412 0.000000
0.435211 0.587860 0.000000
0.472046 0.587860 0.000000
0.507843 0.590393 0.000000
0.540558 0.594879 0.000000
0.573669 0.596283 0.000000
0.605286 0.598511 0.000000
0.632294 0.601837 0.000000
0.658966 0.604065 0.000000
0.685425 0.606232 0.000000
0.709595 0.608459 0.000000
0.732086 0.611847 0.000000
0.754333 0.615906 0.000000
0.775635 0.618103 0.000000
0.796051 0.619843 0.000000
0.815613 0.621277 0.000000
0.834351 0.623962 0.000000
0.851318 0.626617 0.000000
0.867706 0.628723 0.000000
0.885284 0.630859 0.000000
0.901459 0.632935 0.000000
0.915497 0.635040 0.000000
0.928986 0.636230 0.000000
0.941986 0.638214 0.000000
0.955475 0.640228 0.000000
0.000000 0.593109 0.000000
0.108459 0.596466 0.000000
0.179749 0.598663 0.000000
0.227509 0.600922 0.000000
0.272064 0.603394 0.000000
0.313171 0.606415 0.000000
0.354156 0.608612 0.000000
0.396851 0.612305 0.000000
0.437836 0.616058 0.000000
0.474701 0.616608 0.000000
0.511200 0.617950 0.000000
0.544250 0.622253 0.000000
0.575989 0.625702 0.000000
0.607452 0.627838 0.000000
0.636505 0.629944 0.000000
0.662994 0.632050 0.000000
0.687347 0.634155 0.000000
0.711517 0.636230 0.000000
0.735535 0.638458 0.000000
0.757690 0.642639 0.000000
0.778046 0.646454 0.000000
0.798340 0.648468 0.000000
0.818542 0.650574 0.000000
0.837189 0.652588 0.000000
0.854034 0.654602 0.000000
0.869873 0.656586 0.000000
0.886536 0.657623 0.000000
0.903534 0.659637 0.000000
0.918335 0.662567 0.000000
0.931763 0.664612 0.000000
0.945129 0.667542 0.000000
0.957489 0.669556 0.000000
0.000000 0.619446 0.000000
0.108459 0.623749 0.000000
0.179749 0.626923 0.000000
0.229126 0.629028 0.000000
0.274811 0.631409 0.000000
0.315857 0.635620 0.000000
0.356842 0.638458 0.000000
0.399506 0.640533 0.000000
0.440491 0.643494 0.000000
0.477295 0.645569 0.000000
0.513824 0.647369 0.000000
0.548645 0.651398 0.000000
0.580597 0.654724 0.000000
0.611847 0.656738 0.000000
0.640656 0.658752 0.000000
0.666962 0.660736 0.000000
0.691132 0.662750 0.000000
0.713348 0.664734 0.000000
0.737396 0.666718 0.000000
0.760956 0.668823 0.000000
0.781036 0.672729 0.000000
0.799896 0.676392 0.000000
0.820282 0.678314 0.000000
0.839966 0.680237 0.000000
0.856720 0.682190 0.000000
0.872467 0.684113 0.000000
0.888641 0.684448 0.000000
0.904755 0.685059 0.000000
0.919922 0.688599 0.000000
0.933929 0.691711 0.000000
0.947693 0.695374 0.000000
0.960510 0.698273 0.000000
0.000000 0.646973 0.000000
0.108459 0.649933 0.000000
0.179749 0.653839 0.000000
0.229126 0.655884 0.000000
0.276367 0.657898 0.000000
0.318604 0.661011 0.000000
0.359558 0.664978 0.000000
0.402161 0.667694 0.000000
0.443146 0.669647 0.000000
0.479889 0.671631 0.000000
0.516357 0.674225 0.000000
0.551025 0.678101 0.000000
0.583008 0.681213 0.000000
0.613739 0.683167 0.000000
0.643341 0.685059 0.000000
0.669769 0.686951 0.000000
0.694794 0.689819 0.000000
0.716949 0.691833 0.000000
0.739136 0.693726 0.000000
0.762756 0.695618 0.000000
0.784180 0.697601 0.000000
0.802765 0.701263 0.000000
0.822571 0.704773 0.000000
0.842377 0.706635 0.000000
0.860107 0.708466 0.000000
0.875732 0.710236 0.000000
0.891083 0.711609 0.000000
0.906708 0.711609 0.000000
0.921692 0.714783 0.000000
0.936035 0.718414 0.000000
0.949768 0.720978 0.000000
0.962952 0.724579 0.000000
0.000000 0.674927 0.000000
0.108459 0.676880 0.000000
0.179749 0.679535 0.000000
0.229126 0.681458 0.000000
0.276367 0.683350 0.000000
0.320129 0.685272 0.000000
0.362213 0.688263 0.000000
0.404816 0.692078 0.000000
0.445770 0.694641 0.000000
0.482544 0.696533 0.000000
0.518890 0.698975 0.000000
0.553467 0.702667 0.000000
0.585297 0.705719 0.000000
0.614197 0.707520 0.000000
0.643341 0.709381 0.000000
0.671478 0.711212 0.000000
0.696625 0.713928 0.000000
0.720459 0.717499 0.000000
0.742554 0.719421 0.000000
0.764374 0.721222 0.000000
0.785858 0.722992 0.000000
0.805756 0.724884 0.000000
0.825439 0.728424 0.000000
0.845154 0.731720 0.000000
0.863007 0.733490 0.000000
0.879547 0.735229 0.000000
0.894440 0.736938 0.000000
0.909058 0.738251 0.000000
0.923920 0.741272 0.000000
0.938171 0.744690 0.000000
0.951843 0.746521 0.000000
0.964905 0.748840 0.000000
0.000000 0.700378 0.000000
0.108459 0.702240 0.000000
0.179749 0.704224 0.000000
0.229126 0.707092 0.000000
0.276703 0.708893 0.000000
0.321808 0.710724 0.000000
0.364380 0.712921 0.000000
0.405792 0.716522 0.000000
0.447388 0.719666 0.000000
0.485199 0.721466 0.000000
0.521454 0.723236 0.000000
0.555878 0.726227 0.000000
0.588409 0.729767 0.000000
0.617676 0.731995 0.000000
0.645050 0.734467 0.000000
0.672729 0.736542 0.000000
0.699463 0.738251 0.000000
0.723328 0.741486 0.000000
0.746002 0.744934 0.000000
0.767639 0.746735 0.000000
0.788391 0.747375 0.000000
0.808258 0.749054 0.000000
0.827423 0.751892 0.000000
0.847076 0.755249 0.000000
0.864838 0.758423 0.000000
0.881531 0.760040 0.000000
0.898071 0.761688 0.000000
0.912262 0.763367 0.000000
0.926849 0.766418 0.000000
0.941010 0.769684 0.000000
0.954529 0.772430 0.000000
0.967468 0.774017 0.000000
0.000000 0.723999 0.000000
0.108459 0.725739 0.000000
0.179749 0.727661 0.000000
0.229126 0.731201 0.000000
0.276703 0.733917 0.000000
0.323151 0.735657 0.000000
0.367035 0.737732 0.000000
0.406982 0.741150 0.000000
0.447388 0.744171 0.000000
0.486816 0.745880 0.000000
0.523987 0.747589 0.000000
0.558258 0.749268 0.000000
0.590668 0.752136 0.000000
0.621429 0.755463 0.000000
0.649109 0.758270 0.000000
0.675018 0.761597 0.000000
0.701263 0.763580 0.000000
0.726685 0.765167 0.000000
0.749359 0.768280 0.000000
0.770874 0.771515 0.000000
0.791534 0.772217 0.000000
0.811279 0.772217 0.000000
0.830200 0.774933 0.000000
0.848419 0.778137 0.000000
0.866150 0.781311 0.000000
0.882751 0.784271 0.000000
0.899719 0.785858 0.000000
0.915710 0.787415 0.000000
0.930176 0.790375 0.000000
0.944153 0.793457 0.000000
0.957550 0.796539 0.000000
0.970398 0.799133 0.000000
0.000000 0.747772 0.000000
0.113129 0.749481 0.000000
0.183441 0.751190 0.000000
0.229126 0.753479 0.000000
0.276703 0.756805 0.000000
0.323151 0.759430 0.000000
0.367920 0.761078 0.000000
0.407806 0.763580 0.000000
0.448090 0.766815 0.000000
0.488586 0.769196 0.000000
0.525665 0.771301 0.000000
0.558990 0.773529 0.000000
0.592194 0.775116 0.000000
0.623596 0.777832 0.000000
0.651794 0.780304 0.000000
0.677582 0.783112 0.000000
0.703156 0.786255 0.000000
0.728424 0.788086 0.000000
0.751587 0.790558 0.000000
0.773010 0.793671 0.000000
0.794525 0.795776 0.000000
0.814209 0.795868 0.000000
0.833038 0.797943 0.000000
0.851074 0.801025 0.000000
0.868347 0.804077 0.000000
0.884888 0.807068 0.000000
0.901733 0.808838 0.000000
0.918060 0.810333 0.000000
0.931976 0.813110 0.000000
0.945862 0.816071 0.000000
0.959229 0.817993 0.000000
0.971985 0.820923 0.000000
0.000000 0.770966 0.000000
0.115204 0.772614 0.000000
0.189362 0.774231 0.000000
0.232666 0.775848 0.000000
0.276703 0.778046 0.000000
0.323151 0.781219 0.000000
0.367920 0.783691 0.000000
0.407806 0.785278 0.000000
0.448090 0.787628 0.000000
0.490051 0.790741 0.000000
0.528198 0.793457 0.000000
0.559875 0.796539 0.000000
0.592194 0.798645 0.000000
0.625000 0.800201 0.000000
0.653839 0.802063 0.000000
0.679535 0.803589 0.000000
0.704987 0.806244 0.000000
0.730194 0.809235 0.000000
0.753296 0.811829 0.000000
0.774658 0.814789 0.000000
0.796051 0.816772 0.000000
0.817078 0.818298 0.000000
0.835876 0.820374 0.000000
0.853760 0.823273 0.000000
0.870941 0.826172 0.000000
0.887390 0.829041 0.000000
0.904144 0.830750 0.000000
0.920349 0.832153 0.000000
0.933929 0.834808 0.000000
0.946899 0.837616 0.000000
0.960205 0.839111 0.000000
0.972931 0.840820 0.000000
0.000000 0.790833 0.000000
0.115204 0.794708 0.000000
0.191223 0.796265 0.000000
0.238342 0.797760 0.000000
0.280487 0.799500 0.000000
0.325195 0.802551 0.000000
0.369904 0.804993 0.000000
0.409790 0.805664 0.000000
0.450043 0.807922 0.000000
0.492035 0.811646 0.000000
0.531494 0.814606 0.000000
0.564026 0.817535 0.000000
0.594727 0.819916 0.000000
0.626617 0.821381 0.000000
0.655853 0.823456 0.000000
0.681458 0.825348 0.000000
0.706848 0.826813 0.000000
0.731995 0.829285 0.000000
0.755890 0.832947 0.000000
0.777466 0.836029 0.000000
0.798737 0.837982 0.000000
0.819641 0.839355 0.000000
0.839600 0.841705 0.000000
0.857483 0.844482 0.000000
0.874481 0.846191 0.000000
0.890778 0.848938 0.000000
0.906494 0.851593 0.000000
0.922607 0.852936 0.000000
0.937714 0.855438 0.000000
0.950348 0.858124 0.000000
0.962677 0.859558 0.000000
0.975311 0.860870 0.000000
0.000000 0.809113 0.000000
0.115204 0.813568 0.000000
0.191223 0.817261 0.000000
0.240082 0.818726 0.000000
0.286011 0.820374 0.000000
0.329590 0.823273 0.000000
0.372559 0.825592 0.000000
0.412476 0.825592 0.000000
0.452637 0.826965 0.000000
0.494659 0.831268 0.000000
0.533966 0.834808 0.000000
0.567719 0.837616 0.000000
0.599243 0.839874 0.000000
0.629547 0.841248 0.000000
0.657867 0.843262 0.000000
0.683319 0.846008 0.000000
0.708710 0.847809 0.000000
0.733673 0.849182 0.000000
0.757568 0.852325 0.000000
0.780304 0.856354 0.000000
0.801788 0.858459 0.000000
0.822571 0.859802 0.000000
0.842377 0.862000 0.000000
0.861359 0.864655 0.000000
0.878296 0.866302 0.000000
0.894440 0.867615 0.000000
0.909912 0.870209 0.000000
0.924866 0.872711 0.000000
0.940125 0.875122 0.000000
0.954437 0.877655 0.000000
0.966461 0.878998 0.000000
0.978119 0.880280 0.000000
0.000000 0.829041 0.000000
0.115204 0.832153 0.000000
0.191223 0.836212 0.000000
0.240082 0.837616 0.000000
0.287720 0.839355 0.000000
0.335022 0.843109 0.000000
0.376923 0.845581 0.000000
0.415100 0.846466 0.000000
0.454651 0.847137 0.000000
0.495117 0.850464 0.000000
0.535187 0.854095 0.000000
0.570038 0.856781 0.000000
0.601837 0.859467 0.000000
0.632019 0.861359 0.000000
0.659851 0.862671 0.000000
0.685272 0.864838 0.000000
0.711426 0.868103 0.000000
0.736847 0.870209 0.000000
0.759613 0.871521 0.000000
0.781891 0.874725 0.000000
0.803589 0.877747 0.000000
0.824280 0.879272 0.000000
0.843109 0.881409 0.000000
0.861847 0.883881 0.000000
0.879974 0.886383 0.000000
0.896118 0.887665 0.000000
0.911530 0.888947 0.000000
0.926300 0.891388 0.000000
0.941376 0.894836 0.000000
0.955902 0.897217 0.000000
0.968750 0.898560 0.000000
0.980194 0.899719 0.000000
0.000000 0.848572 0.000000
0.115204 0.851318 0.000000
0.191223 0.854095 0.000000
0.240082 0.855438 0.000000
0.287720 0.857117 0.000000
0.336700 0.861115 0.000000
0.382202 0.864410 0.000000
0.419373 0.865723 0.000000
0.457275 0.867188 0.000000
0.496613 0.869812 0.000000
0.535187 0.872528 0.000000
0.571198 0.875122 0.000000
0.604065 0.877655 0.000000
0.634125 0.880188 0.000000
0.661835 0.882019 0.000000
0.687195 0.883240 0.000000
