static/images/IMG_3870.auh/Contents/History/resources/30199EE2-3866-4BBB-B9E6-B0C44FAE34DE.cube
#Created by: Adobe Photoshop Export Color Lookup Plugin
#Copyright: (C) Copyright 2017 ©ThinkTAP
TITLE "Faded Afternoon"
#LUT size
LUT_3D_SIZE 8
#data domain
#LUT data points
DOMAIN_MIN 0.000000 0.000000 0.000000
DOMAIN_MAX 0.903226 0.903226 0.903226
0.000000 0.000000 0.000000
0.248749 0.000000 0.000000
0.399323 0.000000 0.000000
0.529907 0.000000 0.000000
0.635071 0.000000 0.000000
0.727325 0.000000 0.000000
0.803864 0.000000 0.000000
0.871399 0.000000 0.000000
0.000000 0.214661 0.000000
0.249420 0.215759 0.000000
0.405487 0.221313 0.000000
0.540741 0.226440 0.000000
0.651306 0.228943 0.000000
0.742126 0.237823 0.000000
0.817719 0.243286 0.000000
0.882996 0.243591 0.000000
0.000000 0.347595 0.000000
0.260590 0.352814 0.000000
0.416077 0.359375 0.000000
0.551025 0.369751 0.000000
0.663239 0.371063 0.000000
0.754852 0.386230 0.000000
0.830200 0.391693 0.000000
0.897308 0.400696 0.000000
0.000000 0.474854 0.000000
0.266327 0.481232 0.000000
0.423187 0.492676 0.000000
0.564606 0.507233 0.000000
0.675903 0.517487 0.000000
0.766327 0.526611 0.000000
0.843628 0.533630 0.000000
0.908691 0.542542 0.000000
0.000000 0.593109 0.000000
0.272064 0.603394 0.000000
0.437836 0.616058 0.000000
0.575989 0.625702 0.000000
0.687347 0.634155 0.000000
0.778046 0.646454 0.000000
0.854034 0.654602 0.000000
0.918335 0.662567 0.000000
0.000000 0.700378 0.000000
0.276703 0.708893 0.000000
0.447388 0.719666 0.000000
0.588409 0.729767 0.000000
0.699463 0.738251 0.000000
0.788391 0.747375 0.000000
0.864838 0.758423 0.000000
0.926849 0.766418 0.000000
0.000000 0.790833 0.000000
0.280487 0.799500 0.000000
0.450043 0.807922 0.000000
0.594727 0.819916 0.000000
0.706848 0.826813 0.000000
0.798737 0.837982 0.000000
0.874481 0.846191 0.000000
0.937714 0.855438 0.000000
0.000000 0.867249 0.000000
0.289795 0.876221 0.000000
0.459930 0.886597 0.000000
0.607086 0.896118 0.000000
0.715759 0.903809 0.000000
0.807922 0.913788 0.000000
0.883240 0.921906 0.000000
0.944458 0.928680 0.000000
0.000000 0.000000 0.124725
0.248749 0.000000 0.136353
0.399323 0.000000 0.137177
0.529907 0.000000 0.138367
0.636139 0.000000 0.144470
0.730743 0.000000 0.156097
0.806793 0.000000 0.161652
0.873657 0.000000 0.173767
0.000000 0.215363 0.137573
0.259552 0.220917 0.138733
0.405792 0.221313 0.144836
0.540741 0.226440 0.156097
0.651581 0.229675 0.162781
0.744812 0.239594 0.174164
0.821625 0.243591 0.176788
0.885590 0.243591 0.180695
0.000000 0.348267 0.145264
0.260986 0.357666 0.156464
0.416077 0.364532 0.163544
0.551941 0.369751 0.174500
0.667084 0.376923 0.175995
0.755463 0.386841 0.181396
0.834259 0.396515 0.185883
0.898407 0.401001 0.195404
0.000000 0.476135 0.162415
0.266327 0.486633 0.164673
0.423828 0.500854 0.175629
0.569427 0.511536 0.182159
0.679382 0.518433 0.183990
0.769287 0.531158 0.195068
0.846466 0.538422 0.201447
0.909271 0.547272 0.208527
0.000000 0.598541 0.175995
0.272400 0.608490 0.180695
0.437836 0.617432 0.183624
0.579285 0.629578 0.194733
0.688263 0.638214 0.201447
0.781128 0.649628 0.207092
0.855682 0.655334 0.216431
0.919769 0.667450 0.219299
0.000000 0.703949 0.183990
0.276703 0.711731 0.194305
0.447388 0.723114 0.200348
0.588684 0.733826 0.207092
0.702087 0.741608 0.216431
0.791412 0.750854 0.218933
0.865631 0.759857 0.226288
0.928436 0.772308 0.239594
0.000000 0.795197 0.199982
0.280487 0.803375 0.207794
0.454498 0.813477 0.215759
0.597687 0.821564 0.218597
0.707520 0.830109 0.225586
0.800537 0.840668 0.233215
0.876007 0.850037 0.245392
0.937988 0.859467 0.249573
0.000000 0.872467 0.214661
0.289795 0.880188 0.218262
0.460236 0.889618 0.224518
0.610229 0.899872 0.234283
0.718506 0.908112 0.244659
0.811462 0.916290 0.248901
0.884613 0.925049 0.256073
0.946472 0.933044 0.264771
0.000000 0.000000 0.191742
0.248749 0.000000 0.198914
0.399323 0.000000 0.215027
0.530548 0.000000 0.221649
0.640167 0.000000 0.227509
0.733490 0.000000 0.238861
0.810333 0.000000 0.252197
0.876129 0.000000 0.262024
0.000000 0.215363 0.214661
0.259552 0.221313 0.221313
0.406128 0.221649 0.227844
0.545471 0.227509 0.239227
0.652588 0.237823 0.251526
0.747925 0.239594 0.262360
0.823547 0.243591 0.274170
0.888794 0.243988 0.288452
0.000000 0.352814 0.228271
0.265656 0.358673 0.239594
0.417389 0.369751 0.250793
0.555695 0.370728 0.262665
0.668091 0.377533 0.274475
0.758881 0.391357 0.289062
0.836639 0.396851 0.291870
0.900696 0.402985 0.302795
0.000000 0.480896 0.250793
0.270660 0.487274 0.262665
0.423828 0.505890 0.274170
0.570038 0.512878 0.289459
0.680145 0.522369 0.291870
0.772217 0.532379 0.303131
0.848419 0.541351 0.318604
0.910583 0.550751 0.325195
0.000000 0.599640 0.269135
0.276367 0.612152 0.280487
0.438538 0.621887 0.291870
0.579620 0.633606 0.302795
0.691956 0.642242 0.318268
0.781525 0.653595 0.324554
0.859558 0.659485 0.336700
0.921265 0.670288 0.350342
0.000000 0.705566 0.291870
0.276703 0.717865 0.303497
0.448090 0.726562 0.317902
0.592194 0.737396 0.324554
0.702820 0.747162 0.336365
0.793854 0.755371 0.351349
0.868011 0.765167 0.363037
0.930450 0.774445 0.375061
0.000000 0.796143 0.316925
0.287720 0.805573 0.324860
0.454498 0.817261 0.337402
0.599091 0.826447 0.350342
0.710388 0.833405 0.360168
0.801117 0.845856 0.374725
0.877502 0.853516 0.383575
0.939514 0.862518 0.399872
0.000000 0.874786 0.337708
0.289795 0.883118 0.349976
0.464966 0.893768 0.361176
0.611298 0.903107 0.373047
0.721100 0.912323 0.384216
0.812775 0.920898 0.399506
0.886383 0.928375 0.408966
0.948669 0.935974 0.422974
0.000000 0.000000 0.251160
0.248749 0.000000 0.265656
0.400024 0.000000 0.273102
0.534760 0.000000 0.288757
0.643890 0.000000 0.301758
0.734131 0.000000 0.316925
0.811462 0.000000 0.328735
0.879333 0.000000 0.344238
0.000000 0.215759 0.272736
0.260254 0.221313 0.289459
0.410980 0.226440 0.301056
0.549255 0.228271 0.317230
0.656006 0.238495 0.329071
0.748749 0.243591 0.342255
0.826355 0.243591 0.361053
0.892792 0.246063 0.375732
0.000000 0.352814 0.301056
0.265656 0.364197 0.317230
0.421844 0.369751 0.329071
0.559723 0.376221 0.341217
0.668518 0.386566 0.361359
0.761871 0.395203 0.374390
0.838593 0.400696 0.390167
0.903015 0.403656 0.404663
0.000000 0.480896 0.327728
0.270996 0.492371 0.341553
0.433075 0.510925 0.361694
0.574524 0.518097 0.373413
0.683868 0.527252 0.389526
0.775330 0.533356 0.404968
0.849457 0.543182 0.416534
0.912689 0.552551 0.437347
0.000000 0.603943 0.360718
0.276367 0.616608 0.373718
0.442963 0.625977 0.389526
0.583740 0.634705 0.404968
0.695374 0.646210 0.416229
0.784760 0.654358 0.429474
0.860199 0.663879 0.449219
0.922119 0.671997 0.465820
0.000000 0.708649 0.389862
0.276703 0.721985 0.404327
0.448395 0.729950 0.415588
0.593658 0.740967 0.429474
0.703033 0.750244 0.449554
0.795380 0.759247 0.466125
0.868805 0.767059 0.482391
0.932556 0.777557 0.495850
0.000000 0.799713 0.415588
0.287720 0.808838 0.428467
0.454498 0.820648 0.449554
0.602509 0.829376 0.466461
0.713470 0.840149 0.481750
0.803680 0.847382 0.495453
0.880432 0.857697 0.517914
0.941315 0.865082 0.530243
0.000000 0.878387 0.446411
0.292694 0.888702 0.465118
0.465668 0.898163 0.480743
0.611298 0.905823 0.496429
0.722717 0.915558 0.517334
0.813690 0.923218 0.529907
0.888947 0.930939 0.543976
0.949585 0.937500 0.559448
0.000000 0.000000 0.304352
0.249084 0.000000 0.321472
0.400024 0.000000 0.333282
0.535950 0.000000 0.353821
0.647125 0.000000 0.365936
0.738373 0.000000 0.388245
0.816772 0.000000 0.405975
0.880615 0.000000 0.421692
0.000000 0.220917 0.333282
0.260254 0.221313 0.354156
0.411285 0.226837 0.366882
0.550110 0.237823 0.388245
0.660156 0.239227 0.405304
0.752045 0.243591 0.421082
0.827606 0.243591 0.444977
0.894012 0.249084 0.459076
0.000000 0.358002 0.366547
0.265991 0.364868 0.387207
0.422516 0.369751 0.404022
0.560913 0.376221 0.421082
0.671844 0.391022 0.441803
0.763153 0.396515 0.459076
0.841125 0.402008 0.476318
0.904877 0.408112 0.493805
0.000000 0.486969 0.404663
0.271729 0.501831 0.421692
0.433075 0.511902 0.442505
0.574524 0.522064 0.459442
0.684357 0.531799 0.476318
0.775726 0.538116 0.492828
0.851746 0.547882 0.516083
0.915039 0.554047 0.533203
0.000000 0.608215 0.443146
0.276367 0.617950 0.459137
0.442963 0.629578 0.475037
0.583984 0.638977 0.492249
0.695618 0.650146 0.511749
0.787018 0.658234 0.528687
0.860535 0.667206 0.549255
0.925446 0.676758 0.565796
0.000000 0.712219 0.474701
0.279144 0.723785 0.492249
0.449738 0.733582 0.512054
0.593658 0.744293 0.528351
0.703308 0.751282 0.547760
0.796173 0.762238 0.564941
0.871307 0.772125 0.584595
0.935242 0.779724 0.604889
0.000000 0.804993 0.511108
0.287720 0.814026 0.527740
0.459564 0.823273 0.548065
0.606812 0.832336 0.564941
0.713928 0.841217 0.585175
0.806580 0.851807 0.605438
0.881531 0.859955 0.622498
0.942993 0.867767 0.640167
0.000000 0.882172 0.545807
0.292694 0.891846 0.564941
0.465668 0.900482 0.585449
0.611572 0.909912 0.605713
0.725464 0.917938 0.622253
0.816345 0.925964 0.639130
0.889404 0.934601 0.652344
0.949585 0.939178 0.667542
0.000000 0.000000 0.363525
0.249084 0.000000 0.376251
0.405121 0.000000 0.396515
0.540405 0.000000 0.414612
0.648376 0.000000 0.439514
0.739655 0.000000 0.457458
0.817169 0.000000 0.480103
0.883148 0.000000 0.504486
0.000000 0.220917 0.395874
0.260254 0.222687 0.413605
0.412262 0.227509 0.438843
0.550476 0.237823 0.457458
0.660400 0.243286 0.478790
0.754425 0.243591 0.504486
0.830017 0.245026 0.524902
0.897003 0.249420 0.545319
0.000000 0.358002 0.438843
0.265991 0.369385 0.457458
0.422516 0.370392 0.479126
0.564911 0.385559 0.504456
0.675659 0.391022 0.524902
0.766113 0.400696 0.544708
0.843109 0.402649 0.564178
0.906982 0.408813 0.583313
0.000000 0.492035 0.479431
0.271729 0.505890 0.504120
0.437500 0.513489 0.524902
0.575378 0.523682 0.545319
0.687103 0.532990 0.564178
0.776154 0.541931 0.580872
0.854187 0.551666 0.599792
0.917145 0.557495 0.619171
0.000000 0.612701 0.524902
0.276703 0.622406 0.541504
0.443939 0.633606 0.561676
0.588104 0.642975 0.580872
0.699249 0.654083 0.596008
0.787994 0.662384 0.615784
0.862915 0.670013 0.637421
0.926422 0.680511 0.656494
0.000000 0.719238 0.562286
0.279846 0.726562 0.580872
0.449738 0.737823 0.596008
0.594208 0.747375 0.615540
0.704437 0.755615 0.637146
0.798340 0.765625 0.656494
0.873962 0.774231 0.677368
0.936035 0.783691 0.697449
0.000000 0.804993 0.596008
0.289062 0.817627 0.616364
0.459564 0.826447 0.636871
0.606812 0.835785 0.656708
0.715271 0.845673 0.676392
0.807526 0.853149 0.696289
0.882629 0.862854 0.712433
0.943909 0.871399 0.730194
0.000000 0.884033 0.636627
0.293060 0.895172 0.656006
0.470093 0.903229 0.676636
0.615540 0.912903 0.696289
0.725464 0.921326 0.711517
0.819000 0.928375 0.729950
0.890839 0.936859 0.742767
0.951599 0.943054 0.757355
0.000000 0.000000 0.413605
0.252563 0.000000 0.436218
0.405121 0.000000 0.455170
0.540405 0.000000 0.481873
0.651031 0.000000 0.504822
0.744171 0.000000 0.528198
0.821106 0.000000 0.549683
0.884857 0.000000 0.574982
0.000000 0.221313 0.454498
0.260254 0.226440 0.479126
0.416077 0.230347 0.504822
0.552277 0.238495 0.528503
0.663971 0.243591 0.550323
0.754639 0.243591 0.574982
0.831879 0.245728 0.597839
0.897919 0.252930 0.618652
0.000000 0.363831 0.503510
0.265991 0.369751 0.525879
0.423187 0.375580 0.550903
0.565796 0.386230 0.574707
0.676636 0.395538 0.597015
0.769104 0.400696 0.617004
0.844452 0.407806 0.638306
0.908844 0.413269 0.655945
0.000000 0.493988 0.550598
0.273102 0.510620 0.574097
0.437500 0.517761 0.597290
0.576263 0.528809 0.616760
0.688507 0.534882 0.638062
0.780945 0.543762 0.654968
0.855194 0.553467 0.676117
0.919525 0.562134 0.696747
0.000000 0.616608 0.594360
0.276703 0.628510 0.615387
0.447388 0.635223 0.637299
0.588104 0.646454 0.654449
0.702820 0.654083 0.673584
0.789185 0.666992 0.696075
0.865326 0.675262 0.715057
0.926849 0.685059 0.734680
0.000000 0.722687 0.637299
0.279846 0.732513 0.654205
0.454163 0.741608 0.673309
0.597137 0.750854 0.695618
0.707733 0.758789 0.711517
0.800385 0.768066 0.734894
0.875702 0.778503 0.754547
0.937592 0.787903 0.772125
0.000000 0.810791 0.673126
0.289459 0.820862 0.692657
0.460236 0.828857 0.711975
0.607666 0.840820 0.734467
0.718750 0.847565 0.752319
0.809479 0.857574 0.772125
0.884277 0.865387 0.789978
0.946075 0.873260 0.805176
0.000000 0.889038 0.711060
0.295074 0.897827 0.733826
0.470734 0.905975 0.752319
0.616364 0.915833 0.772125
0.727997 0.924347 0.789581
0.819000 0.931213 0.805176
0.893219 0.939056 0.819916
0.952484 0.945343 0.833130
0.000000 0.000000 0.471741
0.259186 0.000000 0.491058
0.405792 0.000000 0.521118
0.545166 0.000000 0.541931
0.652069 0.000000 0.565643
0.745667 0.000000 0.589417
0.823914 0.000000 0.615387
0.888306 0.000000 0.640778
0.000000 0.221313 0.516510
0.265656 0.226837 0.541931
0.416077 0.237823 0.565399
0.555115 0.240326 0.589935
0.667084 0.243591 0.615387
0.758881 0.243591 0.639130
0.837006 0.249084 0.662476
0.900391 0.253632 0.681213
0.000000 0.366180 0.565033
0.270660 0.370056 0.588837
0.423187 0.379578 0.615387
0.569427 0.390717 0.639618
0.679382 0.396210 0.661255
0.771820 0.402313 0.681946
0.846619 0.408447 0.704742
0.910156 0.413269 0.723419
0.000000 0.502502 0.613129
0.276367 0.511536 0.639130
0.437500 0.522064 0.660736
0.579010 0.532715 0.682678
0.691498 0.538727 0.704529
0.781525 0.548187 0.723419
0.857483 0.554688 0.742310
0.921265 0.564178 0.763336
0.000000 0.620758 0.660248
0.276703 0.632568 0.681702
0.448090 0.639496 0.703613
0.592194 0.650696 0.720673
0.702820 0.657990 0.740112
0.793060 0.669800 0.763580
0.866486 0.679047 0.780853
0.930176 0.687927 0.802063
0.000000 0.724213 0.702454
0.287048 0.736542 0.720428
0.454163 0.744934 0.739655
0.598511 0.754120 0.763336
0.710144 0.762634 0.780396
0.800385 0.772308 0.801697
0.877502 0.781799 0.819244
0.939117 0.792084 0.838287
0.000000 0.814972 0.738983
0.289459 0.824554 0.761505
0.464661 0.833221 0.780396
0.611023 0.843719 0.801880
0.718994 0.852844 0.819458
0.812195 0.861694 0.837433
0.885895 0.869049 0.854950
0.947296 0.875916 0.870605
0.000000 0.891541 0.780396
0.295074 0.901215 0.800446
0.470734 0.912170 0.819641
0.619690 0.919403 0.837799
0.729584 0.926666 0.854767
0.820923 0.935150 0.870941
0.893219 0.941010 0.884369
0.953552 0.947357 0.896057
