static/images/IMG_3870.auh/Contents/History/resources/30199EE2-3866-4BBB-B9E6-B0C44FAE34DE.cube
#Created by: Adobe Photoshop Export Color Lookup Plugin
#Copyright: (C) Copyright 2017 ©ThinkTAP
TITLE "Faded Afternoon"
#LUT size
LUT_3D_SIZE 5
#data domain
#LUT data points
DOMAIN_MIN 0.000000 0.000000 0.000000
DOMAIN_MAX 0.903226 0.903226 0.903226
0.000000 0.000000 0.000000
0.363373 0.000000 0.000000
0.585968 0.000000 0.000000
0.748108 0.000000 0.000000
0.871399 0.000000 0.000000
0.000000 0.313171 0.000000
0.376923 0.325714 0.000000
0.607910 0.334137 0.000000
0.771301 0.352997 0.000000
0.894012 0.363373 0.000000
0.000000 0.536591 0.000000
0.393494 0.556488 0.000000
0.628082 0.574707 0.000000
0.792969 0.588959 0.000000
0.912018 0.606232 0.000000
0.000000 0.723999 0.000000
0.406982 0.741150 0.000000
0.649109 0.758270 0.000000
0.811279 0.772217 0.000000
0.930176 0.790375 0.000000
0.000000 0.867249 0.000000
0.422363 0.884766 0.000000
0.665558 0.900909 0.000000
0.828400 0.916046 0.000000
0.944458 0.928680 0.000000
0.000000 0.000000 0.176971
0.363373 0.000000 0.191040
0.586975 0.000000 0.204559
0.751373 0.000000 0.222534
0.875214 0.000000 0.240326
0.000000 0.320465 0.204559
0.376923 0.332123 0.224701
0.610504 0.337402 0.238190
0.775116 0.357361 0.257812
0.898285 0.365723 0.271881
0.000000 0.545044 0.239075
0.393494 0.562836 0.254486
0.635345 0.580139 0.273102
0.797760 0.595978 0.293243
0.916138 0.610748 0.306213
0.000000 0.729523 0.271881
0.406982 0.747772 0.290314
0.652191 0.764160 0.307373
0.814117 0.780304 0.329285
0.932648 0.797485 0.347961
0.000000 0.874786 0.308594
0.425446 0.890106 0.327576
0.669983 0.905518 0.346802
0.832062 0.920837 0.365723
0.947876 0.935974 0.383911
0.000000 0.000000 0.285187
0.363373 0.000000 0.301453
0.592377 0.000000 0.326935
0.755371 0.000000 0.356171
0.879974 0.000000 0.388702
0.000000 0.323700 0.326935
0.384064 0.334137 0.357361
0.614716 0.346954 0.385559
0.779449 0.362549 0.414459
0.900635 0.367706 0.444244
0.000000 0.547119 0.379578
0.398712 0.568390 0.414398
0.639343 0.588959 0.442322
0.801208 0.601990 0.472046
0.919708 0.618469 0.505585
0.000000 0.734985 0.443146
0.410980 0.752319 0.468933
0.656952 0.770294 0.497742
0.819366 0.786621 0.533508
0.935242 0.801605 0.562683
0.000000 0.880249 0.497742
0.425446 0.897552 0.533508
0.674408 0.912811 0.562683
0.834351 0.926514 0.591522
0.949585 0.939178 0.617126
0.000000 0.000000 0.376923
0.368561 0.000000 0.405792
0.599335 0.000000 0.443146
0.763245 0.000000 0.481110
0.884430 0.000000 0.522400
0.000000 0.325714 0.440002
0.384064 0.334137 0.479950
0.620483 0.352997 0.520508
0.785095 0.363373 0.556732
0.905243 0.371735 0.592957
0.000000 0.559235 0.522400
0.401855 0.575684 0.556030
0.643341 0.592651 0.589569
0.802368 0.606537 0.622925
0.921387 0.623962 0.660095
0.000000 0.743744 0.592224
0.412109 0.760773 0.622955
0.658478 0.774109 0.656250
0.822205 0.792664 0.689697
0.939514 0.806793 0.726990
0.000000 0.885284 0.657104
0.428619 0.902344 0.691376
0.675262 0.916931 0.724121
0.839355 0.931122 0.754425
0.951599 0.944092 0.778503
0.000000 0.000000 0.471741
0.368561 0.000000 0.512177
0.601044 0.000000 0.556488
0.765717 0.000000 0.597290
0.888306 0.000000 0.640778
0.000000 0.333282 0.554962
0.386078 0.344086 0.597290
0.624634 0.358215 0.639221
0.788757 0.365723 0.676636
0.908386 0.376068 0.714020
0.000000 0.564606 0.637665
0.403809 0.582886 0.677429
0.644257 0.598633 0.710724
0.805939 0.612396 0.747650
0.925720 0.627716 0.781799
0.000000 0.749817 0.710236
0.416077 0.766113 0.744934
0.661438 0.781708 0.781799
0.822662 0.798645 0.815521
0.941010 0.815155 0.846619
0.000000 0.891541 0.780396
0.428619 0.908691 0.815247
0.677826 0.923340 0.846008
0.840851 0.936768 0.874481
0.953552 0.947357 0.896057
