static/images/IMG_3870.auh/Contents/History/resources/F2C06CD5-DA80-4708-B340-56604DCB0EBB.cube
# Created by: Adobe Lightroom Export LUT Plugin
LUT_3D_SIZE 5
DOMAIN_MIN 0.000000 0.000000 0.000000
DOMAIN_MAX 0.903226 0.903226 0.903226
0.000000 0.000000 0.000000
0.217685 0.000000 0.000000
0.567102 0.000000 0.000000
0.937957 0.000000 0.000000
1.000000 0.000000 0.000000
0.039216 0.183993 0.000000
0.182803 0.166781 0.000000
0.581201 0.260990 0.000000
0.942809 0.272251 0.000000
1.000000 0.216495 0.000000
0.155489 0.478981 0.000000
0.286595 0.469184 0.000000
0.411048 0.373907 0.000000
0.932982 0.565881 0.000000
1.000000 0.498390 0.000000
0.259709 0.820249 0.000000
0.376379 0.812711 0.000000
0.585473 0.767697 0.000000
0.700282 0.637751 0.000000
1.000000 0.748165 0.000000
0.352392 1.000000 0.000000
0.437324 1.000000 0.059541
0.638972 1.000000 0.183108
0.847990 1.000000 0.155642
1.000000 0.968292 0.000000
0.000000 0.000000 0.141756
0.229831 0.000000 0.162325
0.589471 0.000000 0.096681
0.951965 0.000000 0.000000
1.000000 0.000000 0.000000
0.000000 0.206424 0.150423
0.231510 0.199619 0.128237
0.597925 0.236728 0.077455
0.954223 0.232822 0.000000
1.000000 0.164797 0.000000
0.102998 0.503075 0.076967
0.297429 0.489754 0.110384
0.438422 0.394415 0.070405
0.957702 0.567620 0.000000
1.000000 0.485847 0.000000
0.235904 0.832303 0.000000
0.373510 0.823972 0.000000
0.594751 0.780911 0.000000
0.713802 0.647272 0.000000
1.000000 0.744747 0.000000
0.340276 1.000000 0.183352
0.429480 1.000000 0.202335
0.635309 1.000000 0.259709
0.846433 1.000000 0.236851
1.000000 0.967254 0.133181
0.022156 0.000000 0.389899
0.257084 0.000000 0.391394
0.603662 0.000000 0.424659
0.962890 0.000000 0.380163
1.000000 0.000000 0.352148
0.000000 0.211856 0.397833
0.259434 0.189975 0.397406
0.618067 0.124025 0.403052
0.966705 0.000000 0.352422
1.000000 0.000000 0.344457
0.000000 0.545495 0.400824
0.264500 0.542779 0.379400
0.557610 0.484016 0.322942
0.967224 0.538933 0.343114
1.000000 0.456245 0.330541
0.000000 0.867582 0.353582
0.309789 0.863432 0.336126
0.618219 0.828428 0.346410
0.750271 0.671229 0.208316
1.000000 0.736446 0.323003
0.372320 1.000000 0.444190
0.442847 1.000000 0.445014
0.615503 1.000000 0.439490
0.839750 1.000000 0.428382
1.000000 0.965576 0.309422
0.071260 0.000000 0.715206
0.308995 0.000000 0.715023
0.629755 0.000000 0.715206
0.964599 0.000000 0.696834
1.000000 0.000000 0.615534
0.000000 0.181552 0.723751
0.275273 0.156344 0.723018
0.640589 0.000000 0.720912
0.968322 0.000000 0.687831
1.000000 0.222751 0.628046
0.000000 0.573754 0.728481
0.204532 0.563531 0.728664
0.648615 0.528283 0.721492
0.960815 0.542077 0.685176
1.000000 0.622858 0.717494
0.000000 0.913024 0.695094
0.254307 0.909392 0.686671
0.650202 0.885252 0.687739
0.888731 0.787716 0.579492
1.000000 0.784573 0.709560
0.364263 1.000000 0.654536
0.475349 1.000000 0.672938
0.723659 1.000000 0.754025
0.856352 1.000000 0.741543
1.000000 0.961975 0.543938
0.000000 0.000000 0.993683
0.308568 0.000000 0.993164
0.627497 0.000000 0.991730
0.961456 0.000000 0.989563
1.000000 0.000000 0.834714
0.000000 0.138216 0.993561
0.245884 0.098238 0.992950
0.612299 0.000000 0.991058
0.958099 0.000000 0.988067
1.000000 0.210758 0.838407
0.000000 0.513573 0.990478
0.000000 0.491432 0.990661
0.558587 0.473030 0.987976
0.936950 0.460914 0.983917
1.000000 0.599084 0.869230
0.000000 0.870512 0.980865
0.000000 0.864836 0.980652
0.584802 0.854093 0.979248
0.910277 0.866178 0.974334
1.000000 0.899229 0.943877
0.261753 1.000000 0.877440
0.403174 1.000000 0.881926
0.703944 1.000000 0.908721
0.929686 1.000000 0.956054
1.000000 0.982513 0.950469
