static/images/IMG_3870.auh/Contents/History/resources/F2C06CD5-DA80-4708-B340-56604DCB0EBB.cube
# Created by: Adobe Lightroom Export LUT Plugin
LUT_3D_SIZE 32
0.000000 0.000000 0.000000
0.000000 0.000000 0.000000
0.001343 0.000000 0.000000
0.059144 0.000000 0.000000
0.095247 0.000000 0.000000
0.133700 0.000000 0.000000
0.174807 0.000000 0.000000
0.217685 0.000000 0.000000
0.262211 0.000000 0.000000
0.308598 0.000000 0.000000
0.357366 0.000000 0.000000
0.407599 0.000000 0.000000
0.459388 0.000000 0.000000
0.512749 0.000000 0.000000
0.567102 0.000000 0.000000
0.623865 0.000000 0.000000
0.682124 0.000000 0.000000
0.739101 0.000000 0.000000
0.793118 0.000000 0.000000
0.844633 0.000000 0.000000
0.893126 0.000000 0.000000
0.937957 0.000000 0.000000
0.978515 0.000000 0.000000
1.000000 0.000000 0.000000
1.000000 0.000000 0.000000
1.000000 0.000000 0.000000
1.000000 0.000000 0.000000
1.000000 0.000000 0.000000
1.000000 0.000000 0.000000
1.000000 0.000000 0.000000
1.000000 0.000000 0.000000
1.000000 0.000000 0.000000
0.000000 0.000000 0.000000
0.000000 0.000000 0.000000
0.002716 0.000000 0.000000
0.061311 0.000000 0.000000
0.096651 0.000000 0.000000
0.134707 0.000000 0.000000
0.176059 0.000000 0.000000
0.218814 0.000000 0.000000
0.263462 0.000000 0.000000
0.310155 0.000000 0.000000
0.358892 0.000000 0.000000
0.409339 0.000000 0.000000
0.461250 0.000000 0.000000
0.514763 0.000000 0.000000
0.569360 0.000000 0.000000
0.626368 0.000000 0.000000
0.684596 0.000000 0.000000
0.741604 0.000000 0.000000
0.795499 0.000000 0.000000
0.846860 0.000000 0.000000
0.895140 0.000000 0.000000
0.939696 0.000000 0.000000
0.980011 0.000000 0.000000
1.000000 0.000000 0.000000
1.000000 0.000000 0.000000
1.000000 0.000000 0.000000
1.000000 0.000000 0.000000
1.000000 0.000000 0.000000
1.000000 0.000000 0.000000
1.000000 0.000000 0.000000
1.000000 0.000000 0.000000
1.000000 0.000000 0.000000
0.000000 0.001190 0.000000
0.000000 0.003601 0.000000
0.006928 0.005859 0.000427
0.062440 0.006958 0.000000
0.097597 0.003693 0.000000
0.136049 0.000000 0.000000
0.177096 0.000000 0.000000
0.220035 0.000000 0.000000
0.264836 0.000000 0.000000
0.311406 0.000000 0.000000
0.360143 0.000000 0.000000
0.410742 0.000000 0.000000
0.462684 0.000000 0.000000
0.516350 0.000000 0.000000
0.570825 0.000000 0.000000
0.628016 0.000000 0.000000
0.686244 0.000000 0.000000
0.743191 0.000000 0.000000
0.797055 0.000000 0.000000
0.848173 0.000000 0.000000
0.896330 0.000000 0.000000
0.940734 0.000000 0.000000
0.980774 0.000000 0.000000
1.000000 0.000000 0.000000
1.000000 0.000000 0.000000
1.000000 0.000000 0.000000
1.000000 0.000000 0.000000
1.000000 0.000000 0.000000
1.000000 0.000000 0.000000
1.000000 0.000000 0.000000
1.000000 0.000000 0.000000
1.000000 0.000000 0.000000
0.000000 0.052735 0.000000
0.000000 0.055421 0.000000
0.016266 0.054566 0.000305
0.060334 0.052674 0.000275
0.098878 0.060578 0.000000
0.138338 0.062867 0.000000
0.179232 0.063630 0.000000
0.221988 0.064851 0.000000
0.266606 0.065614 0.000000
0.313298 0.067597 0.000000
0.362127 0.070954 0.000000
0.412665 0.076356 0.000000
0.464759 0.081880 0.000000
0.518486 0.083101 0.000000
0.573114 0.082856 0.000000
0.630335 0.082887 0.000000
0.688624 0.081575 0.000000
0.745510 0.079347 0.000000
0.799222 0.075502 0.000000
0.850278 0.069429 0.000000
0.898375 0.058778 0.000000
0.942504 0.031067 0.000000
0.982177 0.000000 0.000000
1.000000 0.000000 0.000000
1.000000 0.000000 0.000000
1.000000 0.000000 0.000000
1.000000 0.000000 0.000000
1.000000 0.000000 0.000000
1.000000 0.000000 0.000000
1.000000 0.000000 0.000000
1.000000 0.000000 0.000000
1.000000 0.000000 0.000000
0.000000 0.085969 0.000000
0.000000 0.085817 0.000000
0.026032 0.085206 0.000000
0.065339 0.083742 0.000000
0.089723 0.082307 0.000000
0.133394 0.094026 0.000000
0.182773 0.103426 0.000000
0.225345 0.107301 0.000000
0.269963 0.110964 0.000000
0.316533 0.115419 0.000000
0.365332 0.120333 0.000000
0.415930 0.125582 0.000000
0.468238 0.128756 0.000000
0.521752 0.131411 0.000000
0.576074 0.133486 0.000000
0.633143 0.135714 0.000000
0.691035 0.136599 0.000000
0.747494 0.136965 0.000000
0.800992 0.135805 0.000000
0.851865 0.133181 0.000000
0.899687 0.129519 0.000000
0.943694 0.124056 0.000000
0.983124 0.116854 0.000000
1.000000 0.107576 0.000000
1.000000 0.095338 0.000000
1.000000 0.080171 0.000000
1.000000 0.060395 0.000000
1.000000 0.003204 0.000000
1.000000 0.000000 0.000000
1.000000 0.000000 0.000000
1.000000 0.000000 0.000000
1.000000 0.000000 0.000000
0.000000 0.117494 0.000000
0.009583 0.117037 0.000000
0.040192 0.116304 0.000000
0.073457 0.114778 0.000000
0.097566 0.112642 0.000000
0.120241 0.110170 0.000000
0.166842 0.125429 0.000000
0.220157 0.139925 0.000000
0.273014 0.150393 0.000000
0.319493 0.156161 0.000000
0.368292 0.161776 0.000000
0.419104 0.166629 0.000000
0.471260 0.170993 0.000000
0.524498 0.174746 0.000000
0.578729 0.178225 0.000000
0.635706 0.181369 0.000000
0.693324 0.184024 0.000000
0.749325 0.185611 0.000000
0.802396 0.185733 0.000000
0.852995 0.184543 0.000000
0.900481 0.182223 0.000000
0.944182 0.178164 0.000000
0.975067 0.171267 0.000000
1.000000 0.164981 0.000000
1.000000 0.157046 0.000000
1.000000 0.147372 0.000000
1.000000 0.136568 0.000000
1.000000 0.123598 0.000000
1.000000 0.109041 0.000000
1.000000 0.091218 0.000000
1.000000 0.068696 0.000000
1.000000 0.013794 0.000000
0.006165 0.148989 0.000000
0.030365 0.148440 0.000000
0.058503 0.147860 0.000000
0.082307 0.146365 0.000000
0.106416 0.143984 0.000000
0.128847 0.140536 0.000000
0.149783 0.136721 0.000000
0.197055 0.154086 0.000000
0.253178 0.172122 0.000000
0.314122 0.188510 0.000000
0.368048 0.198154 0.000000
0.418189 0.204074 0.000000
0.469734 0.209567 0.000000
0.522698 0.214572 0.000000
0.577081 0.219059 0.000000
0.634119 0.223606 0.000000
0.691798 0.227665 0.000000
0.747829 0.230137 0.000000
0.800687 0.231235 0.000000
0.850828 0.230747 0.000000
0.897765 0.229099 0.000000
0.940826 0.225864 0.000000
0.979461 0.221225 0.000000
1.000000 0.215152 0.000000
1.000000 0.208011 0.000000
1.000000 0.199435 0.000000
1.000000 0.190066 0.000000
1.000000 0.179660 0.000000
1.000000 0.167788 0.000000
1.000000 0.155276 0.000000
1.000000 0.141543 0.000000
1.000000 0.126314 0.000000
0.039216 0.183993 0.000000
0.059937 0.183627 0.000000
0.073243 0.182986 0.000000
0.094423 0.181857 0.000000
0.118471 0.179995 0.000000
0.141207 0.176242 0.000000
0.162692 0.171572 0.000000
0.182803 0.166781 0.000000
0.231205 0.184878 0.000000
0.290745 0.206058 0.000000
0.355200 0.225711 0.000000
0.422644 0.243137 0.000000
0.474037 0.249516 0.000000
0.526818 0.255436 0.000000
0.581201 0.260990 0.000000
0.638209 0.266484 0.000000
0.695644 0.271366 0.000000
0.751308 0.274662 0.000000
0.803769 0.276432 0.000000
0.853605 0.276402 0.000000
0.900145 0.275212 0.000000
0.942809 0.272251 0.000000
0.981079 0.267887 0.000000
1.000000 0.261997 0.000000
1.000000 0.254826 0.000000
1.000000 0.246677 0.000000
1.000000 0.237461 0.000000
1.000000 0.227359 0.000000
1.000000 0.216495 0.000000
1.000000 0.204776 0.000000
1.000000 0.192538 0.000000
1.000000 0.179843 0.000000
0.064271 0.222202 0.000000
0.074525 0.221866 0.000000
0.086275 0.221286 0.000000
0.106508 0.220157 0.000000
0.130587 0.218570 0.000000
0.154452 0.215244 0.000000
0.176852 0.210147 0.000000
0.197482 0.203922 0.000000
0.216648 0.197452 0.000000
0.264744 0.215091 0.000000
0.327214 0.239109 0.000000
0.394659 0.261448 0.000000
0.466255 0.282414 0.000000
0.530755 0.295964 0.000000
0.585016 0.302434 0.000000
0.641932 0.309056 0.000000
0.699062 0.314733 0.000000
0.754391 0.318761 0.000000
0.806394 0.320684 0.000000
0.855894 0.321202 0.000000
0.902037 0.320104 0.000000
0.944396 0.317174 0.000000
0.982300 0.312840 0.000000
1.000000 0.307012 0.000000
1.000000 0.299840 0.000000
1.000000 0.291356 0.000000
1.000000 0.281926 0.000000
1.000000 0.271824 0.000000
1.000000 0.260868 0.000000
1.000000 0.249210 0.000000
1.000000 0.237369 0.000000
1.000000 0.225132 0.000000
0.079957 0.262333 0.000000
0.088869 0.261936 0.000000
0.099550 0.261601 0.000000
0.118837 0.260563 0.000000
0.142702 0.258976 0.000000
0.168185 0.256748 0.000000
0.191318 0.251225 0.000000
0.213169 0.244297 0.000000
0.232731 0.236454 0.000000
0.250309 0.227939 0.000000
0.297673 0.244816 0.000000
0.363348 0.271641 0.000000
0.433845 0.296880 0.000000
0.508110 0.320287 0.000000
0.586236 0.342260 0.000000
0.645686 0.351354 0.000000
0.702205 0.357549 0.000000
0.756741 0.361791 0.000000
0.808316 0.364263 0.000000
0.857420 0.364996 0.000000
0.903563 0.364202 0.000000
0.945769 0.361486 0.000000
0.983612 0.357000 0.000000
1.000000 0.351049 0.000000
1.000000 0.343481 0.000000
1.000000 0.334661 0.000000
1.000000 0.324895 0.000000
1.000000 0.314153 0.000000
1.000000 0.302800 0.000000
1.000000 0.291020 0.000000
1.000000 0.278965 0.000000
1.000000 0.266667 0.000000
0.095399 0.304662 0.000000
0.103365 0.304326 0.000000
0.113527 0.303899 0.000000
0.131991 0.302800 0.000000
0.155550 0.301122 0.000000
0.181155 0.298985 0.000000
0.206149 0.294377 0.000000
0.228519 0.286992 0.000000
0.249241 0.278202 0.000000
0.267521 0.268437 0.000000
0.283574 0.258091 0.000000
0.329717 0.273960 0.000000
0.398413 0.303532 0.000000
0.471778 0.331426 0.000000
0.548547 0.357305 0.000000
0.630640 0.382605 0.000000
0.706142 0.400732 0.000000
0.760128 0.405463 0.000000
0.811276 0.408026 0.000000
0.860044 0.408911 0.000000
0.905638 0.408026 0.000000
0.947356 0.405188 0.000000
0.984741 0.400549 0.000000
1.000000 0.394141 0.000000
1.000000 0.386236 0.000000
1.000000 0.376898 0.000000
1.000000 0.366552 0.000000
1.000000 0.355413 0.000000
1.000000 0.343572 0.000000
1.000000 0.331273 0.000000
1.000000 0.318730 0.000000
1.000000 0.306126 0.000000
0.110872 0.347692 0.000000
0.118044 0.347448 0.000000
0.127779 0.346899 0.000000
0.144991 0.345739 0.000000
0.168215 0.344121 0.000000
0.193820 0.341955 0.000000
0.220676 0.339208 0.000000
0.243900 0.331304 0.000000
0.265507 0.321965 0.000000
0.284977 0.311437 0.000000
0.301793 0.299809 0.000000
0.316289 0.287755 0.000000
0.356054 0.298100 0.000000
0.426520 0.329961 0.000000
0.501366 0.359899 0.000000
0.580224 0.388312 0.000000
0.664485 0.416144 0.000000
0.747433 0.439673 0.000000
0.805997 0.447089 0.000000
0.855161 0.448829 0.000000
0.901244 0.448432 0.000000
0.943542 0.446143 0.000000
0.981506 0.441627 0.000000
1.000000 0.435340 0.000000
1.000000 0.427222 0.000000
1.000000 0.417731 0.000000
1.000000 0.406928 0.000000
1.000000 0.395270 0.000000
1.000000 0.383001 0.000000
1.000000 0.370214 0.000000
1.000000 0.357153 0.000000
1.000000 0.343938 0.000000
0.125246 0.388312 0.000000
0.131746 0.388006 0.000000
0.140444 0.387762 0.000000
0.157351 0.386908 0.000000
0.179934 0.385687 0.000000
0.205417 0.383886 0.000000
0.232456 0.381384 0.000000
0.258122 0.375921 0.000000
0.280491 0.366247 0.000000
0.300877 0.355138 0.000000
0.318761 0.342687 0.000000
0.333654 0.328954 0.000000
0.346319 0.315038 0.000000
0.388006 0.327062 0.000000
0.461189 0.361334 0.000000
0.538415 0.393683 0.000000
0.621393 0.425544 0.000000
0.706722 0.454810 0.000000
0.788235 0.478248 0.000000
0.858854 0.492714 0.000000
0.904265 0.492287 0.000000
0.945953 0.489479 0.000000
0.983276 0.484718 0.000000
1.000000 0.477790 0.000000
1.000000 0.469123 0.000000
1.000000 0.458839 0.000000
1.000000 0.447486 0.000000
1.000000 0.435096 0.000000
1.000000 0.422034 0.000000
1.000000 0.408545 0.000000
1.000000 0.394903 0.000000
1.000000 0.380987 0.000000
0.140139 0.433570 0.000000
0.146853 0.433173 0.000000
0.154757 0.432898 0.000000
0.171084 0.432136 0.000000
0.192813 0.430823 0.000000
0.218235 0.429023 0.000000
0.245457 0.426642 0.000000
0.273472 0.423499 0.000000
0.297063 0.414038 0.000000
0.318425 0.402502 0.000000
0.337560 0.389532 0.000000
0.353948 0.375250 0.000000
0.367468 0.359960 0.000000
0.378607 0.344396 0.000000
0.417823 0.354253 0.000000
0.494667 0.391821 0.000000
0.575372 0.427283 0.000000
0.661585 0.462074 0.000000
0.747494 0.492439 0.000000
0.827909 0.515923 0.000000
0.898985 0.531212 0.000000
0.948119 0.532677 0.000000
0.984833 0.527367 0.000000
1.000000 0.519921 0.000000
1.000000 0.510521 0.000000
1.000000 0.499519 0.000000
1.000000 0.487373 0.000000
1.000000 0.474250 0.000000
1.000000 0.460456 0.000000
1.000000 0.446296 0.000000
1.000000 0.431891 0.000000
1.000000 0.417273 0.000000
0.155489 0.478981 0.000000
0.161501 0.478614 0.000000
0.168978 0.478248 0.000000
0.184634 0.477577 0.000000
0.206058 0.476387 0.000000
0.231174 0.474739 0.000000
0.258305 0.472328 0.000000
0.286595 0.469184 0.000000
0.313176 0.462959 0.000000
0.335607 0.451209 0.000000
0.355840 0.437995 0.000000
0.373724 0.423255 0.000000
0.388830 0.407507 0.000000
0.401099 0.390814 0.000000
0.411048 0.373907 0.000000
0.447669 0.381415 0.000000
0.527764 0.422004 0.000000
0.612634 0.461067 0.000000
0.701442 0.498360 0.000000
0.787869 0.529778 0.000000
0.866178 0.552544 0.000000
0.932982 0.565881 0.000000
0.986358 0.569940 0.000000
1.000000 0.561730 0.000000
1.000000 0.551568 0.000000
1.000000 0.539849 0.000000
1.000000 0.526848 0.000000
1.000000 0.512963 0.000000
1.000000 0.498390 0.000000
1.000000 0.483467 0.000000
1.000000 0.468269 0.000000
1.000000 0.452918 0.000000
0.170504 0.524773 0.000000
0.176211 0.524376 0.000000
0.183322 0.523949 0.000000
0.198154 0.523156 0.000000
0.218814 0.521782 0.000000
0.243534 0.519951 0.000000
0.270268 0.517418 0.000000
0.298558 0.514397 0.000000
0.327489 0.510613 0.000000
0.351629 0.500175 0.000000
0.373114 0.486885 0.000000
0.392645 0.472419 0.000000
0.409522 0.456703 0.000000
0.423743 0.439734 0.000000
0.435035 0.421881 0.000000
0.443977 0.403845 0.000000
0.477882 0.408911 0.000000
0.561303 0.452583 0.000000
0.651118 0.495857 0.000000
0.742214 0.535332 0.000000
0.827573 0.566552 0.000000
0.902403 0.587701 0.000000
0.963989 0.598383 0.000000
1.000000 0.599908 0.000000
1.000000 0.592187 0.000000
1.000000 0.579675 0.000000
1.000000 0.565881 0.000000
1.000000 0.551232 0.000000
1.000000 0.535882 0.000000
1.000000 0.520134 0.000000
1.000000 0.504082 0.000000
1.000000 0.488106 0.000000
0.185763 0.572351 0.000000
0.191043 0.572015 0.000000
0.198123 0.571710 0.000000
0.212375 0.570886 0.000000
0.232578 0.569482 0.000000
0.256657 0.567681 0.000000
0.283452 0.565179 0.000000
0.311711 0.562097 0.000000
0.340948 0.558404 0.000000
0.368719 0.551904 0.000000
0.391119 0.538384 0.000000
0.411597 0.523430 0.000000
0.429877 0.507408 0.000000
0.445808 0.490425 0.000000
0.459052 0.472297 0.000000
0.469337 0.453376 0.000000
0.477333 0.434241 0.000000
0.508446 0.436805 0.000000
0.597498 0.485237 0.000000
0.691829 0.532433 0.000000
0.784085 0.573083 0.000000
0.867247 0.603326 0.000000
0.937285 0.621820 0.000000
0.992828 0.629267 0.000000
1.000000 0.627619 0.000000
1.000000 0.619318 0.000000
1.000000 0.604761 0.000000
1.000000 0.589227 0.000000
1.000000 0.573053 0.000000
1.000000 0.556420 0.000000
1.000000 0.539605 0.000000
1.000000 0.522820 0.000000
0.201053 0.620844 0.000000
0.206271 0.620325 0.000000
0.210788 0.614282 0.000000
0.224460 0.613458 0.000000
0.244053 0.612268 0.000000
0.267521 0.610651 0.000000
0.294041 0.608576 0.000000
0.322210 0.605859 0.000000
0.351690 0.602594 0.000000
0.381628 0.598688 0.000000
0.406683 0.587976 0.000000
0.428412 0.573419 0.000000
0.448249 0.557580 0.000000
0.465705 0.540581 0.000000
0.480751 0.522637 0.000000
0.493172 0.503777 0.000000
0.503014 0.484230 0.000000
0.510674 0.464668 0.000000
0.539147 0.464729 0.000000
0.634424 0.518547 0.000000
0.732143 0.568719 0.000000
0.824155 0.609552 0.000000
0.903868 0.637903 0.000000
0.968353 0.653254 0.000000
1.000000 0.657282 0.000000
1.000000 0.652735 0.000000
1.000000 0.641993 0.000000
1.000000 0.626856 0.000000
1.000000 0.609888 0.000000
1.000000 0.592340 0.000000
1.000000 0.574701 0.000000
1.000000 0.557183 0.000000
0.216281 0.669368 0.000000
0.220554 0.668330 0.000000
0.226932 0.667109 0.000000
0.239811 0.665766 0.000000
0.258610 0.664027 0.000000
0.281865 0.662226 0.000000
0.308232 0.660182 0.000000
0.336584 0.657557 0.000000
0.366339 0.654566 0.000000
0.396826 0.650965 0.000000
0.426581 0.645411 0.000000
0.449836 0.631342 0.000000
0.471412 0.615961 0.000000
0.490852 0.599237 0.000000
0.507958 0.581384 0.000000
0.522454 0.562341 0.000000
0.534234 0.542290 0.000000
0.543023 0.521294 0.000000
0.550164 0.500694 0.000000
0.577020 0.498939 0.000000
0.678218 0.557610 0.000000
0.777707 0.609125 0.000000
0.867155 0.648310 0.000000
0.941161 0.672999 0.000000
0.998505 0.683925 0.000000
1.000000 0.683955 0.000000
1.000000 0.676081 0.000000
1.000000 0.662928 0.000000
1.000000 0.646204 0.000000
1.000000 0.627832 0.000000
1.000000 0.609430 0.000000
1.000000 0.591180 0.000000
0.231632 0.721187 0.000000
0.236088 0.720241 0.000000
0.242008 0.719265 0.000000
0.254520 0.717922 0.000000
0.273136 0.716426 0.000000
0.296056 0.714717 0.000000
0.322454 0.712703 0.000000
0.350835 0.710384 0.000000
0.380804 0.707576 0.000000
0.411841 0.704219 0.000000
0.443397 0.700465 0.000000
0.470985 0.690883 0.000000
0.494484 0.676417 0.000000
0.516228 0.660670 0.000000
0.535882 0.643549 0.000000
0.553063 0.625147 0.000000
0.567651 0.605646 0.000000
0.579370 0.584924 0.000000
0.588006 0.563012 0.000000
0.595056 0.541619 0.000000
0.620172 0.537652 0.000000
0.725154 0.599298 0.000000
0.824338 0.650660 0.000000
0.909056 0.686488 0.000000
0.975891 0.706325 0.000000
1.000000 0.712367 0.000000
1.000000 0.708278 0.000000
1.000000 0.697200 0.000000
1.000000 0.681514 0.000000
1.000000 0.663264 0.000000
1.000000 0.643854 0.000000
1.000000 0.624842 0.000000
0.246494 0.772763 0.000000
0.250553 0.771908 0.000000
0.256596 0.770932 0.000000
0.268833 0.769772 0.000000
0.287144 0.768307 0.000000
0.309850 0.766781 0.000000
0.335851 0.765011 0.000000
0.364263 0.762905 0.000000
0.394690 0.760311 0.000000
0.426093 0.757351 0.000000
0.458289 0.754025 0.000000
0.490791 0.750149 0.000000
0.516289 0.737118 0.000000
0.540307 0.722713 0.000000
0.562615 0.706966 0.000000
0.582818 0.689998 0.000000
0.600549 0.671534 0.000000
0.615625 0.651728 0.000000
0.627710 0.630671 0.000000
0.636622 0.608209 0.000000
0.644282 0.586633 0.000000
0.667018 0.579767 0.000000
0.773068 0.641962 0.000000
0.869261 0.690913 0.000000
0.947234 0.721889 0.000000
1.000000 0.736172 0.000000
1.000000 0.737331 0.000000
1.000000 0.729122 0.000000
1.000000 0.715236 0.000000
1.000000 0.697902 0.000000
1.000000 0.678523 0.000000
1.000000 0.658534 0.000000
0.259709 0.820249 0.000000
0.263981 0.819791 0.000000
0.269566 0.819272 0.000000
0.281743 0.818570 0.000000
0.299931 0.817502 0.000000
0.322210 0.816281 0.000000
0.347997 0.814725 0.000000
0.376379 0.812711 0.000000
0.406653 0.810391 0.000000
0.438239 0.807584 0.000000
0.470710 0.804501 0.000000
0.503838 0.801022 0.000000
0.534478 0.793973 0.000000
0.560601 0.781460 0.000000
0.585473 0.767697 0.000000
0.608759 0.752651 0.000000
0.629999 0.736385 0.000000
0.649073 0.718776 0.000000
0.665614 0.699947 0.000000
0.679377 0.679713 0.000000
0.690333 0.658320 0.000000
0.700282 0.637751 0.000000
0.721553 0.628687 0.000000
0.825742 0.688838 0.000000
0.916167 0.733059 0.000000
0.984985 0.757259 0.000000
1.000000 0.764248 0.000000
1.000000 0.759915 0.000000
1.000000 0.748165 0.000000
1.000000 0.731960 0.000000
1.000000 0.713466 0.000000
1.000000 0.694392 0.000000
0.273320 0.867521 0.000000
0.277409 0.867094 0.000000
0.282811 0.866667 0.000000
0.294804 0.865904 0.000000
0.312261 0.864988 0.000000
0.334234 0.863890 0.000000
0.359564 0.862608 0.000000
0.387610 0.860899 0.000000
0.417853 0.858854 0.000000
0.449531 0.856413 0.000000
0.482307 0.853696 0.000000
0.515770 0.850614 0.000000
0.549615 0.847379 0.000000
0.578607 0.837858 0.000000
0.605676 0.826322 0.000000
0.631708 0.813626 0.000000
0.656245 0.799741 0.000000
0.679103 0.784726 0.000000
0.700038 0.768521 0.000000
0.718715 0.751186 0.000000
0.735012 0.732662 0.000000
0.748745 0.712917 0.000000
0.761898 0.694148 0.000000
0.784878 0.685420 0.000000
0.880766 0.737942 0.000000
0.960327 0.773342 0.000000
1.000000 0.788479 0.000000
1.000000 0.788907 0.000000
1.000000 0.779934 0.000000
1.000000 0.765347 0.000000
1.000000 0.748043 0.000000
1.000000 0.729946 0.000000
0.285374 0.909148 0.000000
0.289281 0.908721 0.000000
0.294682 0.908324 0.000000
0.306004 0.907805 0.000000
0.322972 0.907134 0.000000
0.344213 0.906249 0.000000
0.369116 0.905180 0.000000
0.397009 0.903807 0.000000
0.426947 0.902159 0.000000
0.458503 0.900175 0.000000
0.491371 0.897978 0.000000
0.524865 0.895445 0.000000
0.559014 0.892668 0.000000
0.592309 0.888426 0.000000
0.621363 0.879210 0.000000
0.649775 0.869200 0.000000
0.677302 0.858244 0.000000
0.703700 0.846311 0.000000
0.728695 0.833310 0.000000
0.752010 0.819211 0.000000
0.773678 0.804196 0.000000
0.793454 0.788296 0.000000
0.811521 0.771695 0.000000
0.828183 0.754910 0.000000
0.852598 0.746212 0.000000
0.930480 0.782986 0.000000
0.997864 0.808621 0.000000
1.000000 0.815518 0.000000
1.000000 0.810208 0.000000
1.000000 0.797787 0.000000
1.000000 0.781827 0.000000
1.000000 0.764889 0.000000
0.297887 0.947936 0.000000
0.301427 0.947570 0.000000
0.306767 0.947234 0.000000
0.317479 0.946777 0.000000
0.333837 0.946136 0.000000
0.354437 0.945342 0.000000
0.378698 0.944305 0.000000
0.405646 0.943053 0.000000
0.435065 0.941497 0.000000
0.466163 0.939666 0.000000
0.498421 0.937621 0.000000
0.531853 0.935271 0.000000
0.565759 0.932738 0.000000
0.600214 0.929992 0.000000
0.631891 0.924407 0.000000
0.661738 0.916533 0.000000
0.691157 0.908019 0.000000
0.719936 0.898772 0.000000
0.747982 0.888731 0.000000
0.775082 0.877989 0.000000
0.800961 0.866361 0.000000
0.825162 0.853574 0.000000
0.848051 0.840116 0.000000
0.869444 0.826017 0.000000
0.890166 0.811978 0.000000
0.914611 0.802426 0.000000
0.975189 0.824125 0.000000
1.000000 0.839139 0.000000
1.000000 0.838560 0.000000
1.000000 0.828763 0.000000
1.000000 0.814450 0.000000
1.000000 0.798795 0.000000
0.310094 0.980743 0.000000
0.313695 0.980499 0.000000
0.318486 0.980285 0.000000
0.328893 0.979919 0.000000
0.344335 0.979400 0.000000
0.364019 0.978698 0.000000
0.387304 0.977813 0.000000
0.413489 0.976684 0.000000
0.442176 0.975280 0.000000
0.472297 0.973632 0.000000
0.504082 0.971710 0.000000
0.536797 0.969604 0.000000
0.570306 0.967254 0.000000
0.604425 0.964782 0.000000
0.638819 0.962219 0.000000
0.669245 0.956268 0.000000
0.699733 0.949859 0.000000
0.729946 0.942870 0.000000
0.759548 0.935027 0.000000
0.788663 0.926604 0.000000
0.817136 0.917601 0.000000
0.844938 0.908019 0.000000
0.871946 0.898009 0.000000
0.898131 0.887602 0.000000
0.923583 0.876799 0.000000
0.947845 0.865446 0.000000
0.970275 0.853544 0.000000
1.000000 0.861051 0.000000
1.000000 0.865354 0.000000
1.000000 0.858610 0.000000
1.000000 0.845975 0.000000
1.000000 0.831632 0.000000
0.323278 1.000000 0.000000
0.326513 1.000000 0.000000
0.331151 1.000000 0.000000
0.340673 1.000000 0.000000
0.355383 1.000000 0.000000
0.373907 1.000000 0.000000
0.396002 1.000000 0.000000
0.420813 1.000000 0.000000
0.448188 1.000000 0.000000
0.477241 1.000000 0.000000
0.507744 0.998993 0.000000
0.539513 0.996857 0.000000
0.572045 0.994598 0.000000
0.605280 0.992126 0.000000
0.638880 0.989380 0.000000
0.671199 0.985809 0.000000
0.701442 0.980621 0.000000
0.731716 0.975067 0.000000
0.762020 0.969055 0.000000
0.792111 0.962615 0.000000
0.822019 0.955810 0.000000
0.851682 0.948669 0.000000
0.881010 0.941222 0.000000
0.910033 0.933501 0.000000
0.938659 0.925597 0.000000
0.966979 0.917510 0.000000
0.993561 0.908110 0.000000
1.000000 0.893339 0.000000
1.000000 0.889799 0.000000
1.000000 0.885863 0.000000
1.000000 0.875517 0.000000
1.000000 0.862516 0.091524
0.336553 1.000000 0.000000
0.339605 1.000000 0.000000
0.343786 1.000000 0.000000
0.352819 1.000000 0.000000
0.366522 1.000000 0.000000
0.383948 1.000000 0.000000
0.404761 1.000000 0.000000
0.428229 1.000000 0.000000
0.454261 1.000000 0.000000
0.482185 1.000000 0.000000
0.511559 1.000000 0.000000
0.542138 1.000000 0.000000
0.573663 1.000000 0.002625
0.605829 1.000000 0.073182
0.638422 1.000000 0.102510
0.671443 1.000000 0.126619
0.701808 1.000000 0.121401
0.731624 1.000000 0.102968
0.761654 0.996551 0.078523
0.791867 0.991638 0.017334
0.822080 0.986481 0.000000
0.852354 0.981079 0.000000
