static/images/IMG_3870.auh/Contents/History/resources/F2C06CD5-DA80-4708-B340-56604DCB0EBB.cube
# Created by: Adobe Lightroom Export LUT Plugin
LUT_3D_SIZE 8
DOMAIN_MIN 0.000000 0.000000 0.000000
DOMAIN_MAX 0.903226 0.903226 0.903226
0.000000 0.000000 0.000000
0.095247 0.000000 0.000000
0.262211 0.000000 0.000000
0.459388 0.000000 0.000000
0.682124 0.000000 0.000000
0.893126 0.000000 0.000000
1.000000 0.000000 0.000000
1.000000 0.000000 0.000000
0.000000 0.085969 0.000000
0.089723 0.082307 0.000000
0.269963 0.110964 0.000000
0.468238 0.128756 0.000000
0.691035 0.136599 0.000000
0.899687 0.129519 0.000000
1.000000 0.095338 0.000000
1.000000 0.000000 0.000000
0.064271 0.222202 0.000000
0.130587 0.218570 0.000000
0.216648 0.197452 0.000000
0.466255 0.282414 0.000000
0.699062 0.314733 0.000000
0.902037 0.320104 0.000000
1.000000 0.299840 0.000000
1.000000 0.260868 0.000000
0.125246 0.388312 0.000000
0.179934 0.385687 0.000000
0.280491 0.366247 0.000000
0.346319 0.315038 0.000000
0.621393 0.425544 0.000000
0.904265 0.492287 0.000000
1.000000 0.469123 0.000000
1.000000 0.422034 0.000000
0.185763 0.572351 0.000000
0.232578 0.569482 0.000000
0.340948 0.558404 0.000000
0.429877 0.507408 0.000000
0.477333 0.434241 0.000000
0.784085 0.573083 0.000000
1.000000 0.627619 0.000000
1.000000 0.573053 0.000000
0.246494 0.772763 0.000000
0.287144 0.768307 0.000000
0.394690 0.760311 0.000000
0.516289 0.737118 0.000000
0.600549 0.671534 0.000000
0.644282 0.586633 0.000000
0.947234 0.721889 0.000000
1.000000 0.715236 0.000000
0.297887 0.947936 0.000000
0.333837 0.946136 0.000000
0.435065 0.941497 0.000000
0.565759 0.932738 0.000000
0.691157 0.908019 0.000000
0.800961 0.866361 0.000000
0.890166 0.811978 0.000000
1.000000 0.838560 0.000000
0.352392 1.000000 0.000000
0.379828 1.000000 0.000000
0.461769 1.000000 0.079957
0.575219 1.000000 0.144991
0.702174 1.000000 0.212314
0.818296 1.000000 0.169406
0.938537 0.990814 0.098665
1.000000 0.968292 0.000000
0.000000 0.000000 0.065736
0.100160 0.000000 0.071290
0.273472 0.000000 0.034424
0.472358 0.000000 0.000000
0.695247 0.000000 0.000000
0.903593 0.000000 0.000000
1.000000 0.000000 0.000000
1.000000 0.000000 0.000000
0.000000 0.091066 0.069123
0.104860 0.091829 0.063874
0.277592 0.111727 0.023072
0.477058 0.120821 0.000000
0.699855 0.121187 0.000000
0.906706 0.104555 0.000000
1.000000 0.027893 0.000000
1.000000 0.000000 0.000000
0.029450 0.234684 0.016815
0.142123 0.229252 0.048798
0.231785 0.208469 0.034699
0.483833 0.287175 0.000000
0.708522 0.311711 0.000000
0.909667 0.314275 0.000000
1.000000 0.291722 0.000000
1.000000 0.250401 0.000000
0.122255 0.400000 0.000000
0.186526 0.396063 0.000000
0.290074 0.376013 0.000000
0.359472 0.325261 0.000000
0.643519 0.437049 0.000000
0.914519 0.492897 0.000000
1.000000 0.466163 0.000000
1.000000 0.417395 0.000000
0.186801 0.579675 0.000000
0.234989 0.577020 0.000000
0.346410 0.566247 0.000000
0.438453 0.516350 0.000000
0.487190 0.442054 0.000000
0.798154 0.580957 0.000000
1.000000 0.627497 0.000000
1.000000 0.570581 0.000000
0.245457 0.779324 0.000000
0.288029 0.776883 0.000000
0.398016 0.768521 0.000000
0.522026 0.745174 0.000000
0.606928 0.678126 0.000000
0.650446 0.591302 0.000000
0.953277 0.724819 0.000000
1.000000 0.714321 0.000000
0.295689 0.952178 0.000000
0.332799 0.951110 0.000000
0.435462 0.945983 0.000000
0.567224 0.936339 0.000000
0.693477 0.911437 0.000000
0.804227 0.869932 0.000000
0.895262 0.815976 0.000000
1.000000 0.839384 0.000000
0.350927 1.000000 0.093507
0.378302 1.000000 0.104067
0.460822 1.000000 0.136660
0.574945 1.000000 0.180697
0.701442 1.000000 0.234836
0.817777 1.000000 0.195895
0.938628 0.991241 0.137423
1.000000 0.968536 0.048981
0.000000 0.000000 0.171115
0.108431 0.000000 0.171450
0.277531 0.000000 0.194583
0.482490 0.000000 0.171756
0.704799 0.000000 0.118837
0.908934 0.000000 0.068208
1.000000 0.000000 0.000000
1.000000 0.000000 0.000000
0.000000 0.095460 0.175204
0.118532 0.087770 0.175418
0.286870 0.040223 0.181247
0.488808 0.000000 0.149203
0.709560 0.000000 0.117708
0.911772 0.000000 0.054444
1.000000 0.000000 0.000000
1.000000 0.000000 0.000000
0.000000 0.250187 0.181186
0.124453 0.250187 0.169314
0.276341 0.238224 0.152987
0.495338 0.271305 0.141604
0.714748 0.282292 0.098207
0.914061 0.279179 0.000000
1.000000 0.252720 0.000000
1.000000 0.209506 0.000000
0.000000 0.420661 0.149416
0.153201 0.417182 0.140993
0.306645 0.397742 0.152987
0.384161 0.342565 0.122194
0.685664 0.451606 0.028077
0.917784 0.477272 0.000000
1.000000 0.448219 0.000000
1.000000 0.399512 0.000000
0.119478 0.600519 0.097841
0.208103 0.596124 0.109346
0.352483 0.582452 0.134798
0.454505 0.533745 0.121279
0.505241 0.454719 0.080018
0.827878 0.593744 0.000000
1.000000 0.622309 0.000000
1.000000 0.561303 0.000000
0.204501 0.793088 0.000000
0.266270 0.789975 0.004822
0.397314 0.780697 0.085023
0.531640 0.761013 0.108858
0.620539 0.692561 0.000000
0.666041 0.602472 0.000000
0.968933 0.730617 0.000000
1.000000 0.709682 0.000000
0.269383 0.957610 0.000000
0.314031 0.956115 0.042542
0.426764 0.950988 0.092256
0.564813 0.941497 0.133608
0.696132 0.918303 0.115572
0.808347 0.875151 0.000000
0.899229 0.817350 0.000000
1.000000 0.837522 0.000000
0.339452 1.000000 0.218997
0.366308 1.000000 0.221561
0.453193 1.000000 0.238132
0.570428 1.000000 0.264164
0.699458 1.000000 0.303685
0.816495 1.000000 0.272892
0.937713 0.991913 0.218601
1.000000 0.967468 0.162295
0.000000 0.000000 0.312230
0.134585 0.000000 0.312383
0.280369 0.000000 0.314519
0.489815 0.000000 0.342870
0.716213 0.000000 0.331273
0.920470 0.000000 0.279210
1.000000 0.000000 0.253513
1.000000 0.000000 0.248783
0.000000 0.081849 0.316381
0.129244 0.071778 0.316320
0.289403 0.000000 0.316716
0.494881 0.000000 0.334600
0.720119 0.000000 0.316838
0.922698 0.000000 0.265110
1.000000 0.000000 0.253788
1.000000 0.000000 0.246555
0.000000 0.256779 0.319799
0.113741 0.254032 0.319707
0.308995 0.245457 0.315740
0.507012 0.232700 0.308659
0.727321 0.207889 0.284215
0.921660 0.199252 0.263157
1.000000 0.173800 0.247990
1.000000 0.126040 0.238956
0.000000 0.441566 0.322362
0.107637 0.441749 0.314824
0.315496 0.432959 0.297063
0.461830 0.400122 0.264225
0.735500 0.462776 0.277073
0.925170 0.454963 0.255283
1.000000 0.421118 0.239445
1.000000 0.373846 0.235111
0.000000 0.626123 0.295933
0.132631 0.625757 0.284092
0.339757 0.613611 0.274327
0.484321 0.567285 0.266361
0.544579 0.483589 0.210788
0.877989 0.614710 0.214939
1.000000 0.608545 0.224949
1.000000 0.548638 0.231510
0.000000 0.814481 0.251865
0.177554 0.811215 0.243595
0.373083 0.800443 0.257115
0.539086 0.782406 0.273533
0.639246 0.714687 0.225803
0.687373 0.616571 0.157015
0.992126 0.737362 0.157259
1.000000 0.703365 0.225254
0.206912 0.968200 0.262638
0.267338 0.966186 0.265843
0.402808 0.959716 0.275029
0.552026 0.949126 0.286503
0.696468 0.928832 0.283604
0.812406 0.883543 0.205570
0.906554 0.820249 0.075288
1.000000 0.834806 0.203525
0.346990 1.000000 0.361456
0.371862 1.000000 0.361822
0.445289 1.000000 0.361791
0.556573 1.000000 0.368566
0.692378 1.000000 0.398260
0.812955 1.000000 0.378973
0.934874 0.993469 0.317937
1.000000 0.965972 0.257908
0.045380 0.000000 0.470802
0.156405 0.000000 0.470710
0.310216 0.000000 0.471992
0.479652 0.000000 0.473579
0.721065 0.000000 0.509361
0.922698 0.000000 0.488106
1.000000 0.000000 0.449744
1.000000 0.000000 0.440009
0.000000 0.061402 0.474800
0.143038 0.022370 0.473884
0.311254 0.000000 0.474037
0.487312 0.000000 0.475227
0.725399 0.000000 0.503960
0.924407 0.000000 0.480751
1.000000 0.000000 0.446754
1.000000 0.000000 0.445075
0.000000 0.255589 0.479530
0.076478 0.244358 0.479622
0.310887 0.229679 0.478706
0.509911 0.213993 0.477821
0.736995 0.159884 0.484810
0.929717 0.070680 0.460365
1.000000 0.131930 0.445594
1.000000 0.230594 0.454231
0.000000 0.445777 0.479103
0.086152 0.446509 0.479103
0.313756 0.445716 0.475807
0.528099 0.443885 0.465614
0.745205 0.436011 0.457313
0.930877 0.425788 0.446906
1.000000 0.405371 0.441108
1.000000 0.371466 0.432776
0.000000 0.654719 0.483375
0.001831 0.654292 0.477485
0.316899 0.650050 0.457221
0.528527 0.626001 0.444648
0.656001 0.569848 0.381567
0.933623 0.638575 0.437842
1.000000 0.593072 0.429114
1.000000 0.540307 0.425605
0.000000 0.838926 0.458961
0.123964 0.838102 0.452491
0.337407 0.834195 0.433936
0.540337 0.815488 0.433204
0.670771 0.760220 0.390265
0.738491 0.654871 0.296300
1.000000 0.747280 0.376349
1.000000 0.701228 0.427497
0.171908 0.978790 0.446906
0.238560 0.977874 0.445808
0.388281 0.973541 0.447761
0.545251 0.962554 0.451209
0.693843 0.947997 0.448798
0.817899 0.901305 0.364111
0.918029 0.825895 0.250858
1.000000 0.831998 0.371923
0.371405 1.000000 0.503593
0.405859 1.000000 0.511772
0.501549 1.000000 0.538293
0.577142 1.000000 0.527550
0.679988 1.000000 0.518059
0.810483 1.000000 0.521904
0.928954 0.996429 0.440620
1.000000 0.964569 0.362799
0.068757 0.000000 0.657038
0.177096 0.000000 0.657313
0.342473 0.000000 0.659022
0.520043 0.000000 0.659083
0.722042 0.000000 0.669154
0.924834 0.000000 0.663783
1.000000 0.000000 0.618006
1.000000 0.000000 0.581445
0.000000 0.000000 0.664057
0.156008 0.000000 0.664179
0.339483 0.000000 0.664057
0.524193 0.000000 0.663172
0.729519 0.000000 0.671473
0.927367 0.000000 0.660761
1.000000 0.000000 0.616541
1.000000 0.000000 0.584894
0.000000 0.231968 0.669673
0.000000 0.227848 0.669825
0.318151 0.211704 0.669215
0.528893 0.176181 0.666865
0.744747 0.103456 0.670527
0.931212 0.000000 0.648981
1.000000 0.127413 0.614557
1.000000 0.279149 0.600946
0.000000 0.461219 0.671656
0.000000 0.456580 0.672541
0.283452 0.437232 0.672969
0.529870 0.417243 0.667872
0.757504 0.409064 0.660151
0.930877 0.412848 0.636927
1.000000 0.443030 0.630304
1.000000 0.508965 0.649897
0.000000 0.672541 0.673060
0.000000 0.673335 0.672969
0.291569 0.674830 0.671534
0.531518 0.670710 0.665309
0.756741 0.656031 0.656977
0.927153 0.649165 0.652277
1.000000 0.641138 0.659846
1.000000 0.636439 0.669886
0.000000 0.869383 0.656001
0.000000 0.868009 0.652003
0.311009 0.863401 0.640253
0.540520 0.850492 0.631312
0.724025 0.819181 0.627527
0.847715 0.745205 0.529259
1.000000 0.785458 0.653712
1.000000 0.732937 0.647913
0.128084 0.988952 0.616724
0.213107 0.987640 0.615717
0.381262 0.983062 0.617456
0.571191 0.972534 0.638972
0.719539 0.958068 0.650660
0.827481 0.926116 0.578973
0.936828 0.837675 0.420020
1.000000 0.845274 0.601801
0.365850 1.000000 0.623804
0.401709 1.000000 0.629480
0.508415 1.000000 0.652644
0.649592 1.000000 0.699947
0.742214 1.000000 0.714778
0.822202 1.000000 0.697017
0.923156 0.998932 0.616297
1.000000 0.962371 0.500175
0.067231 0.000000 0.866423
0.190433 0.000000 0.867582
0.369421 0.000000 0.867155
0.556909 0.000000 0.866087
0.754635 0.000000 0.866239
0.944488 0.000000 0.849790
1.000000 0.000000 0.772793
1.000000 0.000000 0.712215
0.000000 0.000000 0.864164
0.156405 0.000000 0.865080
0.357336 0.000000 0.864805
0.551690 0.000000 0.863645
0.751888 0.000000 0.862791
0.941588 0.000000 0.844724
1.000000 0.000000 0.769192
1.000000 0.000000 0.712093
0.000000 0.218479 0.871366
0.000000 0.212314 0.871000
0.316014 0.188357 0.869413
0.540093 0.131258 0.867460
0.753658 0.000000 0.864805
0.945098 0.000000 0.841306
1.000000 0.101625 0.768002
1.000000 0.284916 0.723415
0.000000 0.455879 0.874510
0.000000 0.446540 0.874449
0.214755 0.414252 0.873869
0.514000 0.399420 0.871794
0.751949 0.375158 0.867979
0.947173 0.377905 0.838865
1.000000 0.440314 0.776944
1.000000 0.515221 0.756527
0.000000 0.676570 0.868742
0.000000 0.672938 0.868162
0.208347 0.661036 0.867613
0.483619 0.641505 0.867430
0.731197 0.624231 0.863218
0.932647 0.635248 0.838834
1.000000 0.673121 0.807767
1.000000 0.720394 0.817044
0.000000 0.889525 0.863432
0.000000 0.889433 0.863462
0.226596 0.888090 0.863340
0.504143 0.881315 0.863035
0.738003 0.864073 0.860594
0.912016 0.848783 0.857725
0.998871 0.850675 0.858701
1.000000 0.858793 0.874266
0.000000 1.000000 0.794797
0.133669 1.000000 0.794522
0.360357 1.000000 0.794949
0.569207 0.990173 0.803922
0.761166 0.971130 0.828367
0.885771 0.950500 0.844022
0.972351 0.894408 0.747707
1.000000 0.911040 0.864042
0.348730 1.000000 0.745602
0.386603 1.000000 0.748928
0.501030 1.000000 0.764340
0.649104 1.000000 0.795743
0.797848 1.000000 0.845396
0.889433 1.000000 0.876677
0.934783 0.998566 0.837339
1.000000 0.961486 0.695827
0.000000 0.000000 0.993683
0.175051 0.000000 0.993835
0.353491 0.000000 0.992950
0.535180 0.000000 0.992279
0.720974 0.000000 0.990845
0.912596 0.000000 0.989715
1.000000 0.000000 0.935668
1.000000 0.000000 0.834714
0.000000 0.000000 0.993011
0.133211 0.000000 0.993164
0.339422 0.000000 0.992462
0.528283 0.000000 0.991485
0.717494 0.000000 0.989990
0.910948 0.000000 0.988800
1.000000 0.000000 0.934539
1.000000 0.000000 0.835325
0.000000 0.194675 0.993194
0.000000 0.188632 0.993103
0.285374 0.162997 0.991913
0.505486 0.105257 0.991730
0.707027 0.000000 0.989715
0.906523 0.000000 0.987854
1.000000 0.000000 0.933471
1.000000 0.270146 0.839933
0.000000 0.400427 0.992706
0.000000 0.395178 0.992920
0.160189 0.384436 0.992065
0.464210 0.372045 0.990845
0.687037 0.352941 0.988861
0.895964 0.331914 0.986755
1.000000 0.381170 0.935729
1.000000 0.492866 0.855344
0.000000 0.619959 0.987671
0.000000 0.616022 0.988037
0.000000 0.601404 0.988159
0.404089 0.581872 0.987854
0.663203 0.586938 0.984863
0.875853 0.588739 0.982238
1.000000 0.636927 0.944945
1.000000 0.701778 0.888334
0.000000 0.820798 0.981567
0.000000 0.818662 0.981445
0.090089 0.811551 0.981231
0.438239 0.802823 0.980713
0.684565 0.807004 0.978637
0.872343 0.822080 0.976593
0.998138 0.839811 0.958648
1.000000 0.870054 0.933898
0.000000 1.000000 0.975494
0.000000 1.000000 0.975341
0.251957 1.000000 0.974914
0.508537 0.993500 0.974182
0.727504 0.977173 0.972839
0.889464 0.961975 0.971221
0.978363 0.954070 0.968444
1.000000 0.961242 0.969116
0.261753 1.000000 0.877440
0.309911 1.000000 0.878569
0.441718 1.000000 0.883909
0.615869 1.000000 0.897826
0.784939 1.000000 0.921630
0.908171 1.000000 0.949645
0.972045 0.995300 0.969909
1.000000 0.982513 0.950469
