static/images/nph.auh/Contents/History/resources/BFA7195A-FF59-48E2-94FC-131F4C5207B0.cube
# Created by: Adobe Lightroom Export LUT Plugin
LUT_3D_SIZE 8
DOMAIN_MIN 0.000000 0.000000 0.000000
DOMAIN_MAX 0.903226 0.903226 0.903226
-0.073059 -0.073059 -0.073059
0.148189 -0.064826 -0.039523
0.288465 -0.035567 0.007557
0.398662 0.009980 0.048042
0.533466 0.033466 0.084929
0.676130 0.047188 0.122244
0.824068 0.055099 0.169536
0.977995 0.067217 0.224706
-0.073059 0.161482 -0.072596
0.153250 0.150506 -0.073059
0.291673 0.089776 -0.073059
0.402261 0.078550 0.004776
0.536424 0.085144 0.058521
0.678376 0.089990 0.104673
0.825815 0.093803 0.157384
0.979242 0.102963 0.216973
-0.073059 0.296555 0.059483
0.081828 0.292493 0.039668
0.283155 0.275992 -0.073059
0.409638 0.215726 -0.073059
0.546083 0.197514 -0.073059
0.685896 0.190422 0.010122
0.831838 0.187000 0.104673
0.983769 0.190991 0.185004
-0.073059 0.408391 0.157918
0.061585 0.406858 0.151753
0.225668 0.401085 0.118716
0.401976 0.387186 0.027336
0.547616 0.344739 -0.073059
0.697870 0.315836 -0.073059
0.842280 0.302934 -0.073059
0.992037 0.300297 0.095407
-0.073059 0.544336 0.211912
0.036603 0.543410 0.208062
0.207706 0.539954 0.189281
0.371897 0.532469 0.146870
0.546190 0.518534 0.041556
0.692560 0.474145 -0.073059
0.851368 0.445135 -0.073059
1.003798 0.425925 -0.073059
-0.073059 0.688355 0.237679
-0.073059 0.687784 0.233580
0.180158 0.685646 0.220928
0.348873 0.681405 0.193343
0.523524 0.673101 0.136285
0.702004 0.660378 -0.073059
0.846699 0.610839 -0.073059
1.008359 0.585678 -0.073059
-0.073059 0.837007 0.244878
-0.073059 0.836757 0.239533
0.126164 0.835296 0.228520
0.325636 0.832338 0.205426
0.500269 0.827455 0.159594
0.687713 0.818152 0.032432
0.871932 0.805608 -0.073059
1.006221 0.749868 -0.073059
-0.073059 0.980774 0.241386
-0.073059 0.980561 0.236325
-0.002280 0.979350 0.223673
0.292920 0.976961 0.197514
0.484730 0.972862 0.146692
0.671213 0.966091 -0.073059
0.863949 0.955649 -0.073059
1.049023 0.942391 -0.073059
-0.073059 -0.073059 0.222960
0.134325 -0.073059 0.200222
0.274637 0.060481 0.165866
0.386544 0.106847 0.178197
0.529404 0.095443 0.145160
0.677164 0.078585 0.109877
0.825067 0.077445 0.163158
0.978886 0.079405 0.222497
-0.073059 0.151218 0.226667
0.117147 0.151183 0.214513
0.267723 0.146834 0.197585
0.389003 0.139565 0.175025
0.531364 0.129228 0.141880
0.679302 0.112194 0.091736
0.826778 0.110198 0.150897
0.980168 0.111909 0.214906
-0.073059 0.293775 0.207635
0.104994 0.287039 0.228306
0.264729 0.275813 0.203180
0.396951 0.233295 0.161447
0.538385 0.220037 0.128658
0.684720 0.205497 0.069711
0.832729 0.195410 0.097546
0.984695 0.195625 0.183044
-0.073059 0.406146 0.237822
0.094730 0.403330 0.248798
0.230445 0.398697 0.232654
0.392139 0.387114 0.195697
0.540096 0.352295 0.135644
0.693808 0.324283 0.012938
0.843136 0.307104 -0.073059
0.992999 0.302507 0.093233
-0.073059 0.542769 0.266190
0.056133 0.541842 0.263732
0.212625 0.538599 0.251900
0.370542 0.531684 0.227058
0.540558 0.518605 0.178553
0.687928 0.478208 0.085571
0.851297 0.447059 -0.073059
1.004724 0.426888 -0.073059
-0.073059 0.687607 0.277774
-0.073059 0.687285 0.271251
0.179124 0.685183 0.260203
0.348588 0.680942 0.240851
0.521563 0.672923 0.205176
0.698476 0.660414 0.130262
0.844099 0.612907 -0.073059
1.009321 0.585928 -0.073059
-0.073059 0.836757 0.277987
-0.073059 0.836685 0.270503
0.117111 0.835331 0.258671
0.322429 0.832373 0.239924
0.498736 0.827455 0.206459
0.685932 0.818117 0.138460
0.869117 0.805644 -0.073059
1.007254 0.749975 -0.073059
-0.073059 0.980882 0.269398
-0.073059 0.980668 0.264302
-0.073059 0.979563 0.252042
0.287289 0.977139 0.228734
0.481878 0.973005 0.187606
0.669146 0.966198 0.100005
0.862025 0.955649 -0.073059
1.049808 0.942427 -0.073059
-0.073059 -0.014433 0.360990
0.097938 -0.028332 0.359601
0.259348 0.034820 0.337647
0.386473 0.112015 0.315016
0.516645 0.149579 0.309527
0.660164 0.182438 0.316833
0.818152 0.158418 0.289820
0.981808 0.098437 0.230337
-0.073059 0.123527 0.357070
0.120604 0.156992 0.355039
0.251329 0.156279 0.340890
0.378383 0.176451 0.325459
0.508822 0.209702 0.329770
0.661804 0.201398 0.315515
0.819472 0.179837 0.287539
0.982841 0.128231 0.226274
-0.073059 0.274637 0.357997
0.097546 0.275599 0.355217
0.237857 0.276419 0.348161
0.368261 0.273425 0.339179
0.516075 0.268863 0.326492
0.667612 0.261094 0.309064
0.824033 0.245412 0.279412
0.986548 0.209167 0.210772
-0.073059 0.404613 0.353079
0.083539 0.401797 0.355111
0.223957 0.396843 0.348338
0.375923 0.387542 0.334333
0.527017 0.366052 0.315301
0.677556 0.354504 0.295842
0.832088 0.341960 0.262591
0.993249 0.315480 0.175774
-0.073059 0.542021 0.360349
0.042982 0.540701 0.360242
0.198084 0.537850 0.347305
0.358140 0.531578 0.333940
0.530295 0.518961 0.313875
0.679302 0.486619 0.287966
0.842815 0.461957 0.232333
1.002764 0.438399 0.093447
-0.073059 0.687000 0.363735
-0.073059 0.686431 0.361062
0.156992 0.685112 0.344989
0.337183 0.680978 0.331125
0.512119 0.673280 0.310347
0.691348 0.660842 0.279483
0.837825 0.619429 0.233651
1.007362 0.590561 -0.069603
-0.073059 0.836614 0.360064
-0.073059 0.836364 0.355859
0.082684 0.835687 0.340178
0.307888 0.832871 0.324816
0.489969 0.827954 0.301009
0.678554 0.818758 0.264550
0.863237 0.806071 0.207065
1.003299 0.754038 0.016966
-0.073059 0.981452 0.345986
-0.073059 0.981380 0.340926
-0.073059 0.980204 0.332872
0.270645 0.977852 0.315551
0.470652 0.973790 0.284794
0.658988 0.967196 0.235291
0.855860 0.956148 0.146372
1.044604 0.942748 -0.073059
0.030758 0.046154 0.461101
0.114830 0.055741 0.460425
0.262199 0.066860 0.458358
0.380057 0.098187 0.435548
0.542840 0.095371 0.430273
0.677449 0.107988 0.406039
0.821289 0.102713 0.383835
0.974502 0.170891 0.390072
0.095123 0.168040 0.457252
0.144411 0.167398 0.456967
0.263018 0.160983 0.455862
0.376850 0.162623 0.436795
0.538420 0.149151 0.430630
0.674527 0.151076 0.406787
0.817155 0.176736 0.396880
0.975820 0.187285 0.386651
0.040238 0.255570 0.455185
0.114724 0.260845 0.453333
0.247231 0.275314 0.451835
0.369722 0.266119 0.440323
0.524521 0.258457 0.429276
0.663621 0.259989 0.411955
0.814232 0.281694 0.411491
0.979954 0.246055 0.376993
-0.066074 0.389039 0.460317
0.079476 0.389074 0.458785
0.211555 0.388683 0.454080
0.357498 0.388931 0.446310
0.509286 0.384156 0.436083
0.663550 0.376637 0.422112
0.822892 0.363307 0.400051
0.986727 0.338859 0.361490
-0.073059 0.541414 0.466126
-0.032216 0.540345 0.464630
0.181155 0.537529 0.457359
0.343385 0.531613 0.444386
0.518035 0.519959 0.428670
0.674456 0.490219 0.408248
0.834618 0.472791 0.380700
0.996028 0.454259 0.335188
-0.073059 0.687037 0.464772
-0.073059 0.686537 0.462563
0.139956 0.684826 0.454472
0.322037 0.681192 0.440787
0.496384 0.674456 0.424464
0.682724 0.661839 0.400764
0.835972 0.622066 0.367834
1.005259 0.592058 0.297339
-0.073059 0.836970 0.460496
-0.073059 0.836757 0.457752
0.041664 0.835937 0.448485
0.291031 0.833549 0.435156
0.478529 0.828774 0.416802
0.666188 0.820184 0.389003
0.857071 0.806997 0.348481
1.002408 0.756319 0.282299
-0.073059 0.981986 0.450517
-0.073059 0.981915 0.447024
-0.073059 0.981594 0.434978
0.248014 0.978921 0.427494
0.457180 0.974894 0.405682
0.644733 0.968800 0.369152
0.844669 0.957787 0.312842
1.038902 0.943532 0.219004
0.117539 0.095443 0.568393
0.165759 0.099078 0.568001
0.281979 0.101644 0.567360
0.425248 0.079370 0.566790
0.530758 0.092236 0.539561
0.702753 0.000750 0.535106
0.846201 -0.073059 0.507539
0.992963 -0.073059 0.482128
0.145088 0.178376 0.565720
0.182687 0.177128 0.565614
0.284510 0.169750 0.565506
0.421613 0.145552 0.565543
0.529190 0.141845 0.540167
0.701933 0.081615 0.535462
0.844384 0.063296 0.507754
0.991715 0.042519 0.483376
0.059055 0.245947 0.561480
0.133364 0.257210 0.561372
0.267866 0.273603 0.561693
0.403829 0.255891 0.562406
0.524735 0.246055 0.542198
0.695732 0.220608 0.535213
0.837612 0.218826 0.509713
0.987012 0.215689 0.488686
0.011868 0.372930 0.563261
0.083040 0.372751 0.562227
0.208597 0.371112 0.558557
0.372538 0.385688 0.556988
0.515825 0.377777 0.545941
0.677699 0.373001 0.534037
0.823748 0.373394 0.516218
0.977068 0.399374 0.514151
-0.073059 0.519567 0.569463
-0.058198 0.519461 0.568429
0.174313 0.519282 0.564936
0.336115 0.519817 0.559020
0.500946 0.521670 0.550930
0.659737 0.515219 0.538849
0.822892 0.503262 0.519746
0.989400 0.480133 0.486761
-0.073059 0.685183 0.576020
-0.073059 0.685218 0.574452
0.107846 0.685112 0.568999
0.309243 0.681441 0.560125
0.487047 0.675168 0.547402
0.670713 0.663265 0.528193
0.834582 0.628303 0.499770
1.002229 0.599506 0.454615
-0.073059 0.837576 0.573347
-0.073059 0.837398 0.571636
-0.073059 0.836578 0.565578
0.267937 0.834582 0.554886
0.467481 0.830021 0.542198
0.650720 0.822288 0.520458
0.848233 0.808316 0.487938
1.003548 0.759206 0.435013
-0.073059 0.982806 0.568037
-0.073059 0.982770 0.565685
-0.073059 0.982450 0.557523
0.183472 0.981345 0.542912
0.442676 0.976427 0.535570
0.634646 0.970189 0.509250
0.830662 0.959925 0.466126
1.032202 0.944708 0.400621
0.187179 0.129514 0.680692
0.220786 0.129550 0.680621
0.314375 0.124026 0.680549
0.441785 0.097723 0.680871
0.590668 0.006060 0.681512
0.690066 -0.003207 0.648368
0.862916 -0.073059 0.641988
1.015237 -0.073059 0.615936
0.197264 0.187250 0.679054
0.226952 0.185183 0.679125
0.314624 0.175418 0.679373
0.438898 0.150150 0.680016
0.588387 0.087567 0.681049
0.689281 0.077445 0.648867
0.862594 -0.073059 0.642523
1.014346 -0.073059 0.616114
0.151111 0.264302 0.675952
0.200187 0.273603 0.676024
0.297268 0.272071 0.676487
0.422753 0.254038 0.677591
0.575557 0.218041 0.679267
0.686431 0.211234 0.650791
0.861312 0.156386 0.644662
1.010890 0.113476 0.617112
0.003209 0.354148 0.672816
0.076412 0.353400 0.672031
0.202360 0.350976 0.672318
0.395097 0.383158 0.673066
0.550610 0.364056 0.675347
0.680301 0.357784 0.654248
0.858818 0.334333 0.649544
1.003761 0.325209 0.620212
-0.073059 0.497667 0.678126
-0.068747 0.497275 0.677414
0.173528 0.496349 0.674847
0.332443 0.496064 0.670214
0.515860 0.515754 0.668753
0.670143 0.510497 0.658988
0.840819 0.506791 0.648332
0.990753 0.504546 0.627198
-0.073059 0.657206 0.684114
-0.073059 0.657385 0.683472
0.105635 0.657955 0.681121
0.302079 0.659309 0.677093
0.477282 0.661804 0.671319
0.653642 0.665261 0.663692
0.821396 0.657670 0.649650
0.990291 0.641454 0.624917
-0.073059 0.833941 0.697443
-0.073059 0.834120 0.696373
-0.073059 0.834476 0.692418
0.239425 0.834903 0.684826
0.448627 0.831339 0.674348
0.640313 0.823748 0.659879
0.834975 0.810027 0.637106
1.002408 0.769078 0.598615
-0.073059 0.984017 0.695625
-0.073059 0.983946 0.694129
-0.073059 0.983661 0.688711
0.120854 0.982593 0.678875
0.401797 0.979171 0.666401
0.624240 0.971794 0.655389
0.814874 0.962135 0.626842
1.021119 0.946169 0.582221
0.252612 0.151717 0.806356
0.278165 0.149294 0.806356
0.356856 0.136820 0.806499
0.471615 0.101715 0.807034
0.611196 -0.031077 0.808102
0.760844 -0.073059 0.808281
0.857498 -0.073059 0.768115
1.022472 -0.073059 0.755677
0.252718 0.194128 0.805430
0.277560 0.190814 0.805501
0.354219 0.177983 0.805858
0.468158 0.147477 0.806499
0.607668 0.075698 0.807711
0.759027 -0.073059 0.808173
0.857036 -0.073059 0.768650
1.022401 -0.073059 0.756177
0.231906 0.284046 0.803327
0.257601 0.281444 0.803469
0.336685 0.271715 0.803933
0.452940 0.251329 0.804859
0.594837 0.211983 0.806356
0.752470 0.141774 0.807746
0.855217 0.132650 0.770681
1.022152 -0.073059 0.758279
-0.073059 0.327668 0.801616
0.056239 0.331837 0.801724
0.265941 0.365517 0.801260
0.427280 0.382374 0.801616
0.572350 0.359601 0.803541
0.738713 0.319506 0.806428
0.851440 0.316300 0.774424
1.021439 0.259348 0.762520
-0.073059 0.478743 0.802186
-0.073059 0.478102 0.801581
0.158666 0.475999 0.799549
0.321325 0.472684 0.797590
0.539667 0.512048 0.798694
0.708919 0.490468 0.802365
0.844704 0.486726 0.779591
1.019265 0.463311 0.770253
-0.073059 0.638103 0.807568
-0.073059 0.637818 0.807069
0.072207 0.636963 0.805287
0.286148 0.635537 0.801972
0.465236 0.634754 0.796556
0.667435 0.656351 0.794738
0.833905 0.653713 0.785792
1.005295 0.649722 0.772748
-0.073059 0.804289 0.813556
-0.073059 0.804468 0.813127
-0.073059 0.805073 0.811666
0.222710 0.806285 0.809029
0.435156 0.807925 0.804753
0.626342 0.809457 0.798694
0.816443 0.811916 0.791459
0.989115 0.800761 0.774530
-0.073059 0.980489 0.835402
-0.073059 0.980632 0.834511
-0.073059 0.981024 0.831197
-0.073059 0.981130 0.824888
0.369865 0.979563 0.815409
0.597083 0.974003 0.803006
0.805501 0.963455 0.789249
1.005366 0.947844 0.760240
0.319970 0.168610 0.948129
0.341033 0.163941 0.948164
0.408569 0.145160 0.948236
0.512725 0.098686 0.948486
0.642095 -0.073059 0.948913
0.789963 -0.073059 0.949769
0.935655 -0.073059 0.948770
1.026392 -0.073059 0.898805
0.316050 0.202467 0.947844
0.337041 0.198120 0.947844
0.404613 0.181226 0.947987
0.509001 0.143093 0.948272
0.638745 0.049468 0.948807
0.787111 -0.073059 0.949662
0.934301 -0.073059 0.948842
1.026144 -0.073059 0.899375
0.298836 0.293098 0.946917
0.320291 0.289891 0.946988
0.389466 0.277702 0.947167
0.495564 0.252185 0.947558
0.626948 0.204213 0.948236
0.777203 0.102606 0.949269
0.929383 -0.073059 0.948949
1.025039 -0.073059 0.901442
0.130548 0.344810 0.947702
0.197692 0.356571 0.947310
0.357284 0.399303 0.945812
0.473362 0.388504 0.946134
0.606740 0.358389 0.947025
0.759170 0.307104 0.948307
0.919938 0.229945 0.948984
1.022651 0.211128 0.905219
-0.073059 0.456254 0.946454
-0.073059 0.455150 0.946134
0.110411 0.449197 0.946703
0.353721 0.471651 0.946740
0.577017 0.515968 0.944779
0.732084 0.484409 0.946382
0.904863 0.435512 0.948521
1.017626 0.432626 0.910708
-0.073059 0.620391 0.950268
-0.073059 0.619750 0.949983
-0.073059 0.617397 0.948913
0.257210 0.613476 0.946846
0.450979 0.609877 0.943710
0.694164 0.654925 0.942641
0.871897 0.628552 0.945206
1.009892 0.624204 0.917906
-0.073059 0.788109 0.954294
-0.073059 0.787859 0.954081
-0.073059 0.786791 0.953226
0.159130 0.785436 0.951479
0.408071 0.784509 0.948201
0.608095 0.781943 0.942783
0.828737 0.801901 0.938828
0.999485 0.798052 0.927209
-0.073059 0.948307 0.959142
-0.073059 0.948414 0.958963
-0.073059 0.948949 0.958251
-0.073059 0.949733 0.956825
0.342601 0.950516 0.954294
0.576341 0.950660 0.950268
0.786042 0.949840 0.943995
0.984125 0.949590 0.936261
