static/images/nph.auh/Contents/History/resources/BFA7195A-FF59-48E2-94FC-131F4C5207B0.cube
# Created by: Adobe Lightroom Export LUT Plugin
LUT_3D_SIZE 5
DOMAIN_MIN 0.000000 0.000000 0.000000
DOMAIN_MAX 0.903226 0.903226 0.903226
-0.073059 -0.073059 -0.073059
0.262127 -0.046544 -0.001639
0.463916 0.023879 0.066753
0.712482 0.049326 0.133149
0.977995 0.067217 0.224706
-0.073059 0.271465 0.025519
0.257743 0.251650 -0.073059
0.474359 0.169858 -0.073059
0.719397 0.161838 0.069355
0.982271 0.166436 0.196195
-0.073059 0.474288 0.189317
0.176807 0.470261 0.168895
0.472399 0.451229 0.040737
0.735862 0.386366 -0.073059
0.997597 0.360705 -0.073059
-0.073059 0.725313 0.240780
0.120319 0.723567 0.228591
0.426852 0.716331 0.177806
0.743061 0.696802 -0.073059
1.007753 0.628267 -0.073059
-0.073059 0.980774 0.241386
-0.073059 0.979777 0.227843
0.391391 0.975108 0.176843
0.719824 0.963739 -0.073059
1.049023 0.942391 -0.073059
-0.073059 -0.040486 0.336720
0.234471 -0.002672 0.313413
0.444743 0.146443 0.286577
0.702574 0.162267 0.276205
0.981238 0.091166 0.220751
-0.073059 0.249725 0.334048
0.212731 0.251900 0.324460
0.443281 0.245164 0.305144
0.707743 0.228591 0.268757
0.985514 0.177662 0.192631
-0.073059 0.471580 0.329414
0.182367 0.466874 0.326207
0.455078 0.451479 0.297838
0.724458 0.404898 0.236894
1.000803 0.363806 -0.073059
-0.073059 0.724208 0.340569
0.094730 0.723246 0.323071
0.420009 0.716117 0.295414
0.734722 0.697193 0.235434
1.008253 0.630191 -0.073059
-0.073059 0.981309 0.323142
-0.073059 0.980383 0.312486
0.377919 0.975857 0.275707
0.712268 0.964344 0.183401
1.046636 0.942641 -0.073059
0.077267 0.072740 0.514007
0.234186 0.086070 0.512582
0.453225 0.102463 0.487011
0.725990 0.064187 0.462455
0.982949 0.042020 0.421328
0.058984 0.223388 0.507575
0.234223 0.250972 0.507183
0.447416 0.229839 0.489684
0.717222 0.209702 0.463346
0.973076 0.278842 0.458785
-0.073059 0.453404 0.514293
0.157669 0.452940 0.510354
0.427744 0.453653 0.497988
0.701435 0.441500 0.475749
0.987938 0.407108 0.424251
-0.073059 0.724493 0.518177
0.033359 0.723138 0.511620
0.399374 0.716937 0.491822
0.720216 0.698940 0.454651
1.005366 0.632508 0.369152
-0.073059 0.982343 0.507860
-0.073059 0.982129 0.498202
0.348410 0.977887 0.479811
0.685397 0.967660 0.426781
1.035980 0.944102 0.311844
0.203786 0.136214 0.710630
0.297695 0.131189 0.710557
0.519176 0.068143 0.711520
0.731229 -0.073059 0.677164
1.020976 -0.073059 0.652787
0.199866 0.257423 0.707066
0.287110 0.248692 0.707599
0.505900 0.207279 0.709381
0.728877 0.160200 0.678946
1.018124 -0.073059 0.652930
-0.073059 0.419118 0.704714
0.153356 0.417301 0.702326
0.459462 0.446560 0.701827
0.718577 0.427529 0.685361
1.005366 0.404755 0.657027
-0.073059 0.693451 0.714870
-0.073059 0.693950 0.712839
0.378596 0.696658 0.706067
0.693380 0.702147 0.693950
0.990255 0.681833 0.660913
-0.073059 0.984375 0.728983
-0.073059 0.984161 0.724385
0.268008 0.981594 0.708705
0.669537 0.970118 0.687393
1.017661 0.946561 0.626627
0.319970 0.168610 0.948129
0.387720 0.151682 0.948201
0.574773 0.050644 0.948664
0.829343 -0.073059 0.950054
1.026392 -0.073059 0.898805
0.304254 0.266475 0.947202
0.373144 0.254144 0.947381
0.562584 0.198547 0.948093
0.820256 -0.073059 0.949733
1.025430 -0.073059 0.900764
-0.073059 0.370756 0.948022
0.166757 0.391641 0.947666
0.523524 0.450908 0.945491
0.787896 0.382410 0.947987
1.020512 0.327811 0.907750
-0.073059 0.662374 0.951265
-0.073059 0.660449 0.950303
0.345417 0.655424 0.946311
0.726061 0.691242 0.941857
1.007504 0.669502 0.920010
-0.073059 0.948307 0.959142
-0.073059 0.948770 0.958501
0.190457 0.950196 0.955720
0.630014 0.950553 0.948949
0.984125 0.949590 0.936261
