static/images/nph.auh/Contents/History/resources/BFA7195A-FF59-48E2-94FC-131F4C5207B0.cube
# Created by: Adobe Lightroom Export LUT Plugin
LUT_3D_SIZE 32
DOMAIN_MIN 0.000000 0.000000 0.000000
DOMAIN_MAX 1.000000 1.000000 1.000000
-0.073059 -0.073059 -0.073059
-0.003456 -0.072097 -0.067536
0.030865 -0.070707 -0.064149
0.089384 -0.068142 -0.052103
0.148189 -0.064826 -0.039523
0.195125 -0.062795 -0.026408
0.232119 -0.056808 -0.013363
0.262127 -0.046544 -0.001639
0.288465 -0.035567 0.007557
0.313377 -0.020242 0.017749
0.339928 -0.005630 0.028192
0.368367 0.002353 0.038491
0.398662 0.009980 0.048042
0.430630 0.016787 0.057701
0.463916 0.023879 0.066753
0.498273 0.028904 0.075663
0.533466 0.033466 0.084929
0.569284 0.037850 0.093589
0.604781 0.041164 0.102571
0.640278 0.044407 0.112051
0.676130 0.047188 0.122244
0.712482 0.049326 0.133149
0.749262 0.050965 0.144554
0.786470 0.053246 0.156778
0.824068 0.055099 0.169536
0.862203 0.057095 0.182795
0.900622 0.059982 0.196338
0.939255 0.063225 0.210451
0.977995 0.067217 0.224706
1.016698 0.072278 0.239140
1.055368 0.078229 0.253895
1.093858 0.085856 0.268934
-0.073059 0.000642 -0.072311
-0.000284 -0.002530 -0.073059
0.034928 -0.011831 -0.073059
0.092663 -0.004489 -0.073059
0.149900 -0.002280 -0.060871
0.196159 -0.003384 -0.047292
0.232832 -0.004845 -0.029258
0.262626 -0.003207 -0.011795
0.288786 -0.001425 0.001071
0.313804 0.002923 0.012297
0.340213 0.007806 0.023594
0.368796 0.012974 0.034464
0.399054 0.019175 0.044693
0.431022 0.025305 0.054387
0.464274 0.030971 0.064224
0.498665 0.035890 0.072848
0.533788 0.040202 0.082114
0.569534 0.043410 0.091380
0.605031 0.046510 0.100504
0.640563 0.049753 0.110127
0.676380 0.051891 0.120462
0.712661 0.053958 0.131439
0.749441 0.055848 0.142985
0.786612 0.057773 0.155317
0.824283 0.059732 0.168360
0.862346 0.061693 0.181582
0.900800 0.064151 0.195553
0.939398 0.067324 0.209488
0.978137 0.071173 0.223815
1.016842 0.076269 0.238463
1.055474 0.082078 0.253324
1.093929 0.089313 0.268400
-0.073059 0.037529 -0.066965
-0.003598 0.036567 -0.073059
0.037172 0.034643 -0.073059
0.095407 0.032076 -0.073059
0.152394 0.030473 -0.073059
0.197692 0.027016 -0.072988
0.233580 0.022988 -0.052603
0.263126 0.020280 -0.030542
0.289248 0.019175 -0.010120
0.314233 0.019567 0.004243
0.340784 0.022561 0.016787
0.369223 0.026552 0.028904
0.399553 0.030294 0.039526
0.431485 0.035640 0.050003
0.464665 0.040452 0.060017
0.499057 0.043908 0.069212
0.534215 0.048114 0.078941
0.569890 0.051108 0.088422
0.605422 0.053958 0.097723
0.640812 0.056597 0.107881
0.676700 0.058485 0.118216
0.712946 0.060160 0.129514
0.749726 0.061942 0.141168
0.786897 0.063475 0.153606
0.824497 0.065399 0.166792
0.862559 0.067253 0.180443
0.900978 0.069640 0.194271
0.939611 0.072848 0.208384
0.978280 0.076554 0.222889
1.016985 0.081223 0.237572
1.055617 0.087032 0.252470
1.094072 0.094018 0.267758
-0.073059 0.101501 -0.072846
-0.015823 0.100504 -0.073059
0.036424 0.099292 -0.073059
0.098116 0.096014 -0.073059
0.153606 0.084216 -0.073059
0.200329 0.072598 -0.073059
0.235291 0.064116 -0.073059
0.264479 0.056845 -0.073059
0.290247 0.052034 -0.052959
0.315195 0.049112 -0.021918
0.341817 0.048042 0.000607
0.370364 0.049218 0.014863
0.400586 0.051891 0.027265
0.432554 0.055028 0.038954
0.465698 0.058129 0.050894
0.500019 0.060766 0.061122
0.535071 0.063902 0.071529
0.570781 0.066147 0.081579
0.606171 0.068215 0.091380
0.641525 0.070282 0.101822
0.677378 0.071743 0.112906
0.713588 0.072990 0.124596
0.750296 0.074380 0.136855
0.787396 0.075806 0.149721
0.824996 0.077053 0.163193
0.863023 0.079013 0.177200
0.901407 0.080937 0.191313
0.940004 0.083895 0.205924
0.978672 0.087531 0.220537
1.017341 0.091807 0.235541
1.055938 0.097225 0.250651
1.094356 0.103925 0.266190
-0.073059 0.161482 -0.072596
-0.063009 0.160200 -0.073059
0.023773 0.159095 -0.073059
0.088885 0.155745 -0.073059
0.153250 0.150506 -0.073059
0.198155 0.130227 -0.073059
0.236894 0.112371 -0.073059
0.266226 0.099185 -0.073059
0.291673 0.089776 -0.073059
0.316691 0.083968 -0.073059
0.343385 0.080011 -0.056381
0.371932 0.078621 -0.019743
0.402261 0.078550 0.004776
0.433980 0.080190 0.020458
0.467124 0.081793 0.034037
0.501374 0.083504 0.046903
0.536424 0.085144 0.058521
0.572029 0.086676 0.069961
0.607312 0.087994 0.081295
0.642666 0.089099 0.092342
0.678376 0.089990 0.104673
0.714585 0.091060 0.116969
0.751187 0.091880 0.129977
0.788287 0.092877 0.143343
0.825815 0.093803 0.157384
0.863807 0.095336 0.171925
0.902083 0.097261 0.186715
0.940609 0.099755 0.201719
0.979242 0.102963 0.216973
1.017876 0.107026 0.232262
1.056437 0.111944 0.247836
1.094749 0.118252 0.263588
-0.073059 0.207564 -0.055347
-0.073059 0.206530 -0.070814
0.000927 0.205462 -0.073059
0.070602 0.202752 -0.073059
0.135573 0.198440 -0.073059
0.196338 0.192275 -0.073059
0.233010 0.167398 -0.073059
0.265406 0.148118 -0.073059
0.293384 0.130583 -0.073059
0.318402 0.121174 -0.073059
0.345203 0.115080 -0.073059
0.373927 0.111409 -0.073059
0.404222 0.109484 -0.067892
0.436118 0.108522 -0.022451
0.469156 0.108701 0.006914
0.503370 0.109128 0.023666
0.538278 0.109984 0.039276
0.573739 0.110733 0.052854
0.608880 0.111195 0.066004
0.644127 0.111587 0.078870
0.679730 0.112015 0.092057
0.715869 0.112371 0.105956
0.752399 0.112728 0.120034
0.789428 0.113227 0.134503
0.826884 0.114047 0.149472
0.864805 0.115044 0.164725
0.903081 0.116720 0.180015
0.941536 0.118751 0.195910
0.980026 0.121888 0.211805
1.018623 0.125629 0.227700
1.057078 0.130191 0.243844
1.094749 0.135858 0.260096
-0.073059 0.242989 -0.011760
-0.073059 0.242241 -0.026087
-0.049751 0.241243 -0.043123
0.052213 0.239211 -0.072561
0.113085 0.235968 -0.073059
0.173813 0.230943 -0.073059
0.229981 0.224849 -0.073059
0.261486 0.198012 -0.073059
0.290568 0.179053 -0.073059
0.318972 0.162694 -0.073059
0.347376 0.151896 -0.073059
0.376244 0.145943 -0.073059
0.406573 0.142273 -0.073059
0.438470 0.139778 -0.073059
0.471615 0.138139 -0.073059
0.505687 0.137604 -0.028902
0.540487 0.137355 0.006879
0.575841 0.137034 0.026624
0.610839 0.136820 0.043196
0.645909 0.136428 0.059376
0.681477 0.136285 0.075165
0.717472 0.136178 0.090845
0.753931 0.136178 0.106206
0.790854 0.136036 0.122244
0.828275 0.136570 0.138281
0.866052 0.137176 0.154960
0.904257 0.138495 0.171497
0.942604 0.140598 0.188070
0.981059 0.143164 0.204962
1.019514 0.146728 0.221642
1.057934 0.150791 0.238534
1.094749 0.156172 0.255463
-0.073059 0.271465 0.025519
-0.073059 0.270966 0.021634
-0.073059 0.270147 0.017393
0.034928 0.268613 0.006630
0.095550 0.266013 -0.021596
0.150897 0.262483 -0.073059
0.205853 0.257458 -0.073059
0.257743 0.251650 -0.073059
0.286255 0.225027 -0.073059
0.315729 0.208062 -0.073059
0.346308 0.194413 -0.073059
0.378240 0.182866 -0.073059
0.409247 0.176486 -0.073059
0.441214 0.172531 -0.073059
0.474359 0.169858 -0.073059
0.508430 0.167791 -0.073059
0.543089 0.166543 -0.073059
0.578372 0.165296 -0.039701
0.613191 0.164476 0.007129
0.648153 0.163478 0.030259
0.683508 0.162587 0.049967
0.719397 0.161838 0.069355
0.755784 0.161268 0.087496
0.792636 0.160876 0.105779
0.829913 0.160947 0.123918
0.867656 0.161447 0.141917
0.905683 0.162302 0.159950
0.943959 0.163870 0.178054
0.982271 0.166436 0.196195
1.020655 0.169465 0.214086
1.058967 0.173528 0.231834
1.094749 0.178339 0.249618
-0.073059 0.296555 0.059483
-0.073059 0.296163 0.058057
-0.073059 0.295557 0.056025
0.024093 0.294274 0.049718
0.081828 0.292493 0.039668
0.132544 0.289820 0.023844
0.183722 0.286290 0.000251
0.234400 0.281515 -0.073059
0.283155 0.275992 -0.073059
0.311060 0.251329 -0.073059
0.342601 0.237323 -0.073059
0.375496 0.225597 -0.073059
0.409638 0.215726 -0.073059
0.444280 0.206923 -0.073059
0.477282 0.203145 -0.073059
0.511335 0.200116 -0.073059
0.546083 0.197514 -0.073059
0.581330 0.195482 -0.073059
0.615830 0.193593 -0.073059
0.650649 0.192025 -0.043586
0.685896 0.190422 0.010122
0.721749 0.189032 0.038420
0.757958 0.187962 0.061265
0.794667 0.187392 0.083718
0.831838 0.187000 0.104673
0.869473 0.186857 0.125166
0.907429 0.187570 0.145267
0.945563 0.188889 0.165225
0.983769 0.190991 0.185004
1.022010 0.194057 0.204356
1.060178 0.197585 0.223459
1.094749 0.202289 0.242312
-0.073059 0.321645 0.089241
-0.073059 0.321217 0.089491
-0.073059 0.320790 0.086818
0.018819 0.319899 0.082613
0.072705 0.318544 0.075485
0.120960 0.316513 0.064936
0.166401 0.314018 0.051678
0.215441 0.310347 0.032112
0.262770 0.306178 0.002282
0.309314 0.301188 -0.073059
0.338039 0.278415 -0.073059
0.371754 0.266618 -0.073059
0.406466 0.256746 -0.073059
0.442248 0.247872 -0.073059
0.478992 0.239568 -0.073059
0.514578 0.233545 -0.073059
0.549290 0.230160 -0.073059
0.584396 0.227129 -0.073059
0.618788 0.224244 -0.073059
0.653428 0.221890 -0.073059
0.688640 0.219717 -0.073059
0.724314 0.217899 -0.036315
0.760453 0.216117 0.021456
0.796983 0.214870 0.051643
0.834049 0.214121 0.078300
0.871540 0.213694 0.102749
0.909425 0.214015 0.126093
0.947416 0.215120 0.148545
0.985479 0.216902 0.170677
1.023577 0.219575 0.192239
1.061604 0.223103 0.212874
1.094749 0.227237 0.233153
-0.073059 0.348660 0.115365
-0.073059 0.348267 0.116220
-0.073059 0.348053 0.114438
0.017180 0.347305 0.111053
0.067858 0.346165 0.105493
0.113227 0.344704 0.097546
0.156813 0.342780 0.087353
0.200793 0.340213 0.073703
0.247337 0.336792 0.054565
0.293063 0.332765 0.030045
0.338003 0.328203 -0.016250
0.367263 0.306677 -0.073059
0.402759 0.296733 -0.073059
0.439218 0.287966 -0.073059
0.476497 0.280018 -0.073059
0.514222 0.272391 -0.073059
0.552391 0.264479 -0.073059
0.587567 0.260416 -0.073059
0.621888 0.256639 -0.073059
0.656565 0.253076 -0.073059
0.691562 0.250366 -0.073059
0.727059 0.247764 -0.073059
0.763161 0.245591 -0.073059
0.799620 0.243844 -0.003883
0.836543 0.242491 0.039561
0.873928 0.241742 0.071957
0.911599 0.241600 0.100254
0.949519 0.242206 0.127019
0.987439 0.243738 0.152359
1.025359 0.246090 0.176557
1.063280 0.249369 0.199759
1.094749 0.253467 0.222033
-0.073059 0.377599 0.138602
-0.073059 0.377385 0.139600
-0.068640 0.377064 0.138389
0.016360 0.376529 0.135608
0.064686 0.375674 0.131010
0.107988 0.374427 0.124632
0.150006 0.372965 0.116043
0.191170 0.371112 0.104888
0.235291 0.368367 0.091060
0.280197 0.365124 0.072669
0.324888 0.361240 0.048435
0.369010 0.356928 0.011941
0.398448 0.336257 -0.065789
0.435548 0.327454 -0.073059
0.473290 0.319756 -0.073059
0.511549 0.312379 -0.073059
0.550217 0.305072 -0.073059
0.588815 0.297482 -0.073059
0.625131 0.290247 -0.073059
0.659629 0.286113 -0.073059
0.694699 0.282299 -0.073059
0.730159 0.279127 -0.073059
0.766048 0.276311 -0.073059
0.802472 0.273960 -0.073059
0.839322 0.272142 -0.073059
0.876566 0.270895 0.022347
0.914130 0.270253 0.063974
0.951836 0.270432 0.097796
0.989613 0.271571 0.128445
1.027426 0.273640 0.156707
1.065133 0.276669 0.183080
1.094749 0.280410 0.207956
-0.073059 0.408391 0.157918
-0.073059 0.408213 0.159558
-0.067393 0.407999 0.158204
0.015682 0.407536 0.155851
0.061585 0.406858 0.151753
0.104032 0.405825 0.146229
0.144981 0.404613 0.139280
0.185218 0.402974 0.130298
0.225668 0.401085 0.118716
0.269968 0.398377 0.103818
0.314161 0.395205 0.085606
0.358211 0.391285 0.061265
0.401976 0.387186 0.027336
0.431200 0.366978 -0.033321
0.469690 0.358710 -0.073059
0.508466 0.351689 -0.073059
0.547616 0.344739 -0.073059
0.586426 0.337576 -0.073059
0.624383 0.329699 -0.073059
0.662124 0.321288 -0.073059
0.697870 0.315836 -0.073059
0.733332 0.311773 -0.073059
0.769185 0.308280 -0.073059
0.805536 0.305322 -0.073059
0.842280 0.302934 -0.073059
0.879417 0.301081 -0.073059
0.916909 0.299976 -0.002565
0.954437 0.299762 0.054530
0.992037 0.300297 0.095407
1.029672 0.301972 0.130477
1.067200 0.304539 0.161838
1.094749 0.308067 0.190422
-0.073059 0.440752 0.175096
-0.073059 0.440502 0.176024
-0.071349 0.440323 0.175489
0.012688 0.439932 0.173564
0.058592 0.439361 0.169821
0.100575 0.438506 0.165439
0.141097 0.437436 0.159273
0.180728 0.436154 0.151361
0.220287 0.434443 0.141738
0.261592 0.432447 0.129265
0.305536 0.429632 0.114224
0.349266 0.426460 0.095123
0.392923 0.422825 0.071066
0.436510 0.418691 0.035533
0.464950 0.398305 -0.011368
0.504973 0.390536 -0.073059
0.544373 0.383978 -0.073059
0.583647 0.377135 -0.073059
0.622066 0.369580 -0.073059
0.660449 0.361810 -0.073059
0.698690 0.353650 -0.073059
0.736539 0.345701 -0.073059
0.772392 0.341639 -0.073059
0.808744 0.337968 -0.073059
0.845417 0.334903 -0.073059
0.882517 0.332443 -0.073059
0.919831 0.330769 -0.073059
0.957252 0.329949 -0.073059
0.994745 0.329949 0.044551
1.032166 0.331125 0.093554
1.069481 0.333371 0.133114
1.094749 0.336542 0.167933
-0.073059 0.474288 0.189317
-0.073059 0.474074 0.190208
-0.073059 0.473860 0.189602
0.006381 0.473610 0.187891
0.054351 0.473040 0.184969
0.096405 0.472434 0.180728
0.137034 0.471472 0.175631
0.176807 0.470261 0.168895
0.216188 0.468906 0.160449
0.255534 0.467267 0.150077
0.297945 0.464986 0.137319
0.341639 0.462171 0.121566
0.385190 0.458927 0.101965
0.428777 0.455363 0.076412
0.472399 0.451229 0.040737
0.499913 0.430202 -0.004062
0.540880 0.422682 -0.073059
0.580475 0.416267 -0.073059
0.619321 0.409104 -0.073059
0.658276 0.401655 -0.073059
0.697122 0.394171 -0.073059
0.735862 0.386366 -0.073059
0.774601 0.377813 -0.073059
0.811880 0.372074 -0.073059
0.848660 0.368225 -0.073059
0.885689 0.365232 -0.073059
0.922933 0.362880 -0.073059
0.960282 0.361383 -0.073059
0.997597 0.360705 -0.073059
1.034875 0.361275 0.032753
1.072047 0.362880 0.092627
1.094749 0.365588 0.137569
-0.073059 0.508893 0.201327
-0.073059 0.508787 0.202075
-0.073059 0.508608 0.201861
-0.006806 0.508323 0.200151
0.047009 0.507825 0.197621
0.091451 0.507147 0.193949
0.132223 0.506399 0.189388
0.172317 0.505437 0.183472
0.211983 0.504082 0.176380
0.251365 0.502621 0.167292
0.291031 0.500875 0.156279
0.334760 0.498416 0.143021
0.378311 0.495493 0.126734
0.421934 0.492357 0.105992
0.465450 0.488651 0.079512
0.509072 0.484623 0.041949
0.535427 0.462777 -0.003527
0.576946 0.455113 -0.073059
0.616292 0.448306 -0.073059
0.655603 0.441357 -0.073059
0.695020 0.434230 -0.073059
0.734437 0.426959 -0.073059
0.773568 0.419368 -0.073059
0.812771 0.411135 -0.073059
0.851832 0.403117 -0.073059
0.888897 0.399445 -0.073059
0.926140 0.396238 -0.073059
0.963382 0.394064 -0.073059
1.000661 0.392709 -0.073059
1.037833 0.392424 -0.073059
1.074826 0.393244 0.020315
1.094749 0.395311 0.093233
-0.073059 0.544336 0.211912
-0.073059 0.544194 0.211840
-0.073059 0.544051 0.211983
-0.046294 0.543838 0.210416
0.036603 0.543410 0.208062
0.084039 0.542840 0.205069
0.126699 0.542092 0.201042
0.167577 0.541058 0.195768
0.207706 0.539954 0.189281
0.247159 0.538634 0.181440
0.286968 0.537067 0.172210
0.328061 0.535071 0.160627
0.371897 0.532469 0.146870
0.415519 0.529546 0.129834
0.459105 0.526303 0.108308
0.502585 0.522668 0.080546
0.546190 0.518534 0.041556
0.571280 0.495564 -0.010761
0.612943 0.487367 -0.073059
0.652716 0.480845 -0.073059
0.692560 0.474145 -0.073059
0.732441 0.467196 -0.073059
0.772285 0.460282 -0.073059
0.811738 0.452975 -0.073059
0.851368 0.445135 -0.073059
0.891178 0.436618 -0.073059
0.929240 0.431271 -0.073059
0.966590 0.428135 -0.073059
1.003798 0.425925 -0.073059
1.040898 0.424678 -0.073059
1.077784 0.424607 -0.073059
1.094749 0.425783 0.008234
-0.073059 0.579940 0.220358
-0.073059 0.579762 0.220287
-0.073059 0.579691 0.220108
-0.073059 0.579442 0.218719
0.021883 0.579013 0.216830
0.074237 0.578515 0.214157
0.119463 0.577766 0.210487
0.161553 0.576911 0.205710
0.202467 0.575841 0.200222
0.242811 0.574594 0.193415
0.282478 0.573240 0.185147
0.322358 0.571565 0.175239
0.365018 0.569392 0.163514
0.409033 0.566790 0.148688
0.452690 0.563867 0.130868
0.496420 0.560695 0.107988
0.540202 0.557167 0.078514
0.584038 0.553175 0.034037
0.607632 0.528905 -0.048860
0.649473 0.520138 -0.073059
0.689745 0.514007 -0.073059
0.730124 0.507504 -0.073059
0.770538 0.500910 -0.073059
0.810669 0.494353 -0.073059
0.850406 0.487261 -0.073059
0.890358 0.479776 -0.073059
0.930345 0.471472 -0.073059
0.969656 0.463810 -0.073059
1.006969 0.460602 -0.073059
1.044069 0.458286 -0.073059
1.080921 0.457038 -0.073059
1.094749 0.457038 -0.073059
-0.073059 0.615543 0.227558
-0.073059 0.615437 0.227237
-0.073059 0.615366 0.226809
-0.073059 0.615116 0.225633
-0.002530 0.614760 0.223886
0.061585 0.614296 0.221463
0.110127 0.613726 0.218041
0.154284 0.612907 0.214050
0.196409 0.612052 0.208990
0.237216 0.610947 0.203074
0.277774 0.609664 0.195447
0.317761 0.608238 0.186644
0.357997 0.606598 0.176309
0.402439 0.604282 0.163264
0.446489 0.601787 0.147512
0.490504 0.598865 0.128124
0.534500 0.595728 0.103283
0.578443 0.592200 0.069818
0.622564 0.588422 0.016324
0.644947 0.563083 -0.073059
0.686751 0.553532 -0.073059
0.727487 0.547687 -0.073059
0.768365 0.541486 -0.073059
0.809136 0.535248 -0.073059
0.849409 0.528905 -0.073059
0.889503 0.522169 -0.073059
0.929632 0.514827 -0.073059
0.969619 0.506791 -0.073059
1.009429 0.497881 -0.073059
1.047170 0.493391 -0.073059
1.084129 0.490789 -0.073059
1.094749 0.489363 -0.073059
-0.073059 0.651717 0.233153
-0.073059 0.651611 0.232832
-0.073059 0.651540 0.232119
-0.073059 0.651361 0.231050
-0.073059 0.651076 0.229411
0.043588 0.650649 0.227058
0.098508 0.650078 0.224207
0.145373 0.649402 0.220358
0.188853 0.648617 0.215654
0.231015 0.647691 0.210129
0.272391 0.646586 0.203537
0.313128 0.645303 0.195482
0.353650 0.643877 0.185966
0.395632 0.642060 0.174740
0.440323 0.639779 0.160662
0.484659 0.637212 0.143734
0.528905 0.634397 0.121888
0.573240 0.631261 0.094445
0.617539 0.627911 0.054387
0.661946 0.624169 -0.045118
0.683116 0.597866 -0.073059
0.724635 0.587496 -0.073059
0.765906 0.581829 -0.073059
0.807140 0.575984 -0.073059
0.848304 0.570139 -0.073059
0.888576 0.564080 -0.073059
0.928849 0.557416 -0.073059
0.968978 0.550252 -0.073059
1.008894 0.542269 -0.073059
1.048632 0.533324 -0.073059
1.087122 0.526089 -0.073059
1.094749 0.523025 -0.073059
-0.073059 0.688355 0.237679
-0.073059 0.688319 0.237073
-0.073059 0.688248 0.236218
-0.073059 0.688105 0.234970
-0.073059 0.687784 0.233580
0.017108 0.687428 0.231407
0.082969 0.686965 0.228591
0.133897 0.686359 0.225062
0.180158 0.685646 0.220928
0.223886 0.684791 0.215583
0.266084 0.683829 0.209453
0.307710 0.682688 0.202183
0.348873 0.681405 0.193343
0.389787 0.679943 0.183008
0.433766 0.678020 0.170535
0.478707 0.675703 0.155246
0.523524 0.673101 0.136285
0.568143 0.670357 0.111872
0.612799 0.667328 0.078514
0.657456 0.663942 0.026909
0.702004 0.660378 -0.073059
0.722283 0.633292 -0.073059
0.763269 0.621746 -0.073059
0.805002 0.616399 -0.073059
0.846699 0.610839 -0.073059
0.887685 0.605316 -0.073059
0.928029 0.599363 -0.073059
0.968265 0.592912 -0.073059
1.008359 0.585678 -0.073059
1.048168 0.577695 -0.073059
1.087692 0.568536 -0.073059
1.094749 0.558414 -0.073059
-0.073059 0.725313 0.240780
-0.073059 0.725313 0.240210
-0.073059 0.725241 0.239176
-0.073059 0.725134 0.237857
-0.073059 0.724885 0.236361
-0.056452 0.724529 0.234507
0.062975 0.724137 0.231763
0.120319 0.723567 0.228591
0.169894 0.722961 0.224457
0.215476 0.722141 0.219610
0.259169 0.721321 0.213907
0.301901 0.720323 0.207065
0.343991 0.719112 0.198832
0.385475 0.717864 0.189103
0.426852 0.716331 0.177806
0.472648 0.714264 0.163657
0.517999 0.711948 0.146407
0.563154 0.709381 0.124275
0.608238 0.706638 0.095371
0.653215 0.703573 0.052996
0.698192 0.700330 -0.070850
0.743061 0.696802 -0.073059
0.762449 0.669181 -0.073059
0.802578 0.656529 -0.073059
0.844740 0.651148 -0.073059
0.886580 0.645980 -0.073059
0.927244 0.640599 -0.073059
0.967589 0.634789 -0.073059
1.007753 0.628267 -0.073059
1.047670 0.620926 -0.073059
1.087301 0.612622 -0.073059
1.094749 0.603106 -0.073059
-0.073059 0.762484 0.243132
-0.073059 0.762520 0.242312
-0.073059 0.762520 0.241278
-0.073059 0.762378 0.239710
-0.073059 0.762128 0.238320
-0.073059 0.761843 0.236467
0.034785 0.761487 0.233936
0.103354 0.760988 0.230658
0.157491 0.760453 0.226916
0.205675 0.759740 0.222283
0.251436 0.758956 0.216759
0.295343 0.758030 0.210343
0.338217 0.756960 0.202610
0.380735 0.755784 0.193486
0.422682 0.754501 0.182438
0.466233 0.752826 0.169288
0.512298 0.750723 0.153072
0.558164 0.748371 0.132757
0.603782 0.745805 0.106847
0.649223 0.743061 0.069711
0.694556 0.740032 0.003209
0.739889 0.736753 -0.073059
0.785080 0.733332 -0.073059
0.803612 0.705355 -0.073059
0.842530 0.691741 -0.073059
0.885048 0.685967 -0.073059
0.926424 0.680978 -0.073059
0.966911 0.675738 -0.073059
1.007183 0.669822 -0.073059
1.047241 0.663086 -0.073059
1.086944 0.655495 -0.073059
1.094749 0.646764 -0.073059
-0.073059 0.799870 0.244344
-0.073059 0.799799 0.243524
-0.073059 0.799799 0.242526
-0.073059 0.799692 0.240709
-0.073059 0.799514 0.239211
-0.073059 0.799228 0.237429
-0.020099 0.798908 0.234935
0.082506 0.798481 0.231834
0.143164 0.797946 0.228199
0.194769 0.797303 0.223744
0.242562 0.796591 0.218399
0.287930 0.795736 0.211948
0.332087 0.794774 0.204534
0.375532 0.793669 0.195803
0.418406 0.792457 0.185289
0.460923 0.791102 0.172779
0.506505 0.789249 0.157527
0.553033 0.787076 0.138531
0.599328 0.784724 0.113654
0.645303 0.782122 0.079584
0.691099 0.779378 0.023416
0.736824 0.776348 -0.073059
0.782513 0.773140 -0.073059
0.828060 0.769684 -0.073059
0.846557 0.742206 -0.073059
0.883123 0.726774 -0.073059
0.925570 0.720573 -0.073059
0.966305 0.715797 -0.073059
1.006684 0.710451 -0.073059
1.046814 0.704250 -0.073059
1.086587 0.697229 -0.073059
1.094749 0.689104 -0.073059
-0.073059 0.837007 0.244878
-0.073059 0.837007 0.244130
-0.073059 0.837007 0.242918
-0.073059 0.836934 0.240957
-0.073059 0.836757 0.239533
-0.073059 0.836507 0.237572
-0.073059 0.836187 0.235256
0.055063 0.835794 0.232227
0.126164 0.835296 0.228520
0.182367 0.834725 0.224136
0.232512 0.834084 0.218897
0.280054 0.833264 0.212625
0.325636 0.832338 0.205426
0.370078 0.831304 0.196659
0.413808 0.830199 0.186501
0.457109 0.828951 0.174277
0.500269 0.827455 0.159594
0.547723 0.825459 0.140918
0.594695 0.823214 0.117361
0.641382 0.820790 0.084609
0.687713 0.818152 0.032432
0.733973 0.815302 -0.073059
0.780055 0.812272 -0.073059
0.826029 0.809029 -0.073059
0.871932 0.805608 -0.073059
0.890928 0.779056 -0.073059
0.924286 0.761451 -0.073059
0.965699 0.754822 -0.073059
1.006221 0.749868 -0.073059
1.046458 0.744237 -0.073059
1.086338 0.737680 -0.073059
1.094749 0.730124 -0.073059
-0.073059 0.873857 0.244806
-0.073059 0.873857 0.243952
-0.073059 0.873857 0.242847
-0.073059 0.873786 0.240601
-0.073059 0.873608 0.239211
-0.073059 0.873393 0.237323
-0.073059 0.873108 0.234899
0.014256 0.872717 0.231763
0.105885 0.872253 0.228199
0.167897 0.871683 0.223637
0.221713 0.871041 0.218399
0.271180 0.870329 0.212161
0.318473 0.869473 0.204927
0.364270 0.868511 0.196373
0.408962 0.867371 0.186180
0.453154 0.866159 0.174170
0.496884 0.864840 0.159522
0.542092 0.863129 0.141382
0.589919 0.860991 0.117396
0.637283 0.858674 0.084786
0.684292 0.856180 0.032932
0.731050 0.853472 -0.073059
0.777631 0.850585 -0.073059
0.824068 0.847519 -0.073059
0.870400 0.844241 -0.073059
0.916446 0.840748 -0.073059
0.935870 0.815194 -0.073059
0.966020 0.795985 -0.073059
1.005865 0.788252 -0.073059
1.046208 0.783013 -0.073059
1.086160 0.776918 -0.073059
1.094749 0.769826 -0.073059
-0.073059 0.910102 0.244130
-0.073059 0.910066 0.243417
-0.073059 0.910066 0.242277
-0.073059 0.910031 0.239960
-0.073059 0.909852 0.238534
-0.073059 0.909638 0.236574
-0.073059 0.909390 0.234008
-0.073059 0.909032 0.230907
0.081295 0.908570 0.227237
0.151896 0.908070 0.222639
0.209738 0.907429 0.217258
0.261700 0.906717 0.210878
0.310632 0.905932 0.203501
0.357784 0.904970 0.194769
0.403687 0.903901 0.184469
0.448770 0.902725 0.172103
0.493391 0.901442 0.157171
0.537423 0.900052 0.138780
0.584681 0.898127 0.114759
0.632864 0.895882 0.081045
0.680478 0.893458 0.025696
0.727878 0.890928 -0.073059
0.774959 0.888148 -0.073059
0.821895 0.885190 -0.073059
0.868725 0.882054 -0.073059
0.915270 0.878739 -0.073059
0.961459 0.875246 -0.073059
0.980561 0.850513 -0.073059
1.007504 0.829913 -0.073059
1.046065 0.820612 -0.073059
1.086088 0.814981 -0.073059
1.094749 0.808281 -0.073059
-0.073059 0.945706 0.243060
-0.073059 0.945706 0.242312
