static/images/nph.auh/Contents/History/resources/E5723F4D-3C86-4F13-9479-2B21B75A4594.cube
#Created by: Adobe Photoshop Export Color Lookup Plugin
#Copyright: (C) Copyright 2017 ©ThinkTAP
TITLE "Dawn"
#LUT size
LUT_3D_SIZE 5
#data domain
#LUT data points
DOMAIN_MIN 0.000000 0.000000 0.000000
DOMAIN_MAX 0.903226 0.903226 0.903226
0.000000 0.001801 0.024353
0.081329 0.000000 0.006561
0.294434 0.000000 0.000000
0.697021 0.000000 0.000000
0.999908 0.016174 0.000000
0.000000 0.057495 0.003754
0.084381 0.062378 0.000000
0.335205 0.109314 0.000000
0.732208 0.238922 0.000000
0.998932 0.396729 0.000000
0.000000 0.423767 0.041107
0.152863 0.442108 0.000000
0.670471 0.524139 0.000000
0.935730 0.633270 0.000000
1.000000 0.752777 0.000000
0.417511 0.942017 0.328827
0.547546 0.949310 0.066620
0.907745 0.938171 0.000000
0.999908 0.938293 0.000000
1.000000 0.936188 0.000000
0.719269 1.000000 0.491974
0.720673 1.000000 0.333099
0.923798 1.000000 0.042145
1.000000 1.000000 0.000000
1.000000 1.000000 0.000000
0.000000 0.004425 0.090912
0.000000 0.005920 0.110413
0.159454 0.020996 0.259674
0.666290 0.030701 0.263275
1.000000 0.015381 0.161560
0.000000 0.058472 0.076263
0.043823 0.069824 0.086884
0.366669 0.113220 0.131561
0.804871 0.150970 0.101471
1.000000 0.155518 0.028595
0.000000 0.446167 0.329987
0.085724 0.458649 0.264709
0.653320 0.553680 0.215668
0.913849 0.667236 0.185089
1.000000 0.758240 0.141846
0.458954 0.945496 0.645477
0.613190 0.944122 0.578735
0.867126 0.951355 0.401733
0.999420 0.947205 0.397339
1.000000 0.950409 0.268005
0.736664 1.000000 0.735291
0.798035 1.000000 0.671295
0.894470 1.000000 0.424438
1.000000 1.000000 0.326721
1.000000 1.000000 0.274384
0.000000 0.023346 0.276123
0.000000 0.050140 0.262787
0.000000 0.074371 0.374420
0.457458 0.184784 0.732635
0.924225 0.397705 0.957947
0.000000 0.098511 0.154541
0.000000 0.133575 0.242645
0.137573 0.191559 0.399841
0.623199 0.334412 0.757568
0.985291 0.519806 0.913544
0.000000 0.457428 0.455292
0.155365 0.488861 0.466522
0.599365 0.588013 0.554565
0.924744 0.695190 0.689911
1.000000 0.730591 0.705719
0.431244 0.942261 0.844727
0.622070 0.949921 0.841980
0.841583 0.954620 0.791779
0.996399 0.956970 0.709961
1.000000 0.968719 0.649170
0.725189 1.000000 0.947662
0.780060 1.000000 0.933228
0.912323 1.000000 0.856842
0.999146 1.000000 0.686279
1.000000 1.000000 0.649475
0.000000 0.084106 0.513641
0.000000 0.114929 0.539398
0.000000 0.184052 0.558807
0.272583 0.308228 0.820404
0.849396 0.559875 0.999939
0.000000 0.184052 0.420593
0.000000 0.220276 0.493256
0.000000 0.321991 0.625488
0.464203 0.447296 0.840820
0.918762 0.650513 0.999908
0.000000 0.543518 0.604095
0.000000 0.572113 0.597137
0.142853 0.675781 0.715820
0.818756 0.780579 0.896362
0.996735 0.830841 1.000000
0.654388 0.949005 0.905090
0.733856 0.953003 0.913239
0.875366 0.961609 0.914581
0.988220 0.969818 0.926971
1.000000 0.968781 0.954987
0.735809 1.000000 0.999786
0.800018 1.000000 0.998962
0.908203 1.000000 0.995056
0.996094 1.000000 0.970764
1.000000 1.000000 0.880432
0.000000 0.189728 0.799164
0.000000 0.237061 0.845490
0.000000 0.346375 0.871704
0.000000 0.496063 0.946899
0.776062 0.691406 1.000000
0.000000 0.312378 0.744019
0.000000 0.360535 0.805359
0.000000 0.492188 0.918121
0.000000 0.613586 0.962982
0.845917 0.760773 1.000000
0.000000 0.671173 0.744720
0.000000 0.711426 0.807587
0.000000 0.792908 0.924347
0.032196 0.871155 0.994507
0.954468 0.899170 1.000000
0.509644 0.969452 0.985901
0.589966 0.973236 0.986053
0.761108 0.985748 0.974182
0.856781 0.995270 0.994141
0.999817 0.994812 1.000000
0.847260 1.000000 1.000000
0.883026 1.000000 1.000000
0.953094 1.000000 0.999908
0.999176 1.000000 0.999634
1.000000 1.000000 0.999390
