static/images/nph.auh/Contents/History/resources/E5723F4D-3C86-4F13-9479-2B21B75A4594.cube
#Created by: Adobe Photoshop Export Color Lookup Plugin
#Copyright: (C) Copyright 2017 ©ThinkTAP
TITLE "Dawn"
#LUT size
LUT_3D_SIZE 8
#data domain
#LUT data points
DOMAIN_MIN 0.000000 0.000000 0.000000
DOMAIN_MAX 0.903226 0.903226 0.903226
0.000000 0.001801 0.024353
0.030273 0.000000 0.023682
0.098755 0.000000 0.000000
0.213959 0.000000 0.000000
0.392487 0.000000 0.000000
0.636200 0.000000 0.000000
0.878723 0.000000 0.000000
0.999908 0.016174 0.000000
0.000000 0.014954 0.016724
0.008392 0.012573 0.000000
0.068085 0.018158 0.000000
0.175293 0.028259 0.000000
0.367462 0.051849 0.000000
0.637421 0.082886 0.000000
0.879913 0.126434 0.000000
0.999542 0.170135 0.000000
0.000000 0.079437 0.003632
0.005402 0.076904 0.000000
0.130249 0.092682 0.000000
0.302948 0.121582 0.000000
0.475800 0.175598 0.000000
0.704102 0.267517 0.000000
0.897980 0.371002 0.000000
0.998962 0.459564 0.000000
0.000000 0.274475 0.024841
0.000000 0.279419 0.000000
0.232086 0.300507 0.000000
0.473358 0.349640 0.000000
0.675751 0.387421 0.000000
0.833099 0.485199 0.000000
0.967712 0.598175 0.000000
1.000000 0.672760 0.000000
0.000000 0.585754 0.132721
0.016937 0.596985 0.014404
0.369629 0.625244 0.000000
0.667328 0.663666 0.000000
0.834900 0.694427 0.000000
0.961182 0.728119 0.000000
0.999481 0.768982 0.000000
1.000000 0.812012 0.000000
0.290771 0.896118 0.279541
0.341003 0.900146 0.178284
0.576019 0.903595 0.019409
0.825592 0.903229 0.025208
0.935852 0.904114 0.000000
0.996429 0.907471 0.000000
1.000000 0.910950 0.000000
1.000000 0.915070 0.000000
0.582764 0.998108 0.379486
0.609741 0.998444 0.360718
0.706879 0.998779 0.169373
0.858612 0.998291 0.033936
0.976135 0.995453 0.000000
0.999969 0.994110 0.000000
1.000000 0.991455 0.000000
1.000000 0.987183 0.000000
0.719269 1.000000 0.491974
0.711365 1.000000 0.398926
0.731171 1.000000 0.238983
0.864716 1.000000 0.102509
0.974152 1.000000 0.000000
1.000000 1.000000 0.000000
1.000000 1.000000 0.000000
1.000000 1.000000 0.000000
0.000000 0.003082 0.045502
0.000000 0.000610 0.058929
0.034576 0.001282 0.110718
0.152863 0.001953 0.078217
0.378601 0.002319 0.050873
0.663757 0.000000 0.008514
0.921631 0.000000 0.007965
1.000000 0.000000 0.001282
0.000000 0.015137 0.035156
0.002319 0.014038 0.029846
0.075714 0.016083 0.024933
0.212830 0.016327 0.018036
0.429108 0.007263 0.005188
0.704498 0.005737 0.004547
0.937927 0.006592 0.000000
1.000000 0.004974 0.000000
0.000000 0.083282 0.078857
0.000000 0.079041 0.056000
0.119385 0.098724 0.027496
0.271851 0.132996 0.014404
0.470642 0.190094 0.007263
0.714142 0.253326 0.008392
0.936707 0.312866 0.000000
1.000000 0.356201 0.000000
0.000000 0.272827 0.157715
0.000000 0.287567 0.110809
0.158356 0.313110 0.047577
0.455597 0.359802 0.054779
0.668915 0.409088 0.015381
0.820709 0.501251 0.009674
0.959900 0.603607 0.000000
1.000000 0.680878 0.000000
0.000000 0.594452 0.283722
0.020447 0.600311 0.234680
0.290497 0.630554 0.110535
0.649170 0.664581 0.091064
0.824768 0.699371 0.116150
0.953888 0.739838 0.082672
0.998810 0.779633 0.020111
1.000000 0.819794 0.000000
0.368225 0.899719 0.452637
0.440094 0.903076 0.416565
0.530396 0.908081 0.225677
0.782837 0.911316 0.209686
0.937622 0.911102 0.212769
0.995300 0.910980 0.201813
1.000000 0.914490 0.156006
1.000000 0.917694 0.000000
0.629120 0.997559 0.569183
0.671265 0.997772 0.562683
0.672607 0.998840 0.341644
0.840393 0.998718 0.302185
0.968079 0.996094 0.232849
0.999939 0.995483 0.250885
1.000000 0.992004 0.176697
1.000000 0.987854 0.140533
0.733643 1.000000 0.625458
0.742310 1.000000 0.579590
0.756439 1.000000 0.414642
0.857300 1.000000 0.288696
0.967804 1.000000 0.159332
1.000000 1.000000 0.031189
1.000000 1.000000 0.057098
1.000000 1.000000 0.000000
0.000000 0.005157 0.111572
0.000000 0.008240 0.122559
0.000000 0.009705 0.131592
0.056244 0.022919 0.231567
0.230652 0.040100 0.354492
0.570312 0.060333 0.380707
0.856293 0.071686 0.379242
0.999298 0.031525 0.299347
0.000000 0.022095 0.052643
0.000000 0.032013 0.074036
0.003510 0.033539 0.112976
0.099670 0.046906 0.226715
0.327362 0.076141 0.323608
0.634796 0.107422 0.347626
0.887543 0.128326 0.330444
1.000000 0.113983 0.269012
0.000000 0.085205 0.106110
0.000000 0.084930 0.105103
0.081207 0.108368 0.125671
0.272125 0.139587 0.175751
0.514862 0.177612 0.184784
0.759766 0.221313 0.203796
0.959259 0.241669 0.171661
1.000000 0.249084 0.104858
0.000000 0.288116 0.263275
0.000000 0.299194 0.263031
0.087158 0.324219 0.246552
0.429718 0.364777 0.201416
0.633392 0.437103 0.189087
0.813782 0.536224 0.198120
0.971344 0.595306 0.221710
1.000000 0.616455 0.114349
0.000000 0.601135 0.444824
0.024109 0.609314 0.445770
0.290283 0.636566 0.392181
0.615326 0.688141 0.301605
0.819366 0.719513 0.339539
0.946259 0.759766 0.335968
0.997345 0.803833 0.301910
1.000000 0.833313 0.227905
0.316956 0.895782 0.651581
0.440399 0.897461 0.624817
0.606873 0.911469 0.586365
0.752228 0.924561 0.438171
0.924469 0.913116 0.432465
0.991272 0.917603 0.438324
1.000000 0.918915 0.405426
1.000000 0.932892 0.325958
0.629822 0.997681 0.748169
0.666016 0.998047 0.737457
0.735474 0.998108 0.677032
0.801025 0.999023 0.498566
0.946350 0.997620 0.467010
0.999756 0.995361 0.463531
1.000000 0.993103 0.451904
1.000000 0.990723 0.416779
0.734314 1.000000 0.774414
0.760406 1.000000 0.758179
0.815887 1.000000 0.708099
0.836090 1.000000 0.540741
0.941833 1.000000 0.460327
1.000000 1.000000 0.408325
1.000000 1.000000 0.373474
1.000000 1.000000 0.346069
0.000000 0.013977 0.222961
0.000000 0.022858 0.225647
0.000000 0.042023 0.203125
0.000000 0.042816 0.270447
0.146515 0.079681 0.437805
0.424652 0.131927 0.646545
0.724762 0.228973 0.778137
0.968109 0.304260 0.831116
0.000000 0.038574 0.126312
0.000000 0.051971 0.159729
0.000000 0.066925 0.205750
0.007111 0.068359 0.262909
0.219818 0.120453 0.450256
0.492065 0.186646 0.656616
0.773834 0.281097 0.768524
0.986786 0.361542 0.806732
0.000000 0.104309 0.161743
0.000000 0.113037 0.155731
0.000000 0.140503 0.198151
0.132294 0.174561 0.296906
0.377075 0.240631 0.493195
0.635803 0.321289 0.650787
0.880676 0.407806 0.718872
0.999634 0.476685 0.734528
0.000000 0.296875 0.309845
0.000000 0.298828 0.306122
0.141663 0.333405 0.321808
0.391388 0.398193 0.383362
0.633118 0.464050 0.469055
0.837158 0.536621 0.538361
0.983429 0.587738 0.568542
1.000000 0.613953 0.556610
0.000000 0.614349 0.582336
0.043732 0.625000 0.570007
0.316528 0.662354 0.579163
0.587189 0.713745 0.589966
0.802887 0.741699 0.537811
0.930939 0.787079 0.544830
0.995422 0.823059 0.546783
1.000000 0.818329 0.501587
0.315582 0.892853 0.757446
0.378113 0.894196 0.757202
0.608093 0.911224 0.764038
0.758423 0.919586 0.727386
0.898193 0.928986 0.627808
0.986877 0.926331 0.622284
1.000000 0.930481 0.595551
1.000000 0.946167 0.552032
0.599182 0.998016 0.877563
0.654755 0.997803 0.866455
0.738831 0.998291 0.850250
0.833557 0.997803 0.797638
0.910278 0.998993 0.660706
0.998840 0.996399 0.630157
1.000000 0.994751 0.621582
1.000000 0.993378 0.598389
0.731537 1.000000 0.901276
0.752563 1.000000 0.899597
0.805847 1.000000 0.875824
0.877930 1.000000 0.811829
0.917786 1.000000 0.656219
0.997955 1.000000 0.614197
1.000000 1.000000 0.582306
1.000000 1.000000 0.561920
0.000000 0.033417 0.330719
0.000000 0.045441 0.342041
0.000000 0.068390 0.321716
0.000000 0.088898 0.351410
0.017731 0.119812 0.485413
0.339355 0.209076 0.700439
0.661652 0.312256 0.899353
0.901825 0.430634 0.992523
0.000000 0.059937 0.247406
0.000000 0.073700 0.282257
0.000000 0.103821 0.341675
0.000000 0.124481 0.351410
0.075684 0.156952 0.490540
0.404663 0.253235 0.702759
0.714722 0.364868 0.910767
0.926636 0.487122 0.992859
0.000000 0.139557 0.201447
0.000000 0.159821 0.245178
0.000000 0.193146 0.321899
0.000000 0.237183 0.416260
0.246155 0.293732 0.541351
0.547852 0.375183 0.735504
0.803101 0.493225 0.912292
0.968658 0.601593 0.985077
0.000000 0.338898 0.421295
0.000000 0.334930 0.401520
0.019806 0.372986 0.401123
0.086670 0.426422 0.455963
0.534271 0.510864 0.611633
0.759491 0.598511 0.803406
0.918396 0.681213 0.910950
0.999481 0.712402 0.940186
0.072205 0.627899 0.604523
0.163788 0.638489 0.610107
0.423645 0.681335 0.643768
0.632507 0.728485 0.676849
0.794189 0.761475 0.714600
0.922668 0.793793 0.773254
0.996857 0.815521 0.804169
1.000000 0.825897 0.816010
0.376282 0.899475 0.854614
0.479614 0.907654 0.860107
0.620605 0.915344 0.858429
0.773407 0.925598 0.847595
0.881683 0.932892 0.825958
0.979248 0.937195 0.773224
1.000000 0.942413 0.743927
1.000000 0.953918 0.728424
0.604126 0.998047 0.941437
0.671173 0.998352 0.938782
0.739075 0.997711 0.931610
0.834503 0.997864 0.913757
0.919037 0.998505 0.881042
0.991882 0.998413 0.778137
1.000000 0.997284 0.774078
1.000000 0.994965 0.735748
0.727631 1.000000 0.976105
0.734131 1.000000 0.974731
0.803925 1.000000 0.967194
0.872589 1.000000 0.947479
0.942169 1.000000 0.898987
0.990356 1.000000 0.768097
1.000000 1.000000 0.734161
1.000000 1.000000 0.715607
0.000000 0.073761 0.474457
0.000000 0.081787 0.478973
0.000000 0.112610 0.500397
0.000000 0.139893 0.492523
0.000000 0.189575 0.577911
0.195557 0.263214 0.756226
0.595062 0.397705 0.937683
0.861481 0.537292 0.999786
0.000000 0.099762 0.410858
0.000000 0.115173 0.436401
0.000000 0.157501 0.510040
0.000000 0.196442 0.534180
0.000000 0.236237 0.582794
0.274384 0.310852 0.759613
0.645874 0.458344 0.946411
0.887970 0.570526 0.999603
0.000000 0.200500 0.370239
0.000000 0.212524 0.397064
0.000000 0.251221 0.474915
0.000000 0.314117 0.588318
0.000000 0.354767 0.611877
0.455597 0.443878 0.783691
0.755493 0.576874 0.948364
0.949371 0.660217 0.999908
0.000000 0.391541 0.444153
0.000000 0.418152 0.456696
0.000000 0.439758 0.480743
0.000000 0.501953 0.596161
0.036285 0.570557 0.716431
0.686707 0.667084 0.835907
0.883362 0.733765 0.960480
0.988373 0.766815 0.999756
0.137878 0.657532 0.670227
0.182343 0.668335 0.694061
0.334381 0.715515 0.740082
0.517120 0.751404 0.735413
0.671112 0.807495 0.788177
0.861481 0.833679 0.876709
0.970215 0.853363 0.967987
0.999908 0.870026 0.998962
0.592957 0.909088 0.865265
0.630035 0.915100 0.873291
0.715240 0.920258 0.871277
0.808105 0.924652 0.872314
0.899719 0.934387 0.884216
0.968201 0.943787 0.898163
0.999817 0.946899 0.921967
1.000000 0.947723 0.937592
0.640411 0.998016 0.991486
0.685425 0.998444 0.989532
0.753510 0.997772 0.986237
0.849701 0.998291 0.977966
0.917511 0.998322 0.966156
0.985260 0.998810 0.950317
1.000000 0.997864 0.897949
1.000000 0.997650 0.870270
0.728058 1.000000 0.998718
0.752197 1.000000 0.998779
0.807281 1.000000 0.996765
0.874969 1.000000 0.993958
0.938538 1.000000 0.989166
0.991150 1.000000 0.960938
1.000000 1.000000 0.864227
1.000000 1.000000 0.854736
0.000000 0.118408 0.636414
0.000000 0.133148 0.648834
0.000000 0.170471 0.674194
0.000000 0.216583 0.691193
0.000000 0.286011 0.718018
0.000000 0.356720 0.826477
0.484650 0.470520 0.966675
0.815826 0.610565 1.000000
0.000000 0.161804 0.588959
0.000000 0.177094 0.621216
0.000000 0.223694 0.679413
0.000000 0.265198 0.710632
0.000000 0.328400 0.736481
0.000000 0.405212 0.839111
0.554871 0.523102 0.971344
0.839569 0.648285 1.000000
0.000000 0.262787 0.547821
0.000000 0.279663 0.571045
0.000000 0.318176 0.637848
0.000000 0.396790 0.743408
0.000000 0.467712 0.798309
0.040161 0.526276 0.854492
0.705536 0.650665 0.980225
0.907135 0.727081 1.000000
0.000000 0.468292 0.555634
0.000000 0.493408 0.592499
0.000000 0.517365 0.641205
0.000000 0.581177 0.749542
0.000000 0.652618 0.853455
0.285858 0.723511 0.902435
0.827881 0.776337 0.982056
0.968872 0.820221 1.000000
0.000000 0.721863 0.760559
0.000000 0.728546 0.757812
0.036987 0.751587 0.749786
0.131622 0.793243 0.773224
0.254578 0.842072 0.875946
0.626984 0.884033 0.946472
0.932312 0.889709 0.987854
0.996033 0.899963 1.000000
0.706116 0.918549 0.884216
0.734619 0.923309 0.898926
0.740143 0.928802 0.916656
0.788422 0.940216 0.936493
0.842499 0.955109 0.931366
0.896332 0.971130 0.948883
0.987000 0.971924 0.988251
1.000000 0.969910 1.000000
0.772705 0.997620 0.983551
0.788513 0.997131 0.979858
0.826599 0.998047 0.979980
0.892151 0.998138 0.980286
0.945679 0.998230 0.980743
0.991547 0.998322 0.981262
1.000000 0.998505 0.983276
1.000000 0.997833 0.987793
0.735687 1.000000 1.000000
0.767914 1.000000 1.000000
0.807251 1.000000 1.000000
0.880249 1.000000 1.000000
0.945770 1.000000 0.999878
0.991608 1.000000 0.998718
1.000000 1.000000 0.992126
1.000000 1.000000 0.955841
0.000000 0.189728 0.799164
0.000000 0.207184 0.817566
0.000000 0.247253 0.842773
0.000000 0.308075 0.866943
0.000000 0.389496 0.891144
0.000000 0.468414 0.918732
0.000000 0.556366 0.993927
0.776062 0.691406 1.000000
0.000000 0.237183 0.782532
0.000000 0.262726 0.804321
0.000000 0.292633 0.839813
0.000000 0.362183 0.885162
0.000000 0.442413 0.910950
0.000000 0.515198 0.929077
0.092133 0.592285 0.993042
0.798706 0.716248 1.000000
0.000000 0.351379 0.741028
0.000000 0.363922 0.756836
0.000000 0.409851 0.815369
0.000000 0.490082 0.892059
0.000000 0.570984 0.947205
0.000000 0.622375 0.955109
0.369019 0.716339 0.996246
0.862000 0.782501 1.000000
0.000000 0.558136 0.738647
0.000000 0.572784 0.758057
0.000000 0.610138 0.807037
0.000000 0.667969 0.883362
0.000000 0.741486 0.961517
0.000000 0.793671 0.987366
0.643188 0.842865 0.997040
0.930725 0.860413 1.000000
0.000000 0.781952 0.792328
0.000000 0.785828 0.790680
0.000000 0.807220 0.818420
0.000000 0.848846 0.885498
0.000000 0.886597 0.956787
0.000000 0.924377 0.995483
0.797119 0.939880 0.998657
0.977356 0.938263 1.000000
0.206177 0.943054 0.965302
0.322540 0.944427 0.964020
0.429749 0.956238 0.962677
0.616150 0.967529 0.958191
0.714325 0.977478 0.951233
0.768250 0.988495 0.989899
0.862854 0.994110 0.999908
0.998779 0.988586 1.000000
0.848083 0.997955 0.977753
0.860809 0.997864 0.981628
0.888214 0.998199 0.987122
0.905975 0.998535 0.993500
0.928009 0.999268 0.998627
0.965027 0.999786 0.996552
0.989288 1.000000 0.998291
1.000000 0.999878 1.000000
0.847260 1.000000 1.000000
0.863190 1.000000 1.000000
0.889252 1.000000 1.000000
0.926514 1.000000 1.000000
0.972046 1.000000 0.999969
0.997162 1.000000 0.999847
1.000000 1.000000 0.999084
1.000000 1.000000 0.999390
