static/images/nph.auh/Contents/History/resources/E5723F4D-3C86-4F13-9479-2B21B75A4594.cube
#Created by: Adobe Photoshop Export Color Lookup Plugin
#Copyright: (C) Copyright 2017 ©ThinkTAP
TITLE "Dawn"
#LUT size
LUT_3D_SIZE 32
#data domain
DOMAIN_MIN 0.0 0.0 0.0
DOMAIN_MAX 1.0 1.0 1.0
#LUT data points
0.000000 0.001801 0.024353
0.004181 0.001404 0.022278
0.007782 0.000000 0.020142
0.016907 0.000000 0.022247
0.030273 0.000000 0.023682
0.046844 0.000000 0.019012
0.066284 0.000000 0.014008
0.081329 0.000000 0.006561
0.098755 0.000000 0.000000
0.120697 0.000000 0.000000
0.146637 0.000000 0.000000
0.179016 0.000000 0.000000
0.213959 0.000000 0.000000
0.251556 0.000000 0.000000
0.294434 0.000000 0.000000
0.342865 0.000000 0.000000
0.392487 0.000000 0.000000
0.442230 0.000000 0.000000
0.503113 0.000000 0.000000
0.571747 0.000000 0.000000
0.636200 0.000000 0.000000
0.697021 0.000000 0.000000
0.760651 0.000000 0.000000
0.822296 0.000000 0.000000
0.878723 0.000000 0.000000
0.929291 0.000000 0.000000
0.972107 0.000000 0.000000
0.994019 0.000000 0.000000
0.999908 0.016174 0.000000
1.000000 0.033417 0.000000
1.000000 0.079590 0.000000
1.000000 0.146179 0.000000
0.000000 0.002625 0.021362
0.000000 0.001923 0.013092
0.004272 0.001617 0.011505
0.011658 0.001129 0.009277
0.022949 0.001190 0.010590
0.039673 0.000000 0.010376
0.057495 0.000000 0.007599
0.072174 0.000000 0.006439
0.088501 0.000000 0.000000
0.109344 0.000000 0.000000
0.132629 0.000000 0.000000
0.159790 0.000000 0.000000
0.194336 0.000000 0.000000
0.232391 0.000000 0.000000
0.275513 0.000000 0.000000
0.325134 0.000000 0.000000
0.382385 0.001648 0.000000
0.438782 0.002716 0.000000
0.499390 0.004608 0.000000
0.567474 0.006378 0.000000
0.632202 0.007324 0.000000
0.692657 0.008087 0.000000
0.761749 0.017090 0.000000
0.824310 0.022369 0.000000
0.884338 0.021667 0.000000
0.934326 0.021881 0.000000
0.968567 0.033600 0.000000
0.991791 0.037109 0.000000
0.999725 0.038574 0.000000
1.000000 0.058472 0.000000
1.000000 0.098053 0.000000
1.000000 0.168549 0.000000
0.000000 0.003845 0.018768
0.000000 0.003113 0.010956
0.000793 0.002441 0.005249
0.007385 0.001953 0.003021
0.016174 0.001617 0.000000
0.031128 0.001465 0.000000
0.050354 0.001343 0.000000
0.064117 0.001404 0.000000
0.080536 0.001587 0.000000
0.100555 0.001678 0.000000
0.123260 0.001770 0.000000
0.148010 0.001892 0.000000
0.178253 0.002106 0.000000
0.216248 0.002258 0.000000
0.259705 0.002502 0.000000
0.310028 0.002716 0.000000
0.366425 0.003357 0.000000
0.427277 0.004059 0.000000
0.493134 0.006134 0.000000
0.561829 0.010681 0.000000
0.627411 0.013763 0.000000
0.687744 0.015381 0.000000
0.755920 0.025024 0.000000
0.823944 0.043304 0.000000
0.884369 0.048523 0.000000
0.937347 0.047028 0.000000
0.971344 0.061859 0.000000
0.989807 0.084259 0.000000
0.999298 0.089569 0.000000
1.000000 0.091736 0.000000
1.000000 0.135254 0.000000
1.000000 0.191559 0.000000
0.000000 0.008392 0.018097
0.000000 0.007812 0.008850
0.000916 0.006927 0.003113
0.003723 0.006622 0.003143
0.011658 0.006042 0.000000
0.024384 0.005585 0.000000
0.041840 0.005951 0.000000
0.057068 0.007874 0.000000
0.072815 0.008606 0.000000
0.093140 0.010406 0.000000
0.116394 0.010895 0.000000
0.144104 0.011475 0.000000
0.175934 0.012878 0.000000
0.217407 0.015137 0.000000
0.259430 0.017059 0.000000
0.307037 0.019592 0.000000
0.364105 0.022736 0.000000
0.426117 0.026855 0.000000
0.493286 0.029541 0.000000
0.562622 0.034760 0.000000
0.635345 0.043396 0.000000
0.700531 0.049469 0.000000
0.759735 0.054016 0.000000
0.822815 0.071686 0.000000
0.883453 0.086975 0.000000
0.934601 0.089569 0.000000
0.973022 0.098022 0.000000
0.991333 0.121033 0.000000
0.999329 0.125153 0.000000
1.000000 0.127228 0.000000
1.000000 0.151978 0.000000
1.000000 0.206818 0.000000
0.000000 0.014954 0.016724
0.000000 0.014191 0.008392
0.000610 0.013245 0.000000
0.003967 0.012817 0.000000
0.008392 0.012573 0.000000
0.019958 0.011993 0.000000
0.035767 0.011780 0.000000
0.050354 0.014862 0.000000
0.068085 0.018158 0.000000
0.088440 0.021454 0.000000
0.112183 0.024475 0.000000
0.140900 0.025574 0.000000
0.175293 0.028259 0.000000
0.219055 0.033142 0.000000
0.264923 0.038635 0.000000
0.311218 0.044373 0.000000
0.367462 0.051849 0.000000
0.430145 0.060699 0.000000
0.496277 0.067932 0.000000
0.565430 0.072723 0.000000
0.637421 0.082886 0.000000
0.709473 0.096619 0.000000
0.771332 0.106995 0.000000
0.825409 0.114777 0.000000
0.879913 0.126434 0.000000
0.931000 0.140289 0.000000
0.970337 0.155731 0.000000
0.992065 0.169006 0.000000
0.999542 0.170135 0.000000
1.000000 0.170135 0.000000
1.000000 0.196259 0.000000
1.000000 0.227478 0.000000
0.000000 0.026489 0.010681
0.000000 0.026367 0.008301
0.000732 0.025116 0.000000
0.003357 0.022675 0.000000
0.007751 0.022186 0.000000
0.024902 0.023499 0.000000
0.042999 0.022949 0.000000
0.058990 0.023163 0.000000
0.078827 0.027527 0.000000
0.102325 0.030884 0.000000
0.127289 0.035126 0.000000
0.154846 0.038391 0.000000
0.189697 0.042480 0.000000
0.231628 0.050690 0.000000
0.278564 0.058228 0.000000
0.325989 0.066589 0.000000
0.385010 0.076691 0.000000
0.451691 0.088928 0.000000
0.514496 0.099304 0.000000
0.579498 0.107513 0.000000
0.647980 0.122162 0.000000
0.716125 0.141205 0.000000
0.775024 0.156769 0.000000
0.826172 0.168640 0.000000
0.878113 0.181091 0.000000
0.927643 0.196472 0.000000
0.968414 0.223083 0.000000
0.991302 0.242889 0.000000
0.999512 0.237122 0.000000
1.000000 0.234619 0.000000
1.000000 0.253113 0.000000
1.000000 0.284576 0.000000
0.000000 0.041687 0.005524
0.000000 0.041595 0.003784
0.000000 0.041260 0.000000
0.003784 0.038300 0.000000
0.007141 0.035553 0.000000
0.025696 0.037354 0.000000
0.052155 0.039734 0.000000
0.070038 0.039673 0.000000
0.092651 0.040375 0.000000
0.118500 0.044495 0.000000
0.148163 0.049225 0.000000
0.176941 0.053772 0.000000
0.209717 0.059906 0.000000
0.252014 0.070648 0.000000
0.296692 0.081818 0.000000
0.344513 0.092438 0.000000
0.401672 0.105591 0.000000
0.470123 0.120819 0.000000
0.536865 0.135712 0.000000
0.598724 0.147278 0.000000
0.661285 0.165405 0.000000
0.722626 0.189880 0.000000
0.779083 0.211304 0.000000
0.829468 0.228577 0.000000
0.879639 0.243164 0.000000
0.926666 0.258667 0.000000
0.966003 0.286865 0.000000
0.990509 0.318604 0.000000
0.999268 0.319153 0.000000
1.000000 0.308411 0.000000
1.000000 0.323761 0.000000
1.000000 0.345764 0.000000
0.000000 0.057495 0.003754
0.000000 0.057495 0.003754
0.000000 0.057129 0.000000
0.000000 0.055573 0.000000
0.005859 0.052826 0.000000
0.028992 0.055511 0.000000
0.058075 0.058563 0.000000
0.084381 0.062378 0.000000
0.109833 0.063141 0.000000
0.145935 0.065826 0.000000
0.179779 0.072113 0.000000
0.219727 0.080078 0.000000
0.253204 0.086761 0.000000
0.290375 0.095886 0.000000
0.335205 0.109314 0.000000
0.380951 0.122894 0.000000
0.434723 0.138336 0.000000
0.496338 0.156769 0.000000
0.564209 0.176605 0.000000
0.627777 0.195496 0.000000
0.679962 0.214355 0.000000
0.732208 0.238922 0.000000
0.790344 0.267761 0.000000
0.841888 0.292358 0.000000
0.888580 0.304382 0.000000
0.932678 0.317932 0.000000
0.967377 0.345520 0.000000
0.990234 0.377930 0.000000
0.998932 0.396729 0.000000
1.000000 0.394226 0.000000
1.000000 0.393402 0.000000
1.000000 0.410614 0.000000
0.000000 0.079437 0.003632
0.000000 0.079224 0.000000
0.000000 0.079224 0.000000
0.000000 0.077637 0.000000
0.005402 0.076904 0.000000
0.030426 0.080200 0.000000
0.066437 0.084106 0.000000
0.095459 0.088684 0.000000
0.130249 0.092682 0.000000
0.169800 0.095825 0.000000
0.213837 0.101227 0.000000
0.257141 0.110901 0.000000
0.302948 0.121582 0.000000
0.338898 0.131073 0.000000
0.377625 0.141357 0.000000
0.422668 0.157196 0.000000
0.475800 0.175598 0.000000
0.533875 0.196564 0.000000
0.589233 0.217102 0.000000
0.650238 0.241272 0.000000
0.704102 0.267517 0.000000
0.749817 0.292389 0.000000
0.801361 0.321472 0.000000
0.854004 0.353455 0.000000
0.897980 0.371002 0.000000
0.938843 0.381409 0.000000
0.971436 0.408417 0.000000
0.990875 0.439514 0.000000
0.998962 0.459564 0.000000
1.000000 0.475281 0.000000
1.000000 0.480103 0.000000
1.000000 0.480103 0.000000
0.000000 0.116211 0.009796
0.000000 0.115784 0.004120
0.000000 0.115448 0.000000
0.000000 0.115448 0.000000
0.006531 0.114929 0.000000
0.035675 0.119019 0.000000
0.075806 0.123779 0.000000
0.115448 0.127869 0.000000
0.154022 0.132538 0.000000
0.201202 0.134247 0.000000
0.247681 0.140442 0.000000
0.297638 0.151947 0.000000
0.346252 0.164581 0.000000
0.398071 0.179016 0.000000
0.435822 0.188995 0.000000
0.476135 0.199554 0.000000
0.529236 0.219879 0.000000
0.586060 0.243011 0.000000
0.630615 0.262695 0.000000
0.674164 0.282166 0.000000
0.728333 0.312592 0.000000
0.775909 0.343872 0.000000
0.822968 0.374023 0.000000
0.870422 0.406799 0.000000
0.908875 0.428772 0.000000
0.944336 0.443481 0.000000
0.975433 0.469513 0.000000
0.992828 0.498138 0.000000
0.999359 0.519012 0.000000
1.000000 0.535187 0.000000
1.000000 0.549683 0.000000
1.000000 0.554291 0.000000
0.000000 0.160736 0.016663
0.000000 0.160156 0.008636
0.000000 0.159637 0.000000
0.000000 0.160339 0.000000
0.007263 0.161163 0.000000
0.039001 0.165100 0.000000
0.085510 0.170807 0.000000
0.130524 0.175659 0.000000
0.177032 0.180237 0.000000
0.225861 0.182068 0.000000
0.282715 0.188843 0.000000
0.334198 0.201843 0.000000
0.390778 0.213776 0.000000
0.445160 0.230316 0.000000
0.494141 0.242126 0.000000
0.531555 0.251831 0.000000
0.575165 0.267700 0.000000
0.629639 0.292572 0.000000
0.677185 0.316223 0.000000
0.712402 0.334167 0.000000
0.755554 0.361176 0.000000
0.802887 0.396637 0.000000
0.848785 0.428314 0.000000
0.891571 0.462250 0.000000
0.926178 0.490997 0.000000
0.955627 0.508698 0.000000
0.981323 0.529907 0.000000
0.995392 0.554382 0.000000
0.999725 0.574585 0.000000
1.000000 0.592072 0.000000
1.000000 0.604950 0.000000
1.000000 0.618561 0.000000
0.000000 0.213226 0.021545
0.000000 0.212372 0.010590
0.000000 0.211761 0.000000
0.000000 0.215057 0.000000
0.008392 0.216705 0.000000
0.038574 0.217651 0.000000
0.085083 0.222717 0.000000
0.149078 0.229614 0.000000
0.200958 0.234802 0.000000
0.246735 0.239197 0.000000
0.304626 0.246796 0.000000
0.374664 0.265961 0.000000
0.432495 0.278687 0.000000
0.495422 0.288605 0.000000
0.542297 0.300659 0.000000
0.582306 0.305725 0.000000
0.622101 0.321838 0.000000
0.666534 0.344452 0.000000
0.714539 0.371307 0.000000
0.756226 0.396576 0.000000
0.795654 0.423706 0.000000
0.837677 0.457642 0.000000
0.879791 0.488007 0.000000
0.918549 0.517883 0.000000
0.949097 0.551697 0.000000
0.972961 0.577179 0.000000
0.990692 0.590912 0.000000
0.998444 0.607605 0.000000
1.000000 0.628082 0.000000
1.000000 0.645874 0.000000
1.000000 0.655945 0.000000
1.000000 0.667297 0.000000
0.000000 0.274475 0.024841
0.000000 0.275055 0.014954
0.000000 0.274261 0.004395
0.000000 0.276245 0.000000
0.000000 0.279419 0.000000
0.029205 0.280670 0.000000
0.079926 0.283325 0.000000
0.158234 0.291290 0.000000
0.232086 0.300507 0.000000
0.282776 0.306488 0.000000
0.338196 0.313049 0.000000
0.408783 0.333008 0.000000
0.473358 0.349640 0.000000
0.534943 0.359772 0.000000
0.590973 0.370819 0.000000
0.629791 0.375488 0.000000
0.675751 0.387421 0.000000
0.715881 0.410278 0.000000
0.755737 0.431732 0.000000
0.797089 0.460022 0.000000
0.833099 0.485199 0.000000
0.871033 0.519226 0.000000
0.907990 0.550049 0.000000
0.942657 0.573792 0.000000
0.967712 0.598175 0.000000
0.985443 0.628479 0.000000
0.996124 0.648499 0.000000
0.999725 0.658630 0.000000
1.000000 0.672760 0.000000
1.000000 0.690948 0.000000
1.000000 0.701630 0.000000
1.000000 0.710388 0.000000
0.000000 0.346100 0.024658
0.000000 0.349152 0.017639
0.000000 0.349792 0.007812
0.000000 0.349609 0.004852
0.000000 0.351318 0.000000
0.000000 0.351318 0.000000
0.042786 0.353851 0.000000
0.169159 0.364502 0.000000
0.263031 0.375305 0.000000
0.335083 0.389648 0.000000
0.393707 0.397827 0.000000
0.460388 0.408630 0.000000
0.522858 0.425476 0.000000
0.576111 0.435516 0.000000
0.630737 0.447693 0.000000
0.679077 0.460846 0.000000
0.724121 0.472778 0.000000
0.773743 0.492279 0.000000
0.809357 0.512848 0.000000
0.843964 0.532410 0.000000
0.874054 0.554047 0.000000
0.901276 0.572601 0.000000
0.933990 0.602386 0.000000
0.963013 0.628876 0.000000
0.981995 0.646027 0.000000
0.993103 0.665222 0.000000
0.998810 0.688538 0.000000
1.000000 0.704742 0.000000
1.000000 0.713409 0.000000
1.000000 0.726135 0.000000
1.000000 0.737671 0.000000
1.000000 0.747040 0.000000
0.000000 0.423767 0.041107
0.000000 0.424652 0.023926
0.000000 0.428009 0.015747
0.000000 0.430298 0.007416
0.011139 0.431122 0.000000
0.022217 0.432404 0.000000
0.035095 0.433228 0.000000
0.152863 0.442108 0.000000
0.301025 0.453766 0.000000
0.377350 0.467102 0.000000
0.446686 0.480927 0.000000
0.511597 0.492279 0.000000
0.572021 0.504852 0.000000
0.623352 0.515503 0.000000
0.670471 0.524139 0.000000
0.717346 0.538635 0.000000
0.764679 0.552551 0.000000
0.812042 0.572083 0.000000
0.853455 0.588043 0.000000
0.883667 0.602966 0.000000
0.914001 0.619568 0.000000
0.935730 0.633270 0.000000
0.957306 0.649658 0.000000
0.979828 0.675415 0.000000
0.991852 0.693268 0.000000
0.997650 0.705963 0.000000
0.999817 0.720947 0.000000
1.000000 0.740784 0.000000
1.000000 0.752777 0.000000
1.000000 0.760742 0.000000
1.000000 0.769714 0.000000
1.000000 0.779907 0.000000
0.000000 0.506592 0.090485
0.000000 0.504486 0.052032
0.000000 0.505524 0.031952
0.000000 0.511780 0.012848
0.012695 0.515106 0.000000
0.055786 0.519287 0.000000
0.088776 0.521729 0.000000
0.193451 0.528290 0.000000
0.329376 0.538849 0.000000
0.424652 0.545959 0.000000
0.497192 0.558533 0.000000
0.560059 0.570007 0.000000
0.618256 0.583008 0.000000
0.670593 0.598145 0.000000
0.715363 0.607605 0.000000
0.755768 0.614746 0.000000
0.799652 0.626099 0.000000
0.842468 0.635559 0.000000
0.880981 0.649048 0.000000
0.914093 0.660706 0.000000
0.942383 0.676514 0.000000
0.967133 0.692230 0.000000
0.980896 0.703308 0.000000
0.991302 0.716278 0.000000
0.997406 0.732666 0.000000
0.999634 0.745850 0.000000
1.000000 0.756561 0.000000
1.000000 0.769867 0.000000
1.000000 0.783295 0.000000
1.000000 0.793610 0.000000
1.000000 0.800873 0.000000
1.000000 0.809113 0.000000
0.000000 0.585754 0.132721
0.000000 0.589447 0.095612
0.000000 0.587494 0.056244
0.000000 0.590424 0.035767
0.016937 0.596985 0.014404
0.074982 0.601044 0.000000
0.143707 0.606232 0.000000
0.258789 0.613617 0.000000
0.369629 0.625244 0.000000
0.464813 0.635986 0.000000
0.552460 0.643799 0.000000
0.615936 0.654846 0.000000
0.667328 0.663666 0.000000
0.715179 0.675079 0.000000
0.761719 0.685333 0.000000
0.798889 0.689911 0.000000
0.834900 0.694427 0.000000
0.873505 0.702484 0.000000
0.907532 0.710144 0.000000
0.937622 0.720032 0.000000
0.961182 0.728119 0.000000
0.981842 0.742126 0.000000
0.993713 0.752686 0.000000
0.997803 0.761078 0.000000
0.999481 0.768982 0.000000
1.000000 0.781769 0.000000
1.000000 0.790833 0.000000
1.000000 0.800507 0.000000
1.000000 0.812012 0.000000
1.000000 0.823578 0.000000
1.000000 0.829468 0.000000
1.000000 0.836121 0.000000
0.000000 0.659668 0.158905
0.000000 0.668671 0.128174
0.000000 0.672089 0.091553
0.000000 0.671112 0.069000
0.019623 0.674377 0.045166
0.099365 0.678589 0.015350
0.183563 0.683807 0.000000
0.306122 0.691528 0.000000
0.419678 0.703369 0.000000
0.516022 0.724731 0.000000
0.601410 0.734497 0.000000
0.673828 0.737976 0.000000
0.723358 0.742432 0.000000
0.759247 0.743134 0.000000
0.800812 0.750946 0.000000
0.840393 0.757935 0.000000
0.872437 0.761566 0.000000
0.902802 0.764923 0.000000
0.932800 0.770935 0.000000
0.958832 0.776703 0.000000
0.977295 0.782196 0.000000
0.989502 0.786804 0.000000
0.997437 0.795837 0.000000
0.999817 0.803192 0.000000
1.000000 0.808502 0.000000
1.000000 0.814941 0.000000
1.000000 0.822632 0.000000
1.000000 0.830048 0.000000
1.000000 0.840759 0.000000
1.000000 0.851410 0.000000
1.000000 0.856049 0.000000
1.000000 0.861053 0.000000
0.057770 0.744537 0.191345
0.066620 0.750336 0.170959
0.068054 0.758087 0.138031
0.078125 0.757477 0.106873
0.085022 0.756348 0.076385
0.164886 0.758392 0.031464
0.255707 0.763916 0.000000
0.360901 0.771332 0.000000
0.470642 0.781067 0.000000
0.557526 0.794312 0.000000
0.644592 0.803467 0.000000
0.715179 0.804993 0.000000
0.771149 0.808777 0.000000
0.805237 0.809875 0.000000
0.834106 0.808716 0.000000
0.868713 0.813416 0.000000
0.902405 0.821075 0.000000
0.929230 0.823578 0.000000
0.950562 0.822693 0.000000
0.972870 0.826935 0.000000
0.988525 0.829163 0.000000
0.995636 0.831909 0.000000
0.999207 0.836182 0.000000
1.000000 0.842712 0.000000
1.000000 0.843994 0.000000
1.000000 0.848267 0.000000
1.000000 0.854156 0.000000
1.000000 0.860382 0.000000
1.000000 0.867798 0.000000
1.000000 0.877686 0.000000
1.000000 0.881958 0.000000
1.000000 0.885834 0.000000
0.161102 0.832092 0.231140
0.180206 0.835632 0.221161
0.192291 0.840363 0.198914
0.216339 0.840485 0.157959
0.235626 0.840149 0.117310
0.298126 0.839600 0.046021
0.372833 0.842834 0.000000
0.443420 0.846252 0.000000
0.531403 0.850372 0.000000
0.598236 0.856262 0.000000
0.674713 0.861542 0.000000
0.749573 0.859100 0.000000
0.803314 0.860779 0.000000
0.842621 0.865265 0.000000
0.869720 0.864471 0.000000
0.892517 0.861603 0.000000
0.921997 0.866882 0.000000
0.950043 0.874451 0.000000
0.968628 0.873566 0.000000
0.981903 0.870270 0.000000
0.993622 0.871704 0.000000
0.998688 0.872101 0.000000
0.999969 0.875488 0.000000
1.000000 0.879669 0.000000
1.000000 0.879730 0.000000
1.000000 0.878906 0.000000
1.000000 0.884338 0.000000
1.000000 0.890015 0.000000
1.000000 0.895630 0.000000
1.000000 0.902344 0.000000
1.000000 0.906281 0.000000
1.000000 0.909882 0.000000
0.290771 0.896118 0.279541
0.299194 0.895691 0.266479
0.315460 0.898285 0.256012
0.321045 0.899261 0.221954
0.341003 0.900146 0.178284
0.376007 0.902496 0.108002
0.439789 0.901642 0.037323
0.513397 0.903015 0.020447
0.576019 0.903595 0.019409
0.636169 0.904877 0.015350
0.700867 0.909332 0.027008
0.771332 0.908447 0.042358
0.825592 0.903229 0.025208
0.862061 0.903809 0.000000
0.895447 0.907806 0.000000
0.917664 0.906158 0.000000
0.935852 0.904114 0.000000
0.960602 0.909637 0.000000
0.979126 0.912659 0.000000
0.989471 0.909668 0.000000
0.996429 0.907471 0.000000
0.999573 0.907562 0.000000
1.000000 0.910004 0.000000
1.000000 0.913544 0.000000
1.000000 0.910950 0.000000
1.000000 0.909210 0.000000
1.000000 0.910950 0.000000
1.000000 0.916229 0.000000
1.000000 0.915070 0.000000
1.000000 0.920258 0.000000
1.000000 0.926880 0.000000
1.000000 0.930237 0.000000
0.417511 0.942017 0.328827
0.419312 0.940094 0.313354
0.425354 0.939758 0.299103
0.417755 0.941254 0.271423
0.421387 0.942749 0.235199
0.430145 0.947845 0.176971
0.468719 0.949768 0.110809
0.547546 0.949310 0.066620
0.612366 0.948456 0.043701
0.664368 0.944427 0.027252
0.723053 0.944977 0.037109
0.789093 0.948120 0.083435
0.839966 0.944885 0.079346
0.875977 0.937347 0.027374
0.907745 0.938171 0.000000
0.936676 0.942108 0.000000
0.954651 0.941193 0.000000
0.968842 0.939911 0.000000
0.984253 0.941589 0.000000
0.993530 0.941772 0.000000
0.998291 0.939911 0.000000
0.999908 0.938293 0.000000
1.000000 0.940491 0.000000
1.000000 0.943634 0.000000
1.000000 0.940979 0.000000
1.000000 0.936584 0.000000
1.000000 0.937531 0.000000
1.000000 0.939758 0.000000
1.000000 0.936188 0.000000
1.000000 0.933838 0.000000
1.000000 0.941681 0.000000
1.000000 0.947906 0.000000
0.494415 0.973206 0.352051
0.496979 0.972778 0.343384
0.499878 0.971619 0.329285
0.506714 0.972107 0.319824
0.497131 0.973297 0.283325
0.486359 0.975952 0.202911
0.510254 0.978760 0.152649
0.590576 0.978729 0.125977
0.648071 0.978058 0.089691
0.686188 0.975983 0.083618
0.737823 0.974060 0.050415
0.798920 0.975372 0.053711
0.849335 0.974365 0.084015
0.885132 0.968689 0.045898
0.916748 0.965515 0.000000
0.944550 0.967834 0.000000
0.965851 0.967987 0.000000
0.978699 0.966705 0.000000
0.989319 0.966248 0.000000
0.996185 0.966339 0.000000
0.999084 0.964813 0.000000
1.000000 0.963440 0.000000
1.000000 0.962982 0.000000
1.000000 0.965607 0.000000
1.000000 0.964264 0.000000
1.000000 0.960297 0.000000
1.000000 0.958710 0.000000
1.000000 0.960083 0.000000
1.000000 0.958466 0.000000
1.000000 0.954193 0.000000
1.000000 0.954834 0.000000
1.000000 0.961761 0.000000
0.545563 0.990845 0.360413
0.548218 0.990845 0.354706
0.551483 0.990662 0.347168
0.566223 0.990723 0.349121
0.570404 0.991058 0.330780
0.546143 0.992035 0.233459
0.551056 0.993011 0.160126
0.632202 0.993195 0.155243
0.689941 0.993042 0.139526
0.711029 0.992615 0.144836
0.750427 0.992065 0.120789
0.806000 0.992188 0.045837
0.853760 0.991394 0.029724
0.891418 0.988403 0.030365
0.923126 0.986542 0.000000
0.950775 0.986664 0.000000
0.971222 0.986389 0.000000
0.984772 0.984894 0.000000
0.993378 0.984436 0.000000
0.998077 0.984436 0.000000
0.999756 0.983398 0.000000
1.000000 0.981598 0.000000
1.000000 0.981262 0.000000
1.000000 0.981262 0.000000
1.000000 0.980347 0.000000
1.000000 0.978302 0.000000
1.000000 0.976868 0.000000
1.000000 0.976074 0.000000
1.000000 0.975220 0.000000
1.000000 0.973602 0.000000
1.000000 0.972351 0.000000
1.000000 0.972992 0.000000
0.582764 0.998108 0.379486
0.589783 0.997925 0.385376
0.592072 0.997986 0.378723
0.596222 0.998413 0.365143
0.609741 0.998444 0.360718
0.608429 0.998657 0.295288
0.593964 0.998871 0.206512
0.640320 0.998810 0.180084
0.706879 0.998779 0.169373
0.740967 0.998657 0.160583
0.769318 0.998474 0.157501
0.818726 0.998413 0.105621
0.858612 0.998291 0.033936
0.891418 0.997467 0.000000
0.923798 0.996155 0.000000
0.951355 0.995819 0.000000
0.976135 0.995453 0.000000
0.989532 0.994781 0.000000
0.995728 0.994171 0.000000
0.998962 0.994110 0.000000
0.999969 0.994110 0.000000
1.000000 0.993317 0.000000
1.000000 0.992340 0.000000
1.000000 0.992279 0.000000
1.000000 0.991455 0.000000
1.000000 0.990295 0.000000
1.000000 0.989532 0.000000
1.000000 0.988922 0.000000
1.000000 0.987183 0.000000
1.000000 0.986389 0.000000
1.000000 0.984375 0.000000
1.000000 0.983551 0.000000
0.614075 0.999969 0.401611
0.622345 0.999939 0.411377
0.628754 0.999908 0.416168
0.628082 1.000000 0.395355
0.631622 1.000000 0.375549
0.643005 1.000000 0.329254
0.649658 1.000000 0.274353
0.668518 1.000000 0.232056
0.705414 1.000000 0.200958
0.753601 1.000000 0.177765
0.793365 1.000000 0.159912
0.835419 1.000000 0.137421
0.870361 0.999939 0.092651
0.894348 0.999908 0.034760
0.922546 0.999725 0.000000
0.950195 0.999420 0.000000
0.975281 0.999176 0.000000
0.992493 0.998932 0.000000
0.997772 0.998718 0.000000
0.999512 0.998535 0.000000
1.000000 0.998505 0.000000
1.000000 0.998505 0.000000
1.000000 0.998199 0.000000
1.000000 0.997772 0.000000
1.000000 0.997375 0.000000
1.000000 0.996796 0.000000
1.000000 0.996429 0.000000
1.000000 0.996155 0.000000
1.000000 0.995178 0.000000
1.000000 0.994080 0.000000
1.000000 0.992737 0.000000
1.000000 0.991333 0.000000
0.658142 1.000000 0.440735
0.661621 1.000000 0.442810
0.667969 1.000000 0.448761
0.659668 1.000000 0.410309
0.660370 1.000000 0.392670
0.670624 1.000000 0.380798
0.679260 1.000000 0.323883
0.686066 1.000000 0.243469
0.708374 1.000000 0.209808
0.748444 1.000000 0.197906
0.793915 1.000000 0.174835
0.836639 1.000000 0.152679
0.873108 1.000000 0.120117
0.900024 1.000000 0.068329
0.924957 1.000000 0.026489
0.951904 1.000000 0.000000
0.975189 1.000000 0.000000
0.992035 1.000000 0.000000
0.998413 0.999969 0.000000
0.999817 0.999908 0.000000
1.000000 0.999847 0.000000
1.000000 0.999847 0.000000
1.000000 0.999786 0.000000
1.000000 0.999695 0.000000
1.000000 0.999451 0.000000
1.000000 0.999268 0.000000
1.000000 0.999207 0.000000
1.000000 0.999115 0.000000
1.000000 0.998260 0.000000
1.000000 0.997620 0.000000
1.000000 0.997040 0.000000
1.000000 0.996185 0.000000
0.702118 1.000000 0.482727
0.704437 1.000000 0.483032
0.706451 1.000000 0.481598
0.696289 1.000000 0.437744
0.689636 1.000000 0.402283
0.699036 1.000000 0.406342
0.706604 1.000000 0.383881
0.706482 1.000000 0.281708
0.717468 1.000000 0.207428
0.750305 1.000000 0.204163
0.788361 1.000000 0.192627
0.832428 1.000000 0.171112
0.869965 1.000000 0.138855
0.901398 1.000000 0.090698
0.928955 1.000000 0.050354
0.954681 1.000000 0.026947
0.976990 1.000000 0.000000
