images/nph.auh/Contents/History/resources/06894C7E-B975-4935-9A51-5F65A56F4A03.cube
#Created by: Adobe Photoshop Export Color Lookup Plugin
#Copyright: (C) Copyright 2017 ©ThinkTAP
TITLE "Warm Midtones"
#LUT size
LUT_3D_SIZE 8
#data domain
#LUT data points
DOMAIN_MIN 0.000000 0.000000 0.000000
DOMAIN_MAX 0.903226 0.903226 0.903226
0.000000 0.000000 0.000000
0.134613 0.000000 0.000000
0.293793 0.000000 0.000000
0.440247 0.000000 0.000000
0.579742 0.000000 0.000000
0.714172 0.000000 0.000000
0.844940 0.000000 0.000000
0.972717 0.000000 0.000000
0.000000 0.083405 0.000000
0.134613 0.083405 0.000000
0.293793 0.083405 0.000000
0.440247 0.083405 0.000000
0.579742 0.083405 0.000000
0.714172 0.083405 0.000000
0.844940 0.083405 0.000000
0.972717 0.083405 0.000000
0.000000 0.199738 0.000000
0.134613 0.199738 0.000000
0.293793 0.199738 0.000000
0.440247 0.199738 0.000000
0.579742 0.199738 0.000000
0.714172 0.199738 0.000000
0.844940 0.199738 0.000000
0.972717 0.199738 0.000000
0.000000 0.326202 0.000000
0.134613 0.326202 0.000000
0.293793 0.326202 0.000000
0.440247 0.326202 0.000000
0.579742 0.326202 0.000000
0.714172 0.326202 0.000000
0.844940 0.326202 0.000000
0.972717 0.326202 0.000000
0.000000 0.459595 0.000000
0.134613 0.459595 0.000000
0.293793 0.459595 0.000000
0.440247 0.459595 0.000000
0.579742 0.459595 0.000000
0.714172 0.459595 0.000000
0.844940 0.459595 0.000000
0.972717 0.459595 0.000000
0.000000 0.598206 0.000000
0.134613 0.598206 0.000000
0.293793 0.598206 0.000000
0.440247 0.598206 0.000000
0.579742 0.598206 0.000000
0.714172 0.598206 0.000000
0.844940 0.598206 0.000000
0.972717 0.598206 0.000000
0.000000 0.741211 0.000000
0.134613 0.741211 0.000000
0.293793 0.741211 0.000000
0.440247 0.741211 0.000000
0.579742 0.741211 0.000000
0.714172 0.741211 0.000000
0.844940 0.741211 0.000000
0.972717 0.741211 0.000000
0.000000 0.887848 0.000000
0.134613 0.887848 0.000000
0.293793 0.887848 0.000000
0.440247 0.887848 0.000000
0.579742 0.887848 0.000000
0.714172 0.887848 0.000000
0.844940 0.887848 0.000000
0.972717 0.887848 0.000000
0.000000 0.000000 0.083557
0.134613 0.000000 0.083557
0.293793 0.000000 0.083557
0.440247 0.000000 0.083557
0.579742 0.000000 0.083557
0.714172 0.000000 0.083557
0.844940 0.000000 0.083557
0.972717 0.000000 0.083557
0.000000 0.083405 0.083557
0.134613 0.083405 0.083557
0.293793 0.083405 0.083557
0.440247 0.083405 0.083557
0.579742 0.083405 0.083557
0.714172 0.083405 0.083557
0.844940 0.083405 0.083557
0.972717 0.083405 0.083557
0.000000 0.199738 0.083557
0.134613 0.199738 0.083557
0.293793 0.199738 0.083557
0.440247 0.199738 0.083557
0.579742 0.199738 0.083557
0.714172 0.199738 0.083557
0.844940 0.199738 0.083557
0.972717 0.199738 0.083557
0.000000 0.326202 0.083557
0.134613 0.326202 0.083557
0.293793 0.326202 0.083557
0.440247 0.326202 0.083557
0.579742 0.326202 0.083557
0.714172 0.326202 0.083557
0.844940 0.326202 0.083557
0.972717 0.326202 0.083557
0.000000 0.459595 0.083557
0.134613 0.459595 0.083557
0.293793 0.459595 0.083557
0.440247 0.459595 0.083557
0.579742 0.459595 0.083557
0.714172 0.459595 0.083557
0.844940 0.459595 0.083557
0.972717 0.459595 0.083557
0.000000 0.598206 0.083557
0.134613 0.598206 0.083557
0.293793 0.598206 0.083557
0.440247 0.598206 0.083557
0.579742 0.598206 0.083557
0.714172 0.598206 0.083557
0.844940 0.598206 0.083557
0.972717 0.598206 0.083557
0.000000 0.741211 0.083557
0.134613 0.741211 0.083557
0.293793 0.741211 0.083557
0.440247 0.741211 0.083557
0.579742 0.741211 0.083557
0.714172 0.741211 0.083557
0.844940 0.741211 0.083557
0.972717 0.741211 0.083557
0.000000 0.887848 0.083557
0.134613 0.887848 0.083557
0.293793 0.887848 0.083557
0.440247 0.887848 0.083557
0.579742 0.887848 0.083557
0.714172 0.887848 0.083557
0.844940 0.887848 0.083557
0.972717 0.887848 0.083557
0.000000 0.000000 0.201355
0.134613 0.000000 0.201355
0.293793 0.000000 0.201355
0.440247 0.000000 0.201355
0.579742 0.000000 0.201355
0.714172 0.000000 0.201355
0.844940 0.000000 0.201355
0.972717 0.000000 0.201355
0.000000 0.083405 0.201355
0.134613 0.083405 0.201355
0.293793 0.083405 0.201355
0.440247 0.083405 0.201355
0.579742 0.083405 0.201355
0.714172 0.083405 0.201355
0.844940 0.083405 0.201355
0.972717 0.083405 0.201355
0.000000 0.199738 0.201355
0.134613 0.199738 0.201355
0.293793 0.199738 0.201355
0.440247 0.199738 0.201355
0.579742 0.199738 0.201355
0.714172 0.199738 0.201355
0.844940 0.199738 0.201355
0.972717 0.199738 0.201355
0.000000 0.326202 0.201355
0.134613 0.326202 0.201355
0.293793 0.326202 0.201355
0.440247 0.326202 0.201355
0.579742 0.326202 0.201355
0.714172 0.326202 0.201355
0.844940 0.326202 0.201355
0.972717 0.326202 0.201355
0.000000 0.459595 0.201355
0.134613 0.459595 0.201355
0.293793 0.459595 0.201355
0.440247 0.459595 0.201355
0.579742 0.459595 0.201355
0.714172 0.459595 0.201355
0.844940 0.459595 0.201355
0.972717 0.459595 0.201355
0.000000 0.598206 0.201355
0.134613 0.598206 0.201355
0.293793 0.598206 0.201355
0.440247 0.598206 0.201355
0.579742 0.598206 0.201355
0.714172 0.598206 0.201355
0.844940 0.598206 0.201355
0.972717 0.598206 0.201355
0.000000 0.741211 0.201355
0.134613 0.741211 0.201355
0.293793 0.741211 0.201355
0.440247 0.741211 0.201355
0.579742 0.741211 0.201355
0.714172 0.741211 0.201355
0.844940 0.741211 0.201355
0.972717 0.741211 0.201355
0.000000 0.887848 0.201355
0.134613 0.887848 0.201355
0.293793 0.887848 0.201355
0.440247 0.887848 0.201355
0.579742 0.887848 0.201355
0.714172 0.887848 0.201355
0.844940 0.887848 0.201355
0.972717 0.887848 0.201355
0.000000 0.000000 0.329437
0.134613 0.000000 0.329437
0.293793 0.000000 0.329437
0.440247 0.000000 0.329437
0.579742 0.000000 0.329437
0.714172 0.000000 0.329437
0.844940 0.000000 0.329437
0.972717 0.000000 0.329437
0.000000 0.083405 0.329437
0.134613 0.083405 0.329437
0.293793 0.083405 0.329437
0.440247 0.083405 0.329437
0.579742 0.083405 0.329437
0.714172 0.083405 0.329437
0.844940 0.083405 0.329437
0.972717 0.083405 0.329437
0.000000 0.199738 0.329437
0.134613 0.199738 0.329437
0.293793 0.199738 0.329437
0.440247 0.199738 0.329437
0.579742 0.199738 0.329437
0.714172 0.199738 0.329437
0.844940 0.199738 0.329437
0.972717 0.199738 0.329437
0.000000 0.326202 0.329437
0.134613 0.326202 0.329437
0.293793 0.326202 0.329437
0.440247 0.326202 0.329437
0.579742 0.326202 0.329437
0.714172 0.326202 0.329437
0.844940 0.326202 0.329437
0.972717 0.326202 0.329437
0.000000 0.459595 0.329437
0.134613 0.459595 0.329437
0.293793 0.459595 0.329437
0.440247 0.459595 0.329437
0.579742 0.459595 0.329437
0.714172 0.459595 0.329437
0.844940 0.459595 0.329437
0.972717 0.459595 0.329437
0.000000 0.598206 0.329437
0.134613 0.598206 0.329437
0.293793 0.598206 0.329437
0.440247 0.598206 0.329437
0.579742 0.598206 0.329437
0.714172 0.598206 0.329437
0.844940 0.598206 0.329437
0.972717 0.598206 0.329437
0.000000 0.741211 0.329437
0.134613 0.741211 0.329437
0.293793 0.741211 0.329437
0.440247 0.741211 0.329437
0.579742 0.741211 0.329437
0.714172 0.741211 0.329437
0.844940 0.741211 0.329437
0.972717 0.741211 0.329437
0.000000 0.887848 0.329437
0.134613 0.887848 0.329437
0.293793 0.887848 0.329437
0.440247 0.887848 0.329437
0.579742 0.887848 0.329437
0.714172 0.887848 0.329437
0.844940 0.887848 0.329437
0.972717 0.887848 0.329437
0.000000 0.000000 0.464569
0.134613 0.000000 0.464569
0.293793 0.000000 0.464569
0.440247 0.000000 0.464569
0.579742 0.000000 0.464569
0.714172 0.000000 0.464569
0.844940 0.000000 0.464569
0.972717 0.000000 0.464569
0.000000 0.083405 0.464569
0.134613 0.083405 0.464569
0.293793 0.083405 0.464569
0.440247 0.083405 0.464569
0.579742 0.083405 0.464569
0.714172 0.083405 0.464569
0.844940 0.083405 0.464569
0.972717 0.083405 0.464569
0.000000 0.199738 0.464569
0.134613 0.199738 0.464569
0.293793 0.199738 0.464569
0.440247 0.199738 0.464569
0.579742 0.199738 0.464569
0.714172 0.199738 0.464569
0.844940 0.199738 0.464569
0.972717 0.199738 0.464569
0.000000 0.326202 0.464569
0.134613 0.326202 0.464569
0.293793 0.326202 0.464569
0.440247 0.326202 0.464569
0.579742 0.326202 0.464569
0.714172 0.326202 0.464569
0.844940 0.326202 0.464569
0.972717 0.326202 0.464569
0.000000 0.459595 0.464569
0.134613 0.459595 0.464569
0.293793 0.459595 0.464569
0.440247 0.459595 0.464569
0.579742 0.459595 0.464569
0.714172 0.459595 0.464569
0.844940 0.459595 0.464569
0.972717 0.459595 0.464569
0.000000 0.598206 0.464569
0.134613 0.598206 0.464569
0.293793 0.598206 0.464569
0.440247 0.598206 0.464569
0.579742 0.598206 0.464569
0.714172 0.598206 0.464569
0.844940 0.598206 0.464569
0.972717 0.598206 0.464569
0.000000 0.741211 0.464569
0.134613 0.741211 0.464569
0.293793 0.741211 0.464569
0.440247 0.741211 0.464569
0.579742 0.741211 0.464569
0.714172 0.741211 0.464569
0.844940 0.741211 0.464569
0.972717 0.741211 0.464569
0.000000 0.887848 0.464569
0.134613 0.887848 0.464569
0.293793 0.887848 0.464569
0.440247 0.887848 0.464569
0.579742 0.887848 0.464569
0.714172 0.887848 0.464569
0.844940 0.887848 0.464569
0.972717 0.887848 0.464569
0.000000 0.000000 0.604980
0.134613 0.000000 0.604980
0.293793 0.000000 0.604980
0.440247 0.000000 0.604980
0.579742 0.000000 0.604980
0.714172 0.000000 0.604980
0.844940 0.000000 0.604980
0.972717 0.000000 0.604980
0.000000 0.083405 0.604980
0.134613 0.083405 0.604980
0.293793 0.083405 0.604980
0.440247 0.083405 0.604980
0.579742 0.083405 0.604980
0.714172 0.083405 0.604980
0.844940 0.083405 0.604980
0.972717 0.083405 0.604980
0.000000 0.199738 0.604980
0.134613 0.199738 0.604980
0.293793 0.199738 0.604980
0.440247 0.199738 0.604980
0.579742 0.199738 0.604980
0.714172 0.199738 0.604980
0.844940 0.199738 0.604980
0.972717 0.199738 0.604980
0.000000 0.326202 0.604980
0.134613 0.326202 0.604980
0.293793 0.326202 0.604980
0.440247 0.326202 0.604980
0.579742 0.326202 0.604980
0.714172 0.326202 0.604980
0.844940 0.326202 0.604980
0.972717 0.326202 0.604980
0.000000 0.459595 0.604980
0.134613 0.459595 0.604980
0.293793 0.459595 0.604980
0.440247 0.459595 0.604980
0.579742 0.459595 0.604980
0.714172 0.459595 0.604980
0.844940 0.459595 0.604980
0.972717 0.459595 0.604980
0.000000 0.598206 0.604980
0.134613 0.598206 0.604980
0.293793 0.598206 0.604980
0.440247 0.598206 0.604980
0.579742 0.598206 0.604980
0.714172 0.598206 0.604980
0.844940 0.598206 0.604980
0.972717 0.598206 0.604980
0.000000 0.741211 0.604980
0.134613 0.741211 0.604980
0.293793 0.741211 0.604980
0.440247 0.741211 0.604980
0.579742 0.741211 0.604980
0.714172 0.741211 0.604980
0.844940 0.741211 0.604980
0.972717 0.741211 0.604980
0.000000 0.887848 0.604980
0.134613 0.887848 0.604980
0.293793 0.887848 0.604980
0.440247 0.887848 0.604980
0.579742 0.887848 0.604980
0.714172 0.887848 0.604980
0.844940 0.887848 0.604980
0.972717 0.887848 0.604980
0.000000 0.000000 0.749878
0.134613 0.000000 0.749878
0.293793 0.000000 0.749878
0.440247 0.000000 0.749878
0.579742 0.000000 0.749878
0.714172 0.000000 0.749878
0.844940 0.000000 0.749878
0.972717 0.000000 0.749878
0.000000 0.083405 0.749878
0.134613 0.083405 0.749878
0.293793 0.083405 0.749878
0.440247 0.083405 0.749878
0.579742 0.083405 0.749878
0.714172 0.083405 0.749878
0.844940 0.083405 0.749878
0.972717 0.083405 0.749878
0.000000 0.199738 0.749878
0.134613 0.199738 0.749878
0.293793 0.199738 0.749878
0.440247 0.199738 0.749878
0.579742 0.199738 0.749878
0.714172 0.199738 0.749878
0.844940 0.199738 0.749878
0.972717 0.199738 0.749878
0.000000 0.326202 0.749878
0.134613 0.326202 0.749878
0.293793 0.326202 0.749878
0.440247 0.326202 0.749878
0.579742 0.326202 0.749878
0.714172 0.326202 0.749878
0.844940 0.326202 0.749878
0.972717 0.326202 0.749878
0.000000 0.459595 0.749878
0.134613 0.459595 0.749878
0.293793 0.459595 0.749878
0.440247 0.459595 0.749878
0.579742 0.459595 0.749878
0.714172 0.459595 0.749878
0.844940 0.459595 0.749878
0.972717 0.459595 0.749878
0.000000 0.598206 0.749878
0.134613 0.598206 0.749878
0.293793 0.598206 0.749878
0.440247 0.598206 0.749878
0.579742 0.598206 0.749878
0.714172 0.598206 0.749878
0.844940 0.598206 0.749878
0.972717 0.598206 0.749878
0.000000 0.741211 0.749878
0.134613 0.741211 0.749878
0.293793 0.741211 0.749878
0.440247 0.741211 0.749878
0.579742 0.741211 0.749878
0.714172 0.741211 0.749878
0.844940 0.741211 0.749878
0.972717 0.741211 0.749878
0.000000 0.887848 0.749878
0.134613 0.887848 0.749878
0.293793 0.887848 0.749878
0.440247 0.887848 0.749878
0.579742 0.887848 0.749878
0.714172 0.887848 0.749878
0.844940 0.887848 0.749878
0.972717 0.887848 0.749878
0.000000 0.000000 0.898468
0.134613 0.000000 0.898468
0.293793 0.000000 0.898468
0.440247 0.000000 0.898468
0.579742 0.000000 0.898468
0.714172 0.000000 0.898468
0.844940 0.000000 0.898468
0.972717 0.000000 0.898468
0.000000 0.083405 0.898468
0.134613 0.083405 0.898468
0.293793 0.083405 0.898468
0.440247 0.083405 0.898468
0.579742 0.083405 0.898468
0.714172 0.083405 0.898468
0.844940 0.083405 0.898468
0.972717 0.083405 0.898468
0.000000 0.199738 0.898468
0.134613 0.199738 0.898468
0.293793 0.199738 0.898468
0.440247 0.199738 0.898468
0.579742 0.199738 0.898468
0.714172 0.199738 0.898468
0.844940 0.199738 0.898468
0.972717 0.199738 0.898468
0.000000 0.326202 0.898468
0.134613 0.326202 0.898468
0.293793 0.326202 0.898468
0.440247 0.326202 0.898468
0.579742 0.326202 0.898468
0.714172 0.326202 0.898468
0.844940 0.326202 0.898468
0.972717 0.326202 0.898468
0.000000 0.459595 0.898468
0.134613 0.459595 0.898468
0.293793 0.459595 0.898468
0.440247 0.459595 0.898468
0.579742 0.459595 0.898468
0.714172 0.459595 0.898468
0.844940 0.459595 0.898468
0.972717 0.459595 0.898468
0.000000 0.598206 0.898468
0.134613 0.598206 0.898468
0.293793 0.598206 0.898468
0.440247 0.598206 0.898468
0.579742 0.598206 0.898468
0.714172 0.598206 0.898468
0.844940 0.598206 0.898468
0.972717 0.598206 0.898468
0.000000 0.741211 0.898468
0.134613 0.741211 0.898468
0.293793 0.741211 0.898468
0.440247 0.741211 0.898468
0.579742 0.741211 0.898468
0.714172 0.741211 0.898468
0.844940 0.741211 0.898468
0.972717 0.741211 0.898468
0.000000 0.887848 0.898468
0.134613 0.887848 0.898468
0.293793 0.887848 0.898468
0.440247 0.887848 0.898468
0.579742 0.887848 0.898468
0.714172 0.887848 0.898468
0.844940 0.887848 0.898468
0.972717 0.887848 0.898468
