images/nph.auh/Contents/History/resources/06894C7E-B975-4935-9A51-5F65A56F4A03.cube
#Created by: Adobe Photoshop Export Color Lookup Plugin
#Copyright: (C) Copyright 2017 ©ThinkTAP
TITLE "Warm Midtones"
#LUT size
LUT_3D_SIZE 5
#data domain
#LUT data points
DOMAIN_MIN 0.000000 0.000000 0.000000
DOMAIN_MAX 0.903226 0.903226 0.903226
0.000000 0.000000 0.000000
0.255585 0.000000 0.000000
0.510712 0.000000 0.000000
0.747192 0.000000 0.000000
0.972717 0.000000 0.000000
0.000000 0.169525 0.000000
0.255585 0.169525 0.000000
0.510712 0.169525 0.000000
0.747192 0.169525 0.000000
0.972717 0.169525 0.000000
0.000000 0.392151 0.000000
0.255585 0.392151 0.000000
0.510712 0.392151 0.000000
0.747192 0.392151 0.000000
0.972717 0.392151 0.000000
0.000000 0.633575 0.000000
0.255585 0.633575 0.000000
0.510712 0.633575 0.000000
0.747192 0.633575 0.000000
0.972717 0.633575 0.000000
0.000000 0.887848 0.000000
0.255585 0.887848 0.000000
0.510712 0.887848 0.000000
0.747192 0.887848 0.000000
0.972717 0.887848 0.000000
0.000000 0.000000 0.170715
0.255585 0.000000 0.170715
0.510712 0.000000 0.170715
0.747192 0.000000 0.170715
0.972717 0.000000 0.170715
0.000000 0.169525 0.170715
0.255585 0.169525 0.170715
0.510712 0.169525 0.170715
0.747192 0.169525 0.170715
0.972717 0.169525 0.170715
0.000000 0.392151 0.170715
0.255585 0.392151 0.170715
0.510712 0.392151 0.170715
0.747192 0.392151 0.170715
0.972717 0.392151 0.170715
0.000000 0.633575 0.170715
0.255585 0.633575 0.170715
0.510712 0.633575 0.170715
0.747192 0.633575 0.170715
0.972717 0.633575 0.170715
0.000000 0.887848 0.170715
0.255585 0.887848 0.170715
0.510712 0.887848 0.170715
0.747192 0.887848 0.170715
0.972717 0.887848 0.170715
0.000000 0.000000 0.396179
0.255585 0.000000 0.396179
0.510712 0.000000 0.396179
0.747192 0.000000 0.396179
0.972717 0.000000 0.396179
0.000000 0.169525 0.396179
0.255585 0.169525 0.396179
0.510712 0.169525 0.396179
0.747192 0.169525 0.396179
0.972717 0.169525 0.396179
0.000000 0.392151 0.396179
0.255585 0.392151 0.396179
0.510712 0.392151 0.396179
0.747192 0.392151 0.396179
0.972717 0.392151 0.396179
0.000000 0.633575 0.396179
0.255585 0.633575 0.396179
0.510712 0.633575 0.396179
0.747192 0.633575 0.396179
0.972717 0.633575 0.396179
0.000000 0.887848 0.396179
0.255585 0.887848 0.396179
0.510712 0.887848 0.396179
0.747192 0.887848 0.396179
0.972717 0.887848 0.396179
0.000000 0.000000 0.640839
0.255585 0.000000 0.640839
0.510712 0.000000 0.640839
0.747192 0.000000 0.640839
0.972717 0.000000 0.640839
0.000000 0.169525 0.640839
0.255585 0.169525 0.640839
0.510712 0.169525 0.640839
0.747192 0.169525 0.640839
0.972717 0.169525 0.640839
0.000000 0.392151 0.640839
0.255585 0.392151 0.640839
0.510712 0.392151 0.640839
0.747192 0.392151 0.640839
0.972717 0.392151 0.640839
0.000000 0.633575 0.640839
0.255585 0.633575 0.640839
0.510712 0.633575 0.640839
0.747192 0.633575 0.640839
0.972717 0.633575 0.640839
0.000000 0.887848 0.640839
0.255585 0.887848 0.640839
0.510712 0.887848 0.640839
0.747192 0.887848 0.640839
0.972717 0.887848 0.640839
0.000000 0.000000 0.898468
0.255585 0.000000 0.898468
0.510712 0.000000 0.898468
0.747192 0.000000 0.898468
0.972717 0.000000 0.898468
0.000000 0.169525 0.898468
0.255585 0.169525 0.898468
0.510712 0.169525 0.898468
0.747192 0.169525 0.898468
0.972717 0.169525 0.898468
0.000000 0.392151 0.898468
0.255585 0.392151 0.898468
0.510712 0.392151 0.898468
0.747192 0.392151 0.898468
0.972717 0.392151 0.898468
0.000000 0.633575 0.898468
0.255585 0.633575 0.898468
0.510712 0.633575 0.898468
0.747192 0.633575 0.898468
0.972717 0.633575 0.898468
0.000000 0.887848 0.898468
0.255585 0.887848 0.898468
0.510712 0.887848 0.898468
0.747192 0.887848 0.898468
0.972717 0.887848 0.898468
