images/nph.auh/Contents/History/resources/06894C7E-B975-4935-9A51-5F65A56F4A03.cube
#Created by: Adobe Photoshop Export Color Lookup Plugin
#Copyright: (C) Copyright 2017 ©ThinkTAP
TITLE "Warm Midtones"
#LUT size
LUT_3D_SIZE 32
#data domain
DOMAIN_MIN 0.0 0.0 0.0
DOMAIN_MAX 1.0 1.0 1.0
#LUT data points
0.000000 0.000000 0.000000
0.000000 0.000000 0.000000
0.043610 0.000000 0.000000
0.090912 0.000000 0.000000
0.134613 0.000000 0.000000
0.176331 0.000000 0.000000
0.216492 0.000000 0.000000
0.255585 0.000000 0.000000
0.293793 0.000000 0.000000
0.331268 0.000000 0.000000
0.368134 0.000000 0.000000
0.404449 0.000000 0.000000
0.440247 0.000000 0.000000
0.475708 0.000000 0.000000
0.510712 0.000000 0.000000
0.545349 0.000000 0.000000
0.579742 0.000000 0.000000
0.613739 0.000000 0.000000
0.647461 0.000000 0.000000
0.680969 0.000000 0.000000
0.714172 0.000000 0.000000
0.747192 0.000000 0.000000
0.779968 0.000000 0.000000
0.812531 0.000000 0.000000
0.844940 0.000000 0.000000
0.877106 0.000000 0.000000
0.909149 0.000000 0.000000
0.941010 0.000000 0.000000
0.972717 0.000000 0.000000
1.000000 0.000000 0.000000
1.000000 0.000000 0.000000
1.000000 0.000000 0.000000
0.000000 0.009186 0.000000
0.000000 0.009186 0.000000
0.043610 0.009186 0.000000
0.090912 0.009186 0.000000
0.134613 0.009186 0.000000
0.176331 0.009186 0.000000
0.216492 0.009186 0.000000
0.255585 0.009186 0.000000
0.293793 0.009186 0.000000
0.331268 0.009186 0.000000
0.368134 0.009186 0.000000
0.404449 0.009186 0.000000
0.440247 0.009186 0.000000
0.475708 0.009186 0.000000
0.510712 0.009186 0.000000
0.545349 0.009186 0.000000
0.579742 0.009186 0.000000
0.613739 0.009186 0.000000
0.647461 0.009186 0.000000
0.680969 0.009186 0.000000
0.714172 0.009186 0.000000
0.747192 0.009186 0.000000
0.779968 0.009186 0.000000
0.812531 0.009186 0.000000
0.844940 0.009186 0.000000
0.877106 0.009186 0.000000
0.909149 0.009186 0.000000
0.941010 0.009186 0.000000
0.972717 0.009186 0.000000
1.000000 0.009186 0.000000
1.000000 0.009186 0.000000
1.000000 0.009186 0.000000
0.000000 0.031708 0.000000
0.000000 0.031708 0.000000
0.043610 0.031708 0.000000
0.090912 0.031708 0.000000
0.134613 0.031708 0.000000
0.176331 0.031708 0.000000
0.216492 0.031708 0.000000
0.255585 0.031708 0.000000
0.293793 0.031708 0.000000
0.331268 0.031708 0.000000
0.368134 0.031708 0.000000
0.404449 0.031708 0.000000
0.440247 0.031708 0.000000
0.475708 0.031708 0.000000
0.510712 0.031708 0.000000
0.545349 0.031708 0.000000
0.579742 0.031708 0.000000
0.613739 0.031708 0.000000
0.647461 0.031708 0.000000
0.680969 0.031708 0.000000
0.714172 0.031708 0.000000
0.747192 0.031708 0.000000
0.779968 0.031708 0.000000
0.812531 0.031708 0.000000
0.844940 0.031708 0.000000
0.877106 0.031708 0.000000
0.909149 0.031708 0.000000
0.941010 0.031708 0.000000
0.972717 0.031708 0.000000
1.000000 0.031708 0.000000
1.000000 0.031708 0.000000
1.000000 0.031708 0.000000
0.000000 0.056763 0.000000
0.000000 0.056763 0.000000
0.043610 0.056763 0.000000
0.090912 0.056763 0.000000
0.134613 0.056763 0.000000
0.176331 0.056763 0.000000
0.216492 0.056763 0.000000
0.255585 0.056763 0.000000
0.293793 0.056763 0.000000
0.331268 0.056763 0.000000
0.368134 0.056763 0.000000
0.404449 0.056763 0.000000
0.440247 0.056763 0.000000
0.475708 0.056763 0.000000
0.510712 0.056763 0.000000
0.545349 0.056763 0.000000
0.579742 0.056763 0.000000
0.613739 0.056763 0.000000
0.647461 0.056763 0.000000
0.680969 0.056763 0.000000
0.714172 0.056763 0.000000
0.747192 0.056763 0.000000
0.779968 0.056763 0.000000
0.812531 0.056763 0.000000
0.844940 0.056763 0.000000
0.877106 0.056763 0.000000
0.909149 0.056763 0.000000
0.941010 0.056763 0.000000
0.972717 0.056763 0.000000
1.000000 0.056763 0.000000
1.000000 0.056763 0.000000
1.000000 0.056763 0.000000
0.000000 0.083405 0.000000
0.000000 0.083405 0.000000
0.043610 0.083405 0.000000
0.090912 0.083405 0.000000
0.134613 0.083405 0.000000
0.176331 0.083405 0.000000
0.216492 0.083405 0.000000
0.255585 0.083405 0.000000
0.293793 0.083405 0.000000
0.331268 0.083405 0.000000
0.368134 0.083405 0.000000
0.404449 0.083405 0.000000
0.440247 0.083405 0.000000
0.475708 0.083405 0.000000
0.510712 0.083405 0.000000
0.545349 0.083405 0.000000
0.579742 0.083405 0.000000
0.613739 0.083405 0.000000
0.647461 0.083405 0.000000
0.680969 0.083405 0.000000
0.714172 0.083405 0.000000
0.747192 0.083405 0.000000
0.779968 0.083405 0.000000
0.812531 0.083405 0.000000
0.844940 0.083405 0.000000
0.877106 0.083405 0.000000
0.909149 0.083405 0.000000
0.941010 0.083405 0.000000
0.972717 0.083405 0.000000
1.000000 0.083405 0.000000
1.000000 0.083405 0.000000
1.000000 0.083405 0.000000
0.000000 0.111237 0.000000
0.000000 0.111237 0.000000
0.043610 0.111237 0.000000
0.090912 0.111237 0.000000
0.134613 0.111237 0.000000
0.176331 0.111237 0.000000
0.216492 0.111237 0.000000
0.255585 0.111237 0.000000
0.293793 0.111237 0.000000
0.331268 0.111237 0.000000
0.368134 0.111237 0.000000
0.404449 0.111237 0.000000
0.440247 0.111237 0.000000
0.475708 0.111237 0.000000
0.510712 0.111237 0.000000
0.545349 0.111237 0.000000
0.579742 0.111237 0.000000
0.613739 0.111237 0.000000
0.647461 0.111237 0.000000
0.680969 0.111237 0.000000
0.714172 0.111237 0.000000
0.747192 0.111237 0.000000
0.779968 0.111237 0.000000
0.812531 0.111237 0.000000
0.844940 0.111237 0.000000
0.877106 0.111237 0.000000
0.909149 0.111237 0.000000
0.941010 0.111237 0.000000
0.972717 0.111237 0.000000
1.000000 0.111237 0.000000
1.000000 0.111237 0.000000
1.000000 0.111237 0.000000
0.000000 0.139984 0.000000
0.000000 0.139984 0.000000
0.043610 0.139984 0.000000
0.090912 0.139984 0.000000
0.134613 0.139984 0.000000
0.176331 0.139984 0.000000
0.216492 0.139984 0.000000
0.255585 0.139984 0.000000
0.293793 0.139984 0.000000
0.331268 0.139984 0.000000
0.368134 0.139984 0.000000
0.404449 0.139984 0.000000
0.440247 0.139984 0.000000
0.475708 0.139984 0.000000
0.510712 0.139984 0.000000
0.545349 0.139984 0.000000
0.579742 0.139984 0.000000
0.613739 0.139984 0.000000
0.647461 0.139984 0.000000
0.680969 0.139984 0.000000
0.714172 0.139984 0.000000
0.747192 0.139984 0.000000
0.779968 0.139984 0.000000
0.812531 0.139984 0.000000
0.844940 0.139984 0.000000
0.877106 0.139984 0.000000
0.909149 0.139984 0.000000
0.941010 0.139984 0.000000
0.972717 0.139984 0.000000
1.000000 0.139984 0.000000
1.000000 0.139984 0.000000
1.000000 0.139984 0.000000
0.000000 0.169525 0.000000
0.000000 0.169525 0.000000
0.043610 0.169525 0.000000
0.090912 0.169525 0.000000
0.134613 0.169525 0.000000
0.176331 0.169525 0.000000
0.216492 0.169525 0.000000
0.255585 0.169525 0.000000
0.293793 0.169525 0.000000
0.331268 0.169525 0.000000
0.368134 0.169525 0.000000
0.404449 0.169525 0.000000
0.440247 0.169525 0.000000
0.475708 0.169525 0.000000
0.510712 0.169525 0.000000
0.545349 0.169525 0.000000
0.579742 0.169525 0.000000
0.613739 0.169525 0.000000
0.647461 0.169525 0.000000
0.680969 0.169525 0.000000
0.714172 0.169525 0.000000
0.747192 0.169525 0.000000
0.779968 0.169525 0.000000
0.812531 0.169525 0.000000
0.844940 0.169525 0.000000
0.877106 0.169525 0.000000
0.909149 0.169525 0.000000
0.941010 0.169525 0.000000
0.972717 0.169525 0.000000
1.000000 0.169525 0.000000
1.000000 0.169525 0.000000
1.000000 0.169525 0.000000
0.000000 0.199738 0.000000
0.000000 0.199738 0.000000
0.043610 0.199738 0.000000
0.090912 0.199738 0.000000
0.134613 0.199738 0.000000
0.176331 0.199738 0.000000
0.216492 0.199738 0.000000
0.255585 0.199738 0.000000
0.293793 0.199738 0.000000
0.331268 0.199738 0.000000
0.368134 0.199738 0.000000
0.404449 0.199738 0.000000
0.440247 0.199738 0.000000
0.475708 0.199738 0.000000
0.510712 0.199738 0.000000
0.545349 0.199738 0.000000
0.579742 0.199738 0.000000
0.613739 0.199738 0.000000
0.647461 0.199738 0.000000
0.680969 0.199738 0.000000
0.714172 0.199738 0.000000
0.747192 0.199738 0.000000
0.779968 0.199738 0.000000
0.812531 0.199738 0.000000
0.844940 0.199738 0.000000
0.877106 0.199738 0.000000
0.909149 0.199738 0.000000
0.941010 0.199738 0.000000
0.972717 0.199738 0.000000
1.000000 0.199738 0.000000
1.000000 0.199738 0.000000
1.000000 0.199738 0.000000
0.000000 0.230591 0.000000
0.000000 0.230591 0.000000
0.043610 0.230591 0.000000
0.090912 0.230591 0.000000
0.134613 0.230591 0.000000
0.176331 0.230591 0.000000
0.216492 0.230591 0.000000
0.255585 0.230591 0.000000
0.293793 0.230591 0.000000
0.331268 0.230591 0.000000
0.368134 0.230591 0.000000
0.404449 0.230591 0.000000
0.440247 0.230591 0.000000
0.475708 0.230591 0.000000
0.510712 0.230591 0.000000
0.545349 0.230591 0.000000
0.579742 0.230591 0.000000
0.613739 0.230591 0.000000
0.647461 0.230591 0.000000
0.680969 0.230591 0.000000
0.714172 0.230591 0.000000
0.747192 0.230591 0.000000
0.779968 0.230591 0.000000
0.812531 0.230591 0.000000
0.844940 0.230591 0.000000
0.877106 0.230591 0.000000
0.909149 0.230591 0.000000
0.941010 0.230591 0.000000
0.972717 0.230591 0.000000
1.000000 0.230591 0.000000
1.000000 0.230591 0.000000
1.000000 0.230591 0.000000
0.000000 0.261993 0.000000
0.000000 0.261993 0.000000
0.043610 0.261993 0.000000
0.090912 0.261993 0.000000
0.134613 0.261993 0.000000
0.176331 0.261993 0.000000
0.216492 0.261993 0.000000
0.255585 0.261993 0.000000
0.293793 0.261993 0.000000
0.331268 0.261993 0.000000
0.368134 0.261993 0.000000
0.404449 0.261993 0.000000
0.440247 0.261993 0.000000
0.475708 0.261993 0.000000
0.510712 0.261993 0.000000
0.545349 0.261993 0.000000
0.579742 0.261993 0.000000
0.613739 0.261993 0.000000
0.647461 0.261993 0.000000
0.680969 0.261993 0.000000
0.714172 0.261993 0.000000
0.747192 0.261993 0.000000
0.779968 0.261993 0.000000
0.812531 0.261993 0.000000
0.844940 0.261993 0.000000
0.877106 0.261993 0.000000
0.909149 0.261993 0.000000
0.941010 0.261993 0.000000
0.972717 0.261993 0.000000
1.000000 0.261993 0.000000
1.000000 0.261993 0.000000
1.000000 0.261993 0.000000
0.000000 0.293854 0.000000
0.000000 0.293854 0.000000
0.043610 0.293854 0.000000
0.090912 0.293854 0.000000
0.134613 0.293854 0.000000
0.176331 0.293854 0.000000
0.216492 0.293854 0.000000
0.255585 0.293854 0.000000
0.293793 0.293854 0.000000
0.331268 0.293854 0.000000
0.368134 0.293854 0.000000
0.404449 0.293854 0.000000
0.440247 0.293854 0.000000
0.475708 0.293854 0.000000
0.510712 0.293854 0.000000
0.545349 0.293854 0.000000
0.579742 0.293854 0.000000
0.613739 0.293854 0.000000
0.647461 0.293854 0.000000
0.680969 0.293854 0.000000
0.714172 0.293854 0.000000
0.747192 0.293854 0.000000
0.779968 0.293854 0.000000
0.812531 0.293854 0.000000
0.844940 0.293854 0.000000
0.877106 0.293854 0.000000
0.909149 0.293854 0.000000
0.941010 0.293854 0.000000
0.972717 0.293854 0.000000
1.000000 0.293854 0.000000
1.000000 0.293854 0.000000
1.000000 0.293854 0.000000
0.000000 0.326202 0.000000
0.000000 0.326202 0.000000
0.043610 0.326202 0.000000
0.090912 0.326202 0.000000
0.134613 0.326202 0.000000
0.176331 0.326202 0.000000
0.216492 0.326202 0.000000
0.255585 0.326202 0.000000
0.293793 0.326202 0.000000
0.331268 0.326202 0.000000
0.368134 0.326202 0.000000
0.404449 0.326202 0.000000
0.440247 0.326202 0.000000
0.475708 0.326202 0.000000
0.510712 0.326202 0.000000
0.545349 0.326202 0.000000
0.579742 0.326202 0.000000
0.613739 0.326202 0.000000
0.647461 0.326202 0.000000
0.680969 0.326202 0.000000
0.714172 0.326202 0.000000
0.747192 0.326202 0.000000
0.779968 0.326202 0.000000
0.812531 0.326202 0.000000
0.844940 0.326202 0.000000
0.877106 0.326202 0.000000
0.909149 0.326202 0.000000
0.941010 0.326202 0.000000
0.972717 0.326202 0.000000
1.000000 0.326202 0.000000
1.000000 0.326202 0.000000
1.000000 0.326202 0.000000
0.000000 0.358978 0.000000
0.000000 0.358978 0.000000
0.043610 0.358978 0.000000
0.090912 0.358978 0.000000
0.134613 0.358978 0.000000
0.176331 0.358978 0.000000
0.216492 0.358978 0.000000
0.255585 0.358978 0.000000
0.293793 0.358978 0.000000
0.331268 0.358978 0.000000
0.368134 0.358978 0.000000
0.404449 0.358978 0.000000
0.440247 0.358978 0.000000
0.475708 0.358978 0.000000
0.510712 0.358978 0.000000
0.545349 0.358978 0.000000
0.579742 0.358978 0.000000
0.613739 0.358978 0.000000
0.647461 0.358978 0.000000
0.680969 0.358978 0.000000
0.714172 0.358978 0.000000
0.747192 0.358978 0.000000
0.779968 0.358978 0.000000
0.812531 0.358978 0.000000
0.844940 0.358978 0.000000
0.877106 0.358978 0.000000
0.909149 0.358978 0.000000
0.941010 0.358978 0.000000
0.972717 0.358978 0.000000
1.000000 0.358978 0.000000
1.000000 0.358978 0.000000
1.000000 0.358978 0.000000
0.000000 0.392151 0.000000
0.000000 0.392151 0.000000
0.043610 0.392151 0.000000
0.090912 0.392151 0.000000
0.134613 0.392151 0.000000
0.176331 0.392151 0.000000
0.216492 0.392151 0.000000
0.255585 0.392151 0.000000
0.293793 0.392151 0.000000
0.331268 0.392151 0.000000
0.368134 0.392151 0.000000
0.404449 0.392151 0.000000
0.440247 0.392151 0.000000
0.475708 0.392151 0.000000
0.510712 0.392151 0.000000
0.545349 0.392151 0.000000
0.579742 0.392151 0.000000
0.613739 0.392151 0.000000
0.647461 0.392151 0.000000
0.680969 0.392151 0.000000
0.714172 0.392151 0.000000
0.747192 0.392151 0.000000
0.779968 0.392151 0.000000
0.812531 0.392151 0.000000
0.844940 0.392151 0.000000
0.877106 0.392151 0.000000
0.909149 0.392151 0.000000
0.941010 0.392151 0.000000
0.972717 0.392151 0.000000
1.000000 0.392151 0.000000
1.000000 0.392151 0.000000
1.000000 0.392151 0.000000
0.000000 0.425690 0.000000
0.000000 0.425690 0.000000
0.043610 0.425690 0.000000
0.090912 0.425690 0.000000
0.134613 0.425690 0.000000
0.176331 0.425690 0.000000
0.216492 0.425690 0.000000
0.255585 0.425690 0.000000
0.293793 0.425690 0.000000
0.331268 0.425690 0.000000
0.368134 0.425690 0.000000
0.404449 0.425690 0.000000
0.440247 0.425690 0.000000
0.475708 0.425690 0.000000
0.510712 0.425690 0.000000
0.545349 0.425690 0.000000
0.579742 0.425690 0.000000
0.613739 0.425690 0.000000
0.647461 0.425690 0.000000
0.680969 0.425690 0.000000
0.714172 0.425690 0.000000
0.747192 0.425690 0.000000
0.779968 0.425690 0.000000
0.812531 0.425690 0.000000
0.844940 0.425690 0.000000
0.877106 0.425690 0.000000
0.909149 0.425690 0.000000
0.941010 0.425690 0.000000
0.972717 0.425690 0.000000
1.000000 0.425690 0.000000
1.000000 0.425690 0.000000
1.000000 0.425690 0.000000
0.000000 0.459595 0.000000
0.000000 0.459595 0.000000
0.043610 0.459595 0.000000
0.090912 0.459595 0.000000
0.134613 0.459595 0.000000
0.176331 0.459595 0.000000
0.216492 0.459595 0.000000
0.255585 0.459595 0.000000
0.293793 0.459595 0.000000
0.331268 0.459595 0.000000
0.368134 0.459595 0.000000
0.404449 0.459595 0.000000
0.440247 0.459595 0.000000
0.475708 0.459595 0.000000
0.510712 0.459595 0.000000
0.545349 0.459595 0.000000
0.579742 0.459595 0.000000
0.613739 0.459595 0.000000
0.647461 0.459595 0.000000
0.680969 0.459595 0.000000
0.714172 0.459595 0.000000
0.747192 0.459595 0.000000
0.779968 0.459595 0.000000
0.812531 0.459595 0.000000
0.844940 0.459595 0.000000
0.877106 0.459595 0.000000
0.909149 0.459595 0.000000
0.941010 0.459595 0.000000
0.972717 0.459595 0.000000
1.000000 0.459595 0.000000
1.000000 0.459595 0.000000
1.000000 0.459595 0.000000
0.000000 0.493805 0.000000
0.000000 0.493805 0.000000
0.043610 0.493805 0.000000
0.090912 0.493805 0.000000
0.134613 0.493805 0.000000
0.176331 0.493805 0.000000
0.216492 0.493805 0.000000
0.255585 0.493805 0.000000
0.293793 0.493805 0.000000
0.331268 0.493805 0.000000
0.368134 0.493805 0.000000
0.404449 0.493805 0.000000
0.440247 0.493805 0.000000
0.475708 0.493805 0.000000
0.510712 0.493805 0.000000
0.545349 0.493805 0.000000
0.579742 0.493805 0.000000
0.613739 0.493805 0.000000
0.647461 0.493805 0.000000
0.680969 0.493805 0.000000
0.714172 0.493805 0.000000
0.747192 0.493805 0.000000
0.779968 0.493805 0.000000
0.812531 0.493805 0.000000
0.844940 0.493805 0.000000
0.877106 0.493805 0.000000
0.909149 0.493805 0.000000
0.941010 0.493805 0.000000
0.972717 0.493805 0.000000
1.000000 0.493805 0.000000
1.000000 0.493805 0.000000
1.000000 0.493805 0.000000
0.000000 0.528320 0.000000
0.000000 0.528320 0.000000
0.043610 0.528320 0.000000
0.090912 0.528320 0.000000
0.134613 0.528320 0.000000
0.176331 0.528320 0.000000
0.216492 0.528320 0.000000
0.255585 0.528320 0.000000
0.293793 0.528320 0.000000
0.331268 0.528320 0.000000
0.368134 0.528320 0.000000
0.404449 0.528320 0.000000
0.440247 0.528320 0.000000
0.475708 0.528320 0.000000
0.510712 0.528320 0.000000
0.545349 0.528320 0.000000
0.579742 0.528320 0.000000
0.613739 0.528320 0.000000
0.647461 0.528320 0.000000
0.680969 0.528320 0.000000
0.714172 0.528320 0.000000
0.747192 0.528320 0.000000
0.779968 0.528320 0.000000
0.812531 0.528320 0.000000
0.844940 0.528320 0.000000
0.877106 0.528320 0.000000
0.909149 0.528320 0.000000
0.941010 0.528320 0.000000
0.972717 0.528320 0.000000
1.000000 0.528320 0.000000
1.000000 0.528320 0.000000
1.000000 0.528320 0.000000
0.000000 0.563141 0.000000
0.000000 0.563141 0.000000
0.043610 0.563141 0.000000
0.090912 0.563141 0.000000
0.134613 0.563141 0.000000
0.176331 0.563141 0.000000
0.216492 0.563141 0.000000
0.255585 0.563141 0.000000
0.293793 0.563141 0.000000
0.331268 0.563141 0.000000
0.368134 0.563141 0.000000
0.404449 0.563141 0.000000
0.440247 0.563141 0.000000
0.475708 0.563141 0.000000
0.510712 0.563141 0.000000
0.545349 0.563141 0.000000
0.579742 0.563141 0.000000
0.613739 0.563141 0.000000
0.647461 0.563141 0.000000
0.680969 0.563141 0.000000
0.714172 0.563141 0.000000
0.747192 0.563141 0.000000
0.779968 0.563141 0.000000
0.812531 0.563141 0.000000
0.844940 0.563141 0.000000
0.877106 0.563141 0.000000
0.909149 0.563141 0.000000
0.941010 0.563141 0.000000
0.972717 0.563141 0.000000
1.000000 0.563141 0.000000
1.000000 0.563141 0.000000
1.000000 0.563141 0.000000
0.000000 0.598206 0.000000
0.000000 0.598206 0.000000
0.043610 0.598206 0.000000
0.090912 0.598206 0.000000
0.134613 0.598206 0.000000
0.176331 0.598206 0.000000
0.216492 0.598206 0.000000
0.255585 0.598206 0.000000
0.293793 0.598206 0.000000
0.331268 0.598206 0.000000
0.368134 0.598206 0.000000
0.404449 0.598206 0.000000
0.440247 0.598206 0.000000
0.475708 0.598206 0.000000
0.510712 0.598206 0.000000
0.545349 0.598206 0.000000
0.579742 0.598206 0.000000
0.613739 0.598206 0.000000
0.647461 0.598206 0.000000
0.680969 0.598206 0.000000
0.714172 0.598206 0.000000
0.747192 0.598206 0.000000
0.779968 0.598206 0.000000
0.812531 0.598206 0.000000
0.844940 0.598206 0.000000
0.877106 0.598206 0.000000
0.909149 0.598206 0.000000
0.941010 0.598206 0.000000
0.972717 0.598206 0.000000
1.000000 0.598206 0.000000
1.000000 0.598206 0.000000
1.000000 0.598206 0.000000
0.000000 0.633575 0.000000
0.000000 0.633575 0.000000
0.043610 0.633575 0.000000
0.090912 0.633575 0.000000
0.134613 0.633575 0.000000
0.176331 0.633575 0.000000
0.216492 0.633575 0.000000
0.255585 0.633575 0.000000
0.293793 0.633575 0.000000
0.331268 0.633575 0.000000
0.368134 0.633575 0.000000
0.404449 0.633575 0.000000
0.440247 0.633575 0.000000
0.475708 0.633575 0.000000
0.510712 0.633575 0.000000
0.545349 0.633575 0.000000
0.579742 0.633575 0.000000
0.613739 0.633575 0.000000
0.647461 0.633575 0.000000
0.680969 0.633575 0.000000
0.714172 0.633575 0.000000
0.747192 0.633575 0.000000
0.779968 0.633575 0.000000
0.812531 0.633575 0.000000
0.844940 0.633575 0.000000
0.877106 0.633575 0.000000
0.909149 0.633575 0.000000
0.941010 0.633575 0.000000
0.972717 0.633575 0.000000
1.000000 0.633575 0.000000
1.000000 0.633575 0.000000
1.000000 0.633575 0.000000
0.000000 0.669220 0.000000
0.000000 0.669220 0.000000
0.043610 0.669220 0.000000
0.090912 0.669220 0.000000
0.134613 0.669220 0.000000
0.176331 0.669220 0.000000
0.216492 0.669220 0.000000
0.255585 0.669220 0.000000
0.293793 0.669220 0.000000
0.331268 0.669220 0.000000
0.368134 0.669220 0.000000
0.404449 0.669220 0.000000
0.440247 0.669220 0.000000
0.475708 0.669220 0.000000
0.510712 0.669220 0.000000
0.545349 0.669220 0.000000
0.579742 0.669220 0.000000
0.613739 0.669220 0.000000
0.647461 0.669220 0.000000
0.680969 0.669220 0.000000
0.714172 0.669220 0.000000
0.747192 0.669220 0.000000
0.779968 0.669220 0.000000
0.812531 0.669220 0.000000
0.844940 0.669220 0.000000
0.877106 0.669220 0.000000
0.909149 0.669220 0.000000
0.941010 0.669220 0.000000
0.972717 0.669220 0.000000
1.000000 0.669220 0.000000
1.000000 0.669220 0.000000
1.000000 0.669220 0.000000
0.000000 0.705078 0.000000
0.000000 0.705078 0.000000
0.043610 0.705078 0.000000
0.090912 0.705078 0.000000
0.134613 0.705078 0.000000
0.176331 0.705078 0.000000
0.216492 0.705078 0.000000
0.255585 0.705078 0.000000
0.293793 0.705078 0.000000
0.331268 0.705078 0.000000
0.368134 0.705078 0.000000
0.404449 0.705078 0.000000
0.440247 0.705078 0.000000
0.475708 0.705078 0.000000
0.510712 0.705078 0.000000
0.545349 0.705078 0.000000
0.579742 0.705078 0.000000
0.613739 0.705078 0.000000
0.647461 0.705078 0.000000
0.680969 0.705078 0.000000
0.714172 0.705078 0.000000
0.747192 0.705078 0.000000
0.779968 0.705078 0.000000
0.812531 0.705078 0.000000
0.844940 0.705078 0.000000
0.877106 0.705078 0.000000
0.909149 0.705078 0.000000
0.941010 0.705078 0.000000
0.972717 0.705078 0.000000
1.000000 0.705078 0.000000
1.000000 0.705078 0.000000
1.000000 0.705078 0.000000
0.000000 0.741211 0.000000
0.000000 0.741211 0.000000
0.043610 0.741211 0.000000
0.090912 0.741211 0.000000
0.134613 0.741211 0.000000
0.176331 0.741211 0.000000
0.216492 0.741211 0.000000
0.255585 0.741211 0.000000
0.293793 0.741211 0.000000
0.331268 0.741211 0.000000
0.368134 0.741211 0.000000
0.404449 0.741211 0.000000
0.440247 0.741211 0.000000
0.475708 0.741211 0.000000
0.510712 0.741211 0.000000
0.545349 0.741211 0.000000
0.579742 0.741211 0.000000
0.613739 0.741211 0.000000
0.647461 0.741211 0.000000
0.680969 0.741211 0.000000
0.714172 0.741211 0.000000
0.747192 0.741211 0.000000
0.779968 0.741211 0.000000
0.812531 0.741211 0.000000
0.844940 0.741211 0.000000
0.877106 0.741211 0.000000
0.909149 0.741211 0.000000
0.941010 0.741211 0.000000
0.972717 0.741211 0.000000
1.000000 0.741211 0.000000
1.000000 0.741211 0.000000
1.000000 0.741211 0.000000
0.000000 0.777527 0.000000
0.000000 0.777527 0.000000
0.043610 0.777527 0.000000
0.090912 0.777527 0.000000
0.134613 0.777527 0.000000
0.176331 0.777527 0.000000
0.216492 0.777527 0.000000
0.255585 0.777527 0.000000
0.293793 0.777527 0.000000
0.331268 0.777527 0.000000
0.368134 0.777527 0.000000
0.404449 0.777527 0.000000
0.440247 0.777527 0.000000
0.475708 0.777527 0.000000
0.510712 0.777527 0.000000
0.545349 0.777527 0.000000
0.579742 0.777527 0.000000
0.613739 0.777527 0.000000
0.647461 0.777527 0.000000
0.680969 0.777527 0.000000
0.714172 0.777527 0.000000
0.747192 0.777527 0.000000
0.779968 0.777527 0.000000
0.812531 0.777527 0.000000
0.844940 0.777527 0.000000
0.877106 0.777527 0.000000
0.909149 0.777527 0.000000
0.941010 0.777527 0.000000
0.972717 0.777527 0.000000
1.000000 0.777527 0.000000
1.000000 0.777527 0.000000
1.000000 0.777527 0.000000
0.000000 0.814087 0.000000
0.000000 0.814087 0.000000
0.043610 0.814087 0.000000
0.090912 0.814087 0.000000
0.134613 0.814087 0.000000
0.176331 0.814087 0.000000
0.216492 0.814087 0.000000
0.255585 0.814087 0.000000
0.293793 0.814087 0.000000
0.331268 0.814087 0.000000
0.368134 0.814087 0.000000
0.404449 0.814087 0.000000
0.440247 0.814087 0.000000
0.475708 0.814087 0.000000
0.510712 0.814087 0.000000
0.545349 0.814087 0.000000
0.579742 0.814087 0.000000
0.613739 0.814087 0.000000
0.647461 0.814087 0.000000
0.680969 0.814087 0.000000
0.714172 0.814087 0.000000
0.747192 0.814087 0.000000
0.779968 0.814087 0.000000
0.812531 0.814087 0.000000
0.844940 0.814087 0.000000
0.877106 0.814087 0.000000
0.909149 0.814087 0.000000
0.941010 0.814087 0.000000
0.972717 0.814087 0.000000
1.000000 0.814087 0.000000
1.000000 0.814087 0.000000
1.000000 0.814087 0.000000
0.000000 0.850861 0.000000
0.000000 0.850861 0.000000
0.043610 0.850861 0.000000
0.090912 0.850861 0.000000
0.134613 0.850861 0.000000
0.176331 0.850861 0.000000
0.216492 0.850861 0.000000
0.255585 0.850861 0.000000
0.293793 0.850861 0.000000
0.331268 0.850861 0.000000
0.368134 0.850861 0.000000
0.404449 0.850861 0.000000
0.440247 0.850861 0.000000
0.475708 0.850861 0.000000
0.510712 0.850861 0.000000
0.545349 0.850861 0.000000
