images/nph.auh/Contents/History/resources/977FE2D0-6C12-4CAC-8457-03B4B96B8236.cube
#Created by: Adobe Photoshop Export Color Lookup Plugin
#Copyright: (C) Copyright 2017 ©ThinkTAP
TITLE "Ocean Sun"
#LUT size
LUT_3D_SIZE 5
#data domain
#LUT data points
DOMAIN_MIN 0.000000 0.000000 0.000000
DOMAIN_MAX 0.903226 0.903226 0.903226
0.000000 0.047516 0.062683
0.030731 0.053314 0.060883
0.182373 0.102570 0.074860
0.402710 0.205292 0.119904
0.630615 0.323395 0.176758
0.102966 0.114471 0.114532
0.137787 0.098969 0.082794
0.233154 0.125458 0.083893
0.394623 0.201141 0.118225
0.630615 0.323395 0.176758
0.382111 0.350708 0.328522
0.374542 0.343079 0.320892
0.484467 0.279297 0.185944
0.605804 0.310181 0.170685
0.747467 0.394836 0.224976
0.672913 0.635651 0.617279
0.668640 0.631897 0.613342
0.729034 0.591949 0.524384
0.854004 0.551392 0.415039
0.892365 0.664276 0.563538
0.885529 0.870819 0.865753
0.883942 0.868530 0.863190
0.879028 0.861328 0.855316
0.939606 0.859009 0.828949
0.954285 0.904541 0.886139
0.000000 0.049774 0.066864
0.038422 0.060638 0.072998
0.190125 0.106873 0.077759
0.403809 0.205811 0.120117
0.630615 0.323395 0.176758
0.074982 0.152802 0.189758
0.127472 0.135742 0.138702
0.208801 0.114594 0.079956
0.403931 0.205902 0.120148
0.630615 0.323395 0.176758
0.378418 0.357666 0.340240
0.391083 0.359955 0.337708
0.501923 0.287628 0.190094
0.593506 0.303436 0.166748
0.726410 0.381134 0.214996
0.672913 0.635651 0.617279
0.677490 0.639801 0.621582
0.723083 0.604126 0.546173
0.858459 0.562866 0.429688
0.890533 0.656158 0.551758
0.885468 0.870819 0.865723
0.885712 0.871124 0.866028
0.880676 0.863739 0.857941
0.938507 0.859711 0.830353
0.954681 0.905945 0.887939
0.000000 0.083862 0.131805
0.000000 0.140717 0.225189
0.179199 0.194824 0.235657
0.422424 0.242981 0.165161
0.641602 0.335632 0.203888
0.000000 0.239166 0.380157
0.000000 0.184509 0.297546
0.183319 0.201843 0.245697
0.422791 0.236847 0.156281
0.640961 0.332184 0.192566
0.324585 0.449127 0.519836
0.334015 0.458344 0.529236
0.423401 0.428040 0.433899
0.567230 0.320679 0.219604
0.681366 0.352112 0.194183
0.634949 0.683289 0.704071
0.641663 0.682953 0.700623
0.677460 0.646759 0.631805
0.864624 0.579315 0.450897
0.886749 0.639740 0.528198
0.885468 0.870819 0.865723
0.885712 0.871124 0.866028
0.884705 0.869690 0.864471
0.934784 0.860809 0.833282
0.955536 0.908997 0.891815
0.000000 0.189148 0.312531
0.000000 0.241852 0.393494
0.000000 0.375580 0.550079
0.329346 0.428986 0.555908
0.628448 0.430969 0.369263
0.000000 0.326294 0.515839
0.000000 0.269592 0.435822
0.000000 0.364136 0.539459
0.331268 0.430573 0.557495
0.629120 0.425781 0.359955
0.000000 0.593445 0.779663
0.000000 0.574493 0.766968
0.109741 0.510895 0.698090
0.436096 0.493073 0.597961
0.658386 0.434052 0.353119
0.611420 0.722290 0.811646
0.616486 0.726013 0.814697
0.620819 0.727722 0.814087
0.728149 0.721771 0.736664
0.873322 0.677277 0.597229
0.873779 0.894928 0.902985
0.873505 0.894684 0.902588
0.870728 0.891968 0.899658
0.888916 0.894104 0.896332
0.957153 0.914703 0.899048
0.000000 0.293610 0.472748
0.000000 0.340027 0.533905
0.000000 0.455597 0.651367
0.317047 0.515686 0.684692
0.566406 0.586578 0.668335
0.000000 0.416779 0.632019
0.000000 0.360321 0.560974
0.000000 0.440125 0.638458
0.305206 0.511841 0.683350
0.566406 0.586578 0.668335
0.000000 0.644531 0.824554
0.000000 0.616486 0.812897
0.000000 0.561859 0.762238
0.361816 0.557861 0.723541
0.575592 0.592255 0.671021
0.626190 0.752930 0.867981
0.613556 0.746155 0.865112
0.573853 0.724915 0.855042
0.609650 0.733490 0.852173
0.765045 0.761017 0.802124
0.881714 0.909607 0.938995
0.881989 0.909851 0.939148
0.880585 0.908752 0.938416
0.893127 0.916809 0.939636
0.939941 0.938232 0.940521
