images/nph.auh/Contents/History/resources/977FE2D0-6C12-4CAC-8457-03B4B96B8236.cube
#Created by: Adobe Photoshop Export Color Lookup Plugin
#Copyright: (C) Copyright 2017 ©ThinkTAP
TITLE "Ocean Sun"
#LUT size
LUT_3D_SIZE 32
#data domain
DOMAIN_MIN 0.0 0.0 0.0
DOMAIN_MAX 1.0 1.0 1.0
#LUT data points
0.000000 0.047516 0.062683
0.000000 0.047852 0.063171
0.000000 0.048248 0.063538
0.000000 0.048889 0.063934
0.000000 0.049774 0.064301
0.000488 0.050690 0.064850
0.015076 0.051453 0.062592
0.030731 0.053314 0.060883
0.046082 0.056458 0.060455
0.065491 0.061523 0.061279
0.085541 0.066498 0.062103
0.107239 0.073608 0.064362
0.130737 0.082153 0.067474
0.155792 0.090912 0.070526
0.182373 0.102570 0.074860
0.210541 0.115265 0.079498
0.240173 0.128479 0.084106
0.270264 0.141998 0.091034
0.301605 0.156067 0.098236
0.334045 0.170441 0.105530
0.367950 0.187592 0.112671
0.402710 0.205292 0.119904
0.438354 0.223572 0.127258
0.472168 0.240631 0.135162
0.506592 0.258057 0.142822
0.541382 0.275787 0.150635
0.577728 0.294983 0.160889
0.614777 0.314819 0.171936
0.630615 0.323395 0.176758
0.630615 0.323395 0.176758
0.630615 0.323395 0.176758
0.630615 0.323395 0.176758
0.000000 0.048462 0.064056
0.000000 0.048615 0.064240
0.000000 0.048920 0.064392
0.000000 0.049377 0.064453
0.000000 0.050018 0.064484
0.000275 0.050659 0.064880
0.013947 0.051422 0.062744
0.029968 0.053223 0.060944
0.045197 0.056213 0.060455
0.064728 0.061279 0.061188
0.084869 0.066376 0.062073
0.106537 0.073364 0.064301
0.130066 0.081909 0.067383
0.155090 0.090668 0.070465
0.181732 0.102264 0.074768
0.209930 0.114990 0.079437
0.239624 0.128265 0.084045
0.269745 0.141785 0.090942
0.301025 0.155762 0.098083
0.333557 0.170258 0.105438
0.367493 0.187378 0.112549
0.402252 0.204987 0.119781
0.437927 0.223297 0.127167
0.471832 0.240448 0.135071
0.506134 0.257843 0.142761
0.540985 0.275665 0.150543
0.577362 0.294769 0.160736
0.614471 0.314697 0.171875
0.630615 0.323395 0.176758
0.630615 0.323395 0.176758
0.630615 0.323395 0.176758
0.630615 0.323395 0.176758
0.000000 0.049622 0.065582
0.000000 0.049683 0.065552
0.000000 0.050018 0.065674
0.000000 0.050446 0.065643
0.001251 0.050812 0.065125
0.010559 0.051270 0.063416
0.021210 0.052032 0.061798
0.031128 0.053406 0.060883
0.044159 0.055969 0.060425
0.063843 0.061066 0.061157
0.084045 0.066193 0.062042
0.105682 0.073029 0.064148
0.129272 0.081635 0.067291
0.154358 0.090424 0.070343
0.181030 0.101959 0.074646
0.209198 0.114624 0.079285
0.238922 0.127930 0.083923
0.269043 0.141479 0.090790
0.300415 0.155518 0.097961
0.332916 0.169952 0.105286
0.366913 0.187073 0.112457
0.401703 0.204742 0.119690
0.437378 0.223022 0.127045
0.471283 0.240173 0.134918
0.505737 0.257599 0.142700
0.540558 0.275421 0.150452
0.576935 0.294586 0.160645
0.614044 0.314423 0.171722
0.630615 0.323395 0.176758
0.630615 0.323395 0.176758
0.630615 0.323395 0.176758
0.630615 0.323395 0.176758
0.002533 0.052612 0.068787
0.001892 0.052246 0.068481
0.005280 0.052734 0.067932
0.011200 0.052826 0.066315
0.019409 0.052460 0.063751
0.027191 0.052887 0.061890
0.034973 0.054016 0.060577
0.043640 0.055817 0.060394
0.055603 0.058929 0.060852
0.068390 0.062256 0.061371
0.082855 0.065918 0.062012
0.104492 0.072571 0.063965
0.128143 0.081207 0.067139
0.153259 0.090057 0.070251
0.179962 0.101471 0.074463
0.208160 0.114166 0.079102
0.237915 0.127502 0.083771
0.268158 0.141083 0.090576
0.299500 0.155121 0.097748
0.332062 0.169586 0.105072
0.366028 0.186615 0.112274
0.400879 0.204315 0.119537
0.436523 0.222595 0.126923
0.470642 0.239838 0.134766
0.505035 0.257324 0.142548
0.539917 0.275085 0.150330
0.576263 0.294250 0.160431
0.613373 0.314056 0.171539
0.630615 0.323395 0.176758
0.630615 0.323395 0.176758
0.630615 0.323395 0.176758
0.630615 0.323395 0.176758
0.020935 0.061310 0.073547
0.020020 0.060883 0.073395
0.022278 0.060364 0.071960
0.028931 0.058655 0.068481
0.036072 0.056580 0.064911
0.043884 0.056549 0.062714
0.052795 0.058868 0.062042
0.062988 0.060852 0.061157
0.073730 0.063629 0.061615
0.085541 0.066498 0.062103
0.098663 0.070404 0.063171
0.113434 0.075897 0.065216
0.129425 0.081696 0.067291
0.151794 0.089539 0.070038
0.178497 0.100800 0.074219
0.206818 0.113586 0.078918
0.236542 0.126892 0.083588
0.266937 0.140533 0.090332
0.298340 0.154572 0.097473
0.330963 0.169067 0.104858
0.364868 0.186005 0.112030
0.399780 0.203735 0.119263
0.435516 0.222015 0.126678
0.469696 0.239380 0.134583
0.504150 0.256836 0.142303
0.539093 0.274658 0.150116
0.575409 0.293793 0.160217
0.612579 0.313660 0.171326
0.630615 0.323395 0.176758
0.630615 0.323395 0.176758
0.630615 0.323395 0.176758
0.630615 0.323395 0.176758
0.044006 0.073822 0.082520
0.043030 0.073242 0.082062
0.041931 0.072540 0.081512
0.048859 0.071228 0.077484
0.056885 0.069550 0.073517
0.065796 0.067780 0.069153
0.075104 0.067047 0.065460
0.084534 0.068115 0.064056
0.095032 0.069397 0.062958
0.106628 0.073578 0.064453
0.119568 0.078186 0.066071
0.133759 0.083252 0.067841
0.149261 0.088654 0.069763
0.166046 0.095184 0.072174
0.184113 0.103363 0.075226
0.205048 0.112823 0.078613
0.234894 0.126190 0.083344
0.265289 0.139740 0.089905
0.296753 0.153809 0.097107
0.329437 0.168427 0.104492
0.363403 0.185242 0.111694
0.398438 0.203094 0.118988
0.434204 0.221375 0.126434
0.468536 0.238770 0.134308
0.502930 0.256165 0.142029
0.537903 0.274017 0.149872
0.574280 0.293152 0.159851
0.611511 0.313049 0.170959
0.630615 0.323395 0.176758
0.630615 0.323395 0.176758
0.630615 0.323395 0.176758
0.630615 0.323395 0.176758
0.072144 0.091248 0.095978
0.071289 0.090729 0.095581
0.070312 0.090088 0.095093
0.072693 0.088501 0.092255
0.080841 0.085663 0.086060
0.089661 0.083099 0.080170
0.099396 0.081360 0.074738
0.109802 0.080414 0.070160
0.120270 0.081909 0.069244
0.131866 0.083344 0.068237
0.144318 0.086884 0.069092
0.158020 0.091675 0.070770
0.172913 0.098328 0.073700
0.189117 0.105621 0.076477
0.206757 0.113586 0.079254
0.225677 0.122009 0.081970
0.245636 0.130951 0.085327
0.266113 0.140198 0.090118
0.294891 0.153076 0.096710
0.327606 0.167603 0.104095
0.361633 0.184387 0.111328
0.396667 0.202148 0.118652
0.432526 0.220520 0.126038
0.467041 0.237976 0.133942
0.501556 0.255493 0.141754
0.536530 0.273346 0.149567
0.572937 0.292450 0.159424
0.610229 0.312378 0.170563
0.630615 0.323395 0.176758
0.630615 0.323395 0.176758
0.630615 0.323395 0.176758
0.630615 0.323395 0.176758
0.102966 0.114471 0.114532
0.102173 0.113861 0.114014
0.101227 0.113098 0.113403
0.099854 0.112061 0.112610
0.107025 0.109253 0.106293
0.116486 0.105988 0.098541
0.126740 0.102631 0.090759
0.137787 0.098969 0.082794
0.149323 0.096008 0.076111
0.160339 0.097229 0.075195
0.172516 0.100159 0.075409
0.185730 0.104980 0.076904
0.200165 0.111328 0.079498
0.215973 0.117920 0.081665
0.233154 0.125458 0.083893
0.251282 0.133575 0.086975
0.270294 0.142059 0.091125
0.290283 0.151031 0.095673
0.311310 0.160400 0.100403
0.333466 0.170197 0.105377
0.359528 0.183319 0.110901
0.394623 0.201141 0.118225
0.430450 0.219482 0.125641
0.465210 0.237122 0.133514
0.499817 0.254608 0.141357
0.534912 0.272552 0.149170
0.571289 0.291534 0.158966
0.608673 0.311493 0.170105
0.630615 0.323395 0.176758
0.630615 0.323395 0.176758
0.630615 0.323395 0.176758
0.630615 0.323395 0.176758
0.137543 0.140808 0.134979
0.136780 0.140228 0.134521
0.135864 0.139526 0.133942
0.134613 0.138580 0.133240
0.136475 0.136383 0.129608
0.146271 0.131927 0.119904
0.156769 0.127563 0.110382
0.167725 0.123413 0.101898
0.179230 0.119690 0.094299
0.191437 0.116730 0.087494
0.203430 0.119049 0.086609
0.216644 0.122040 0.086029
0.230896 0.126404 0.086548
0.246155 0.132446 0.088440
0.262604 0.139282 0.090698
0.280121 0.146759 0.093719
0.298431 0.154694 0.097595
0.317902 0.163300 0.101898
0.338379 0.172638 0.106445
0.360077 0.183624 0.111023
0.382721 0.195068 0.115753
0.406342 0.207092 0.120636
0.430634 0.219543 0.125671
0.463196 0.236053 0.133057
0.497864 0.253601 0.140930
0.532990 0.271484 0.148743
0.569397 0.290527 0.158356
0.606842 0.310577 0.169586
0.630615 0.323395 0.176758
0.630615 0.323395 0.176758
0.630615 0.323395 0.176758
0.630615 0.323395 0.176758
0.174713 0.168335 0.158508
0.174011 0.167786 0.157990
0.173187 0.167206 0.157501
0.171997 0.166351 0.156769
0.170380 0.165100 0.155670
0.177368 0.161316 0.147736
0.188049 0.156433 0.137054
0.199524 0.151459 0.126007
0.211517 0.146698 0.116089
0.224030 0.142609 0.107391
0.237396 0.139404 0.099304
0.250305 0.141876 0.097992
0.264252 0.144714 0.097198
0.279297 0.148438 0.097107
0.295166 0.154510 0.098877
0.312134 0.161285 0.101196
0.329987 0.168640 0.104614
0.348846 0.177887 0.108643
0.368896 0.188019 0.112854
0.389862 0.198639 0.117218
0.411804 0.209930 0.121796
0.434631 0.221588 0.126495
0.457031 0.233032 0.131683
0.479675 0.244446 0.136963
0.503113 0.256256 0.142151
0.530762 0.270386 0.148224
0.567139 0.289398 0.157745
0.604675 0.309418 0.168945
0.630615 0.323395 0.176758
0.630615 0.323395 0.176758
0.630615 0.323395 0.176758
0.630615 0.323395 0.176758
0.214172 0.198181 0.184723
0.213470 0.197601 0.184174
0.212769 0.196869 0.183563
0.211639 0.195923 0.182709
0.210236 0.194702 0.181580
0.210999 0.192444 0.178040
0.221649 0.187378 0.166504
0.233124 0.182220 0.154816
0.245544 0.176788 0.142578
0.258423 0.171906 0.131561
0.271851 0.168182 0.122223
0.286285 0.164764 0.113129
0.300415 0.165588 0.109772
0.315247 0.167603 0.107788
0.331238 0.170685 0.106567
0.347534 0.177551 0.109009
0.364838 0.186035 0.112366
0.383179 0.195312 0.115845
0.402405 0.205109 0.119843
0.422668 0.215485 0.124054
0.443665 0.226227 0.128510
0.463989 0.236450 0.133484
0.485229 0.247253 0.138489
0.507233 0.258423 0.143463
0.529938 0.269928 0.148285
0.553497 0.282104 0.153717
0.578430 0.295349 0.161102
0.603882 0.309021 0.168701
0.630615 0.323395 0.176758
0.630615 0.323395 0.176758
0.630615 0.323395 0.176758
0.630615 0.323395 0.176758
0.254272 0.233093 0.216766
0.253693 0.232574 0.216278
0.252960 0.231995 0.215790
0.251923 0.231110 0.214905
0.250580 0.229889 0.213867
0.248840 0.228394 0.212463
0.255280 0.224274 0.203857
0.267059 0.218506 0.190735
0.280151 0.211914 0.176086
0.294067 0.204834 0.160736
0.308472 0.198639 0.146973
0.323120 0.193695 0.135620
0.338684 0.189423 0.125305
0.353638 0.189941 0.121002
0.369202 0.192657 0.119171
0.385620 0.196808 0.118591
0.402283 0.205109 0.121490
0.420044 0.214172 0.124420
0.438904 0.223846 0.127380
0.456970 0.233002 0.131866
0.475769 0.242432 0.136475
0.495422 0.252411 0.141113
0.515930 0.262878 0.145782
0.537170 0.273682 0.150421
0.559631 0.285370 0.155762
0.583252 0.297943 0.162506
0.607422 0.310883 0.169739
0.632080 0.324188 0.177185
0.650696 0.334320 0.182922
0.638397 0.327637 0.179138
0.630615 0.323395 0.176758
0.630615 0.323395 0.176758
0.296661 0.269440 0.249756
0.296082 0.268890 0.249268
0.295410 0.268280 0.248718
0.294556 0.267487 0.247925
0.293243 0.266327 0.246796
0.291595 0.264832 0.245422
0.291016 0.262665 0.242584
0.302734 0.257050 0.229248
0.315643 0.250305 0.214081
0.329865 0.242554 0.197388
0.344879 0.234650 0.180695
0.360199 0.227692 0.165680
0.376007 0.222473 0.152924
0.393127 0.217407 0.139740
0.409088 0.218079 0.134521
0.424927 0.221863 0.133545
0.441803 0.226227 0.132629
0.457886 0.233521 0.134613
0.474640 0.241974 0.137573
0.492188 0.250793 0.140808
0.510284 0.259979 0.144928
0.529266 0.269714 0.149292
0.549072 0.279846 0.153595
0.570557 0.291199 0.159271
0.592682 0.303009 0.165405
0.615356 0.315186 0.172119
0.638641 0.327728 0.179199
0.662476 0.340668 0.186493
0.682617 0.352875 0.194672
0.671356 0.345795 0.189606
0.658966 0.338806 0.185455
0.645752 0.331604 0.181366
0.339325 0.308960 0.287659
0.338776 0.308472 0.287140
0.338196 0.307922 0.286621
0.337372 0.307129 0.285828
0.336151 0.305969 0.284760
0.334686 0.304535 0.283325
0.332825 0.302826 0.281677
0.338654 0.298126 0.272400
0.351898 0.290680 0.255981
0.366241 0.282440 0.238281
0.381256 0.274048 0.220428
0.397186 0.265503 0.202637
0.413818 0.257965 0.185822
0.430664 0.252777 0.171112
0.447845 0.247528 0.157104
0.463928 0.246674 0.150085
0.479553 0.249756 0.148132
0.496063 0.253998 0.146606
0.512512 0.261230 0.148010
0.529358 0.269775 0.150818
0.546936 0.278748 0.153961
0.566040 0.288849 0.158813
0.585968 0.299438 0.164124
0.606628 0.310516 0.169800
0.627777 0.321808 0.175873
0.649628 0.333679 0.182556
0.671844 0.346069 0.189850
0.693756 0.360046 0.199799
0.715546 0.373993 0.209839
0.704834 0.367157 0.204895
0.693420 0.359833 0.199646
0.681335 0.352081 0.194122
0.382111 0.350708 0.328522
0.381622 0.350281 0.328064
0.381165 0.349731 0.327484
0.380402 0.348969 0.326782
0.379425 0.347961 0.325745
0.378143 0.346741 0.324524
0.376526 0.345093 0.322906
0.374542 0.343079 0.320892
0.388031 0.334320 0.302490
0.402374 0.324677 0.282684
0.417664 0.314331 0.261597
0.433502 0.304596 0.241272
0.450134 0.294464 0.220825
0.467316 0.285278 0.201538
0.484467 0.279297 0.185944
0.502197 0.274353 0.172150
0.519135 0.273529 0.164124
0.535095 0.277466 0.161835
0.552094 0.283020 0.160400
0.569580 0.291229 0.162384
0.587311 0.300659 0.166351
0.605804 0.310181 0.170685
0.624939 0.320343 0.175659
0.644592 0.330963 0.181122
0.664886 0.342041 0.187286
0.684998 0.354401 0.195770
0.705414 0.367462 0.205109
0.726288 0.381042 0.214935
0.747467 0.394836 0.224976
0.739929 0.389923 0.221436
0.729065 0.382843 0.216248
0.717560 0.375336 0.210846
0.423676 0.390472 0.367188
0.423248 0.390137 0.366882
0.422791 0.389740 0.366486
0.422028 0.389099 0.365936
0.421021 0.388245 0.365173
0.419708 0.387268 0.364288
0.418213 0.385925 0.363007
0.416351 0.384216 0.361359
0.421570 0.378693 0.351074
0.436462 0.367981 0.328979
0.452454 0.356598 0.305328
0.469391 0.344666 0.280579
0.486420 0.333252 0.257568
0.504395 0.321625 0.234497
0.522919 0.311218 0.213165
0.540924 0.306091 0.198242
0.559723 0.302917 0.185669
0.577820 0.303680 0.178131
0.594666 0.309387 0.176971
0.611938 0.316101 0.177094
0.629425 0.324036 0.179321
0.647156 0.332916 0.183289
0.665466 0.342438 0.187897
0.683624 0.353577 0.195160
0.701965 0.365265 0.203583
0.720947 0.377502 0.212372
0.740356 0.390198 0.221619
0.760223 0.403229 0.231171
0.780426 0.416656 0.241089
0.776306 0.413940 0.239075
0.766052 0.407166 0.234070
0.755219 0.399933 0.228729
0.467987 0.427368 0.401276
0.467682 0.427063 0.400909
0.467194 0.426544 0.400391
0.466492 0.425903 0.399658
0.465637 0.425049 0.398743
0.464355 0.423981 0.397736
0.463013 0.422791 0.396667
0.461243 0.421356 0.395325
0.459167 0.419647 0.393738
0.471008 0.411804 0.376770
0.487274 0.400330 0.352386
0.505005 0.387939 0.325958
0.524078 0.374451 0.297607
0.543243 0.361786 0.271790
0.563599 0.349121 0.245789
0.584595 0.337738 0.221588
0.602753 0.334869 0.208923
0.621246 0.333893 0.198456
0.639435 0.335571 0.191620
0.656036 0.341675 0.191589
0.672638 0.348969 0.193909
0.689117 0.357880 0.198944
0.705841 0.367737 0.205322
0.722687 0.378662 0.213226
0.740173 0.390015 0.221497
0.758118 0.401886 0.230194
0.776489 0.414062 0.239166
0.792053 0.430389 0.256195
0.804718 0.450836 0.281464
0.804321 0.450165 0.280548
0.797943 0.439819 0.267761
0.791077 0.428864 0.254333
0.511688 0.471375 0.448242
0.511322 0.470947 0.447784
0.510864 0.470520 0.447296
0.510284 0.469910 0.446716
0.509399 0.469055 0.445801
0.508392 0.467987 0.444641
0.506989 0.466614 0.443176
0.505371 0.464874 0.441376
0.503510 0.463043 0.439392
0.506226 0.459564 0.433167
0.520844 0.450806 0.413513
0.539673 0.436676 0.383026
0.560120 0.421051 0.349670
0.582123 0.404022 0.314117
0.603027 0.390167 0.284851
0.625214 0.376465 0.255920
0.648041 0.364136 0.229126
0.665253 0.364380 0.220490
0.682281 0.366455 0.214813
0.699158 0.370605 0.212036
0.714630 0.377777 0.214996
0.730682 0.385468 0.218781
0.746735 0.394379 0.224640
0.762695 0.404877 0.232391
0.779083 0.415802 0.240479
0.792633 0.431335 0.257263
0.804077 0.449738 0.279999
0.815521 0.468811 0.304047
0.826904 0.488464 0.329193
0.828522 0.491333 0.332886
0.822845 0.481415 0.320099
0.816772 0.470947 0.306763
0.555450 0.515900 0.494934
0.555084 0.515533 0.494537
0.554688 0.515106 0.494141
0.554047 0.514404 0.493408
0.553284 0.513580 0.492584
0.552307 0.512604 0.491547
0.551056 0.511383 0.490326
0.549591 0.509888 0.488739
0.547882 0.508148 0.486908
0.545837 0.506042 0.484711
0.555450 0.500214 0.471802
0.571350 0.490295 0.449371
0.592957 0.472992 0.411926
0.615936 0.454346 0.372345
0.640411 0.434265 0.331238
0.661926 0.421295 0.302460
0.684357 0.409027 0.274841
0.707672 0.397919 0.249115
0.724060 0.399780 0.243073
0.740479 0.403290 0.239105
0.756348 0.408966 0.238495
0.771210 0.416534 0.243225
0.786011 0.425140 0.249878
0.797394 0.438904 0.266663
0.807465 0.455383 0.287109
0.817719 0.472504 0.308716
0.827942 0.490295 0.331604
0.838257 0.508606 0.355408
0.848389 0.527435 0.380341
0.851746 0.533783 0.388794
0.846741 0.524414 0.376251
0.841339 0.514374 0.362976
0.595154 0.558594 0.538391
0.594879 0.558319 0.538025
0.594543 0.557922 0.537659
0.594055 0.557434 0.537170
0.593414 0.556763 0.536438
0.592590 0.555878 0.535553
0.591614 0.554749 0.534393
0.590363 0.553436 0.533112
0.588959 0.551849 0.531433
0.587250 0.550018 0.529602
0.589081 0.547180 0.524506
0.604370 0.541382 0.508179
0.621735 0.531464 0.484467
0.645081 0.511902 0.443146
0.670044 0.490479 0.399170
0.697388 0.466858 0.352722
0.719788 0.454285 0.323364
0.743103 0.442566 0.295288
0.767334 0.431976 0.268616
0.780518 0.438110 0.270813
0.791412 0.448181 0.280365
0.802032 0.459778 0.291809
0.812286 0.471832 0.306854
0.822540 0.484833 0.323792
0.832550 0.498779 0.342499
0.841705 0.515076 0.363892
0.850769 0.531982 0.386383
0.859283 0.550385 0.410675
0.866272 0.571777 0.438141
0.869995 0.583435 0.453308
0.866577 0.572754 0.439423
0.862976 0.561554 0.424927
0.632843 0.600128 0.581177
0.632538 0.599854 0.580872
0.632324 0.599518 0.580505
0.631958 0.599121 0.580048
0.631317 0.598419 0.579346
0.630615 0.597626 0.578522
0.629730 0.596619 0.577484
0.628601 0.595398 0.576233
0.627289 0.593903 0.574646
0.625793 0.592285 0.572998
0.624023 0.590363 0.570984
0.633759 0.585724 0.559174
0.650208 0.579315 0.541046
0.670166 0.570221 0.516876
0.697174 0.549194 0.472076
0.724823 0.524078 0.422852
0.754089 0.498840 0.374451
0.773773 0.491028 0.353912
0.791840 0.486847 0.340485
0.808960 0.484955 0.332062
0.819275 0.494232 0.340576
0.828583 0.505859 0.352386
0.837646 0.518738 0.366180
0.846619 0.531250 0.383087
0.855530 0.544495 0.401886
0.862640 0.561249 0.424347
0.868958 0.580139 0.448975
0.875061 0.599731 0.474701
0.881042 0.619843 0.501404
0.885498 0.635193 0.522003
0.882629 0.625275 0.508667
0.879547 0.614807 0.494690
0.672913 0.635651 0.617279
0.672668 0.635498 0.617096
0.672363 0.635223 0.616791
0.671967 0.634827 0.616425
0.671417 0.634338 0.615906
0.670593 0.633636 0.615173
0.669678 0.632812 0.614288
0.668640 0.631897 0.613342
0.667297 0.630737 0.612183
0.665771 0.629425 0.610840
0.664062 0.627960 0.609314
0.664398 0.625519 0.605438
0.683167 0.616394 0.582947
0.704346 0.605560 0.556641
0.729034 0.591949 0.524384
0.755035 0.573395 0.484100
0.778748 0.556000 0.447815
0.801605 0.542023 0.417419
0.817444 0.539062 0.407684
0.831787 0.538879 0.403625
0.845398 0.540924 0.404083
0.854004 0.551392 0.415039
0.860474 0.566223 0.431305
0.866669 0.581726 0.449341
0.872803 0.597168 0.470032
0.878601 0.613495 0.492371
0.884186 0.630829 0.515991
0.888641 0.647797 0.539795
0.892365 0.664276 0.563538
0.895905 0.680420 0.586914
0.894196 0.672455 0.575409
0.892334 0.664001 0.563141
0.713898 0.667969 0.648590
0.713684 0.667755 0.648315
0.713379 0.667480 0.648102
0.712952 0.667236 0.647827
0.712372 0.666809 0.647461
0.711639 0.666290 0.646973
0.710724 0.665619 0.646423
0.709656 0.664795 0.645599
0.708344 0.663910 0.644806
0.706818 0.662842 0.643829
0.705048 0.661682 0.642883
0.703003 0.660248 0.641602
0.714722 0.652679 0.624939
0.738129 0.639526 0.594452
0.763306 0.625366 0.561646
0.789398 0.611084 0.527954
0.809479 0.601257 0.503540
0.826691 0.594208 0.484863
0.842682 0.590210 0.471771
0.853973 0.592773 0.472534
0.863678 0.598267 0.478394
0.872467 0.606110 0.487701
0.878479 0.619019 0.502930
0.883636 0.633667 0.520844
0.887848 0.647552 0.539246
0.891418 0.661316 0.559052
0.894806 0.675598 0.579865
0.898376 0.689972 0.600311
0.902435 0.704285 0.620056
0.906464 0.718811 0.640106
0.905457 0.714996 0.634888
0.903412 0.707733 0.624756
0.753113 0.700348 0.678497
0.752869 0.700195 0.678314
0.752625 0.699921 0.678101
0.752350 0.699585 0.677734
0.751862 0.699158 0.677307
0.751312 0.698517 0.676697
0.750580 0.697845 0.676025
0.749725 0.696991 0.675232
0.748596 0.695892 0.674133
0.747406 0.694763 0.673096
0.746094 0.693451 0.671722
0.744507 0.691895 0.670258
0.742950 0.690155 0.668518
0.763306 0.680023 0.644196
0.785797 0.668488 0.616516
0.808929 0.657013 0.588867
0.831818 0.646545 0.562805
0.846405 0.644257 0.552551
0.860199 0.643555 0.545410
0.873016 0.644409 0.541473
0.880859 0.650146 0.547913
0.886810 0.658295 0.558655
0.891693 0.667999 0.571838
0.895233 0.679474 0.587402
0.898651 0.691589 0.603394
0.902252 0.703888 0.619629
0.905823 0.716431 0.636841
0.909332 0.729218 0.654572
0.912781 0.742340 0.672729
0.916229 0.755554 0.691132
0.916199 0.755524 0.691040
0.914551 0.748901 0.681854
0.785767 0.736237 0.714996
0.785614 0.736023 0.714752
0.785431 0.735718 0.714417
0.785095 0.735474 0.714172
0.784729 0.735016 0.713684
0.784332 0.734436 0.713043
0.783661 0.733765 0.712372
0.782959 0.732849 0.711426
0.782104 0.731903 0.710449
0.781097 0.730774 0.709290
0.780029 0.729401 0.707825
0.778748 0.727966 0.706360
0.777313 0.726349 0.704651
0.784058 0.722168 0.695679
0.802979 0.713623 0.674866
0.823456 0.704590 0.652618
0.844116 0.695770 0.630890
0.864624 0.687836 0.610992
0.875519 0.688690 0.608276
0.885651 0.690887 0.608307
0.894440 0.694916 0.611145
0.899445 0.702850 0.620697
0.903259 0.712250 0.632965
0.906891 0.722229 0.646027
0.910156 0.732849 0.660156
0.913177 0.744049 0.675293
0.916168 0.755463 0.691040
0.919159 0.767029 0.707123
0.922058 0.778931 0.723663
0.924988 0.790924 0.740417
0.925781 0.794128 0.744781
0.924316 0.788177 0.736542
0.814331 0.772095 0.754150
0.814209 0.771912 0.753937
0.814056 0.771698 0.753693
0.813812 0.771393 0.753326
0.813507 0.770966 0.752869
0.813110 0.770447 0.752258
0.812592 0.769806 0.751556
0.811951 0.769073 0.750763
0.811218 0.768158 0.749695
0.810425 0.767120 0.748535
0.809448 0.765930 0.747162
0.808350 0.764526 0.745636
0.807129 0.763062 0.743988
0.805786 0.761383 0.742096
0.820374 0.755463 0.727295
0.837830 0.748688 0.710358
0.855286 0.742371 0.694366
0.872345 0.737000 0.680023
0.888763 0.732788 0.667847
0.896606 0.736176 0.670013
0.903839 0.740631 0.674011
0.910370 0.746033 0.679626
0.914490 0.753845 0.689636
0.917511 0.762970 0.701843
0.920288 0.772400 0.714752
0.922943 0.782379 0.728516
0.925415 0.792725 0.742889
0.928253 0.803162 0.756287
0.931030 0.813873 0.769989
0.933807 0.824585 0.783722
0.935364 0.830566 0.791382
0.934021 0.825256 0.784576
0.840454 0.806488 0.793427
0.840332 0.806274 0.793182
0.840179 0.806091 0.792969
0.839996 0.805817 0.792664
0.839691 0.805389 0.792175
0.839325 0.804962 0.791626
0.838867 0.804321 0.790924
0.838379 0.803650 0.790131
0.837738 0.802795 0.789185
0.837097 0.801819 0.788055
0.836243 0.800690 0.786804
0.835327 0.799530 0.785431
0.834320 0.798096 0.783752
0.833130 0.796509 0.781952
0.837494 0.793610 0.775940
0.853088 0.788300 0.761810
0.868317 0.783722 0.749237
0.882019 0.780731 0.739990
0.895111 0.778687 0.732483
0.907410 0.777954 0.727142
0.913544 0.782288 0.731476
0.918884 0.787506 0.737396
0.923859 0.793579 0.744720
0.927429 0.801147 0.753815
0.929932 0.809753 0.764740
0.932281 0.818756 0.776215
0.934662 0.827972 0.788025
0.937073 0.837341 0.800079
0.939423 0.846893 0.812317
0.941833 0.856537 0.824707
0.943817 0.864655 0.835175
0.942657 0.859985 0.829132
0.863892 0.839447 0.831268
0.863800 0.839294 0.831116
0.863647 0.839142 0.830963
0.863495 0.838898 0.830658
0.863312 0.838562 0.830292
0.862946 0.838135 0.829834
0.862610 0.837585 0.829254
0.862152 0.836914 0.828491
0.861633 0.836182 0.827606
0.860992 0.835297 0.826630
0.860291 0.834320 0.825470
0.859497 0.833130 0.824097
0.858582 0.831818 0.822601
0.857605 0.830475 0.821075
0.856506 0.828857 0.819214
0.867126 0.825378 0.810211
