images/nph.auh/Contents/History/resources/977FE2D0-6C12-4CAC-8457-03B4B96B8236.cube
#Created by: Adobe Photoshop Export Color Lookup Plugin
#Copyright: (C) Copyright 2017 ©ThinkTAP
TITLE "Ocean Sun"
#LUT size
LUT_3D_SIZE 8
#data domain
#LUT data points
DOMAIN_MIN 0.000000 0.000000 0.000000
DOMAIN_MAX 0.903226 0.903226 0.903226
0.000000 0.047516 0.062683
0.000000 0.049774 0.064301
0.046082 0.056458 0.060455
0.130737 0.082153 0.067474
0.240173 0.128479 0.084106
0.367950 0.187592 0.112671
0.506592 0.258057 0.142822
0.630615 0.323395 0.176758
0.020935 0.061310 0.073547
0.036072 0.056580 0.064911
0.073730 0.063629 0.061615
0.129425 0.081696 0.067291
0.236542 0.126892 0.083588
0.364868 0.186005 0.112030
0.504150 0.256836 0.142303
0.630615 0.323395 0.176758
0.137543 0.140808 0.134979
0.136475 0.136383 0.129608
0.179230 0.119690 0.094299
0.230896 0.126404 0.086548
0.298431 0.154694 0.097595
0.382721 0.195068 0.115753
0.497864 0.253601 0.140930
0.630615 0.323395 0.176758
0.296661 0.269440 0.249756
0.293243 0.266327 0.246796
0.315643 0.250305 0.214081
0.376007 0.222473 0.152924
0.441803 0.226227 0.132629
0.510284 0.259979 0.144928
0.592682 0.303009 0.165405
0.682617 0.352875 0.194672
0.467987 0.427368 0.401276
0.465637 0.425049 0.398743
0.459167 0.419647 0.393738
0.524078 0.374451 0.297607
0.602753 0.334869 0.208923
0.672638 0.348969 0.193909
0.740173 0.390015 0.221497
0.804718 0.450836 0.281464
0.632843 0.600128 0.581177
0.631317 0.598419 0.579346
0.627289 0.593903 0.574646
0.650208 0.579315 0.541046
0.754089 0.498840 0.374451
0.819275 0.494232 0.340576
0.855530 0.544495 0.401886
0.881042 0.619843 0.501404
0.785767 0.736237 0.714996
0.784729 0.735016 0.713684
0.782104 0.731903 0.710449
0.777313 0.726349 0.704651
0.844116 0.695770 0.630890
0.894440 0.694916 0.611145
0.910156 0.732849 0.660156
0.922058 0.778931 0.723663
0.885529 0.870819 0.865753
0.884918 0.869965 0.864746
0.883453 0.867828 0.862457
0.880859 0.864014 0.858246
0.893616 0.856537 0.843079
0.933350 0.855835 0.826996
0.946808 0.877502 0.851715
0.954285 0.904541 0.886139
0.000000 0.048279 0.064117
0.000000 0.050323 0.065826
0.050446 0.057587 0.060638
0.132080 0.082642 0.067627
0.240173 0.128479 0.084106
0.367950 0.187592 0.112671
0.506592 0.258057 0.142822
0.630615 0.323395 0.176758
0.012726 0.069397 0.089905
0.034485 0.062195 0.074463
0.064606 0.061249 0.061188
0.132477 0.082794 0.067688
0.241852 0.129272 0.084473
0.369110 0.188171 0.112915
0.506958 0.258270 0.142944
0.630615 0.323395 0.176758
0.134216 0.146729 0.145203
0.143616 0.145416 0.138794
0.189484 0.125092 0.097534
0.226288 0.123871 0.085175
0.288208 0.150116 0.095215
0.370300 0.188751 0.113159
0.500519 0.254974 0.141510
0.630615 0.323395 0.176758
0.296661 0.269440 0.249756
0.302643 0.274841 0.254883
0.318146 0.259521 0.226105
0.385742 0.227692 0.155945
0.440399 0.224762 0.131317
0.503967 0.256744 0.143341
0.583862 0.298279 0.162781
0.671783 0.346008 0.189789
0.467987 0.427368 0.401276
0.472198 0.431580 0.405853
0.465607 0.425018 0.398651
0.526581 0.381042 0.306030
0.610321 0.338409 0.210175
0.671936 0.348389 0.193298
0.735657 0.387115 0.219360
0.800690 0.444305 0.273285
0.632843 0.600128 0.581177
0.635010 0.602509 0.583618
0.630890 0.598022 0.578918
0.648376 0.584229 0.549408
0.754486 0.504517 0.382416
0.822052 0.498535 0.346069
0.855133 0.543457 0.400543
0.879761 0.615417 0.495483
0.785767 0.736237 0.714996
0.786652 0.737335 0.716125
0.783966 0.734070 0.712738
0.779144 0.728394 0.706726
0.841705 0.699036 0.636719
0.894562 0.696838 0.613831
0.910767 0.735168 0.663269
0.921814 0.777863 0.722198
0.885529 0.870819 0.865753
0.885620 0.870972 0.865875
0.884155 0.868835 0.863525
0.881470 0.864929 0.859253
0.891357 0.857666 0.845520
0.932800 0.856110 0.827606
0.946838 0.877777 0.852081
0.954437 0.905090 0.886810
0.000000 0.050476 0.068268
0.000000 0.059113 0.080994
0.056183 0.071747 0.084625
0.143646 0.090912 0.074677
0.248718 0.134003 0.089386
0.372528 0.190002 0.115234
0.506989 0.258301 0.144012
0.630615 0.323395 0.176758
0.000000 0.091217 0.138214
0.000000 0.072479 0.106323
0.062531 0.075714 0.088837
0.144318 0.089722 0.072815
0.248657 0.132812 0.088074
0.371796 0.189606 0.114349
0.506958 0.258270 0.142944
0.630615 0.323395 0.176758
0.103210 0.189301 0.231964
0.108124 0.196014 0.239563
0.164062 0.171387 0.172241
0.219910 0.131104 0.095428
0.268951 0.141449 0.090759
0.368744 0.187958 0.112823
0.506348 0.257935 0.142822
0.630615 0.323395 0.176758
0.273315 0.311523 0.323151
0.283020 0.310883 0.317108
0.305573 0.280273 0.261353
0.396576 0.233429 0.159241
0.435059 0.222015 0.129547
0.489716 0.249481 0.139832
0.563568 0.287476 0.156860
0.645508 0.331482 0.181305
0.462524 0.437225 0.417633
0.472198 0.431580 0.405853
0.477783 0.437134 0.411774
0.525635 0.396820 0.329681
0.623291 0.344269 0.212219
0.669189 0.346222 0.191559
0.725464 0.380493 0.214569
0.791107 0.428925 0.254364
0.632843 0.600128 0.581177
0.635010 0.602509 0.583618
0.638702 0.606720 0.587982
0.641296 0.595520 0.569946
0.753204 0.517822 0.402130
0.827728 0.507416 0.357422
0.853760 0.540405 0.396698
0.876678 0.605164 0.481873
0.785767 0.736237 0.714996
0.786652 0.737335 0.716125
0.788269 0.739258 0.718201
0.783295 0.733276 0.711853
0.834900 0.706848 0.651062
0.894501 0.700867 0.619629
0.912079 0.739990 0.669922
0.921173 0.775085 0.718384
0.885529 0.870819 0.865753
0.885620 0.870972 0.865875
0.885742 0.871155 0.866058
0.882996 0.867157 0.861664
0.885437 0.860474 0.851624
0.931366 0.856720 0.828979
0.946991 0.878326 0.852814
0.954773 0.906311 0.888397
0.000000 0.067719 0.101746
0.000000 0.083801 0.128418
0.016479 0.127167 0.188477
0.144012 0.133270 0.147888
0.258942 0.162781 0.127441
0.385468 0.208130 0.133270
0.516724 0.265594 0.159393
0.639709 0.328339 0.180878
0.000000 0.122650 0.199158
0.000000 0.096405 0.152222
0.000000 0.133118 0.200775
0.145599 0.136536 0.152557
0.261749 0.159790 0.120514
0.385742 0.205963 0.130341
0.516022 0.264832 0.157562
0.638184 0.327484 0.180481
0.000000 0.259766 0.386932
0.000000 0.246674 0.375427
0.000000 0.209839 0.318024
0.173035 0.188263 0.223083
0.274841 0.167206 0.124847
0.382996 0.200775 0.124756
0.513092 0.262207 0.152527
0.634369 0.325439 0.179291
0.240662 0.360260 0.426331
0.246490 0.366608 0.433167
0.250977 0.369812 0.435638
0.332245 0.342316 0.344299
0.415131 0.280365 0.216187
0.477203 0.248627 0.150970
0.539917 0.275238 0.155273
0.630615 0.323395 0.176758
0.430511 0.496124 0.522430
0.435944 0.497864 0.522217
0.444916 0.496674 0.515411
0.479431 0.468445 0.456848
0.619598 0.367523 0.248657
0.664459 0.349457 0.199860
0.712280 0.371887 0.208282
0.774261 0.412628 0.238129
0.599976 0.638184 0.653748
0.603210 0.638550 0.652313
0.617859 0.629547 0.631500
0.639679 0.607758 0.589142
0.744293 0.537476 0.434692
0.833466 0.516479 0.369141
0.851746 0.535828 0.390839
0.872437 0.591400 0.463745
0.785706 0.736298 0.715088
0.786652 0.737335 0.716125
0.788269 0.739258 0.718201
0.789093 0.740234 0.719238
0.821228 0.718903 0.674408
0.893707 0.705597 0.626709
0.913696 0.746155 0.678375
0.920044 0.770599 0.712128
0.885529 0.870819 0.865753
0.885620 0.870972 0.865875
0.885742 0.871155 0.866058
0.885376 0.870667 0.865509
0.881073 0.864288 0.858521
0.928711 0.857483 0.831055
0.947083 0.878906 0.853546
0.955261 0.908112 0.890656
0.000000 0.109497 0.177765
0.000000 0.130463 0.214081
0.000000 0.183105 0.295776
0.046448 0.244354 0.360413
0.222687 0.256561 0.316925
0.382202 0.267273 0.230560
0.521820 0.299713 0.208801
0.638763 0.357056 0.242462
0.000000 0.167297 0.275879
0.000000 0.140259 0.231567
0.000000 0.178375 0.290100
0.033813 0.245758 0.363678
0.224182 0.258820 0.319885
0.383942 0.265472 0.226196
0.522095 0.298187 0.205780
0.639130 0.354248 0.237518
0.000000 0.299500 0.470642
0.000000 0.279236 0.442749
0.000000 0.234894 0.377960
0.000000 0.293884 0.436890
0.227509 0.262299 0.324036
0.386139 0.258942 0.213043
0.521423 0.293335 0.197327
0.640167 0.346832 0.224640
0.105347 0.448151 0.617126
0.068329 0.452454 0.623901
0.000000 0.444916 0.618439
0.116119 0.386566 0.546631
0.321930 0.357849 0.429718
0.456512 0.308350 0.250092
0.543243 0.299438 0.197113
0.641663 0.335846 0.204468
0.409821 0.531067 0.605713
0.413971 0.535065 0.610199
0.419250 0.540253 0.616180
0.437775 0.542053 0.607513
0.518677 0.515900 0.529572
0.610962 0.451233 0.395447
0.691315 0.405396 0.286804
0.763947 0.412018 0.240692
0.595978 0.659332 0.689850
0.598724 0.660980 0.689972
0.603516 0.663116 0.688324
0.603760 0.661133 0.685699
0.636200 0.658539 0.668671
0.794739 0.582214 0.487000
0.844849 0.556091 0.426117
0.869934 0.586121 0.456055
0.745972 0.781494 0.794830
0.747009 0.781677 0.794708
0.748627 0.781738 0.794250
0.750427 0.778595 0.789398
0.774506 0.754913 0.747894
0.891174 0.708038 0.631134
0.914917 0.750671 0.684631
0.919159 0.767151 0.707275
0.871735 0.883209 0.888550
0.872009 0.882751 0.887909
0.876801 0.878754 0.880585
0.885376 0.870667 0.865509
0.883514 0.867950 0.862549
0.924377 0.858154 0.833618
0.947083 0.878998 0.853668
0.955750 0.909821 0.892883
0.000000 0.171204 0.282928
0.000000 0.191650 0.316193
0.000000 0.240448 0.390167
0.000000 0.315155 0.482483
0.097687 0.381622 0.548065
0.298798 0.401825 0.527161
0.500061 0.381897 0.366028
0.630798 0.414856 0.340302
0.000000 0.226776 0.373108
0.000000 0.200653 0.331055
0.000000 0.234497 0.382263
0.000000 0.309113 0.475555
0.087006 0.383728 0.551025
0.299500 0.403168 0.529022
0.501953 0.379242 0.359863
0.631195 0.412598 0.336182
0.000000 0.348846 0.541443
0.000000 0.325500 0.513794
0.000000 0.280792 0.450348
0.000000 0.333496 0.509583
0.055725 0.389496 0.557922
0.300201 0.404633 0.531006
0.505737 0.371429 0.342743
0.632355 0.406616 0.325317
0.000000 0.510132 0.712128
0.000000 0.499939 0.702698
0.000000 0.468781 0.672180
0.000000 0.433380 0.622772
0.195068 0.433044 0.607361
0.365784 0.425842 0.528168
0.516479 0.379547 0.350067
0.633972 0.396271 0.307312
0.333954 0.591705 0.760101
0.328949 0.590454 0.759979
0.311584 0.585754 0.758545
0.303406 0.568878 0.743652
0.365417 0.530365 0.685760
0.522766 0.522858 0.585541
0.645294 0.480438 0.436584
0.728241 0.472870 0.374664
0.567566 0.689423 0.784241
0.570129 0.691345 0.785858
0.574585 0.694763 0.788757
0.575775 0.695648 0.789551
0.612610 0.700928 0.768951
0.688660 0.684753 0.699310
0.789032 0.640808 0.601410
0.858032 0.627686 0.528564
0.749329 0.793732 0.815338
0.750336 0.794464 0.815582
0.752106 0.795532 0.815460
0.752808 0.795349 0.813446
0.753143 0.793793 0.809418
0.794312 0.797607 0.799927
0.899841 0.774536 0.729034
0.921722 0.782135 0.728943
0.872101 0.893250 0.900787
0.872040 0.893097 0.900696
0.871765 0.892609 0.900299
0.870422 0.891022 0.898956
0.866821 0.887329 0.895691
0.885345 0.885681 0.886505
0.943420 0.884552 0.862701
0.956543 0.912567 0.896301
0.000000 0.246429 0.402771
0.000000 0.264587 0.429565
0.000000 0.308624 0.491241
0.000000 0.376526 0.565918
0.046021 0.450348 0.633362
0.269501 0.472839 0.641571
0.443787 0.499268 0.607361
0.607330 0.499969 0.502106
0.000000 0.296204 0.476410
0.000000 0.271942 0.440643
0.000000 0.302155 0.482849
0.000000 0.369415 0.558746
0.015015 0.452972 0.635345
0.266693 0.472107 0.641541
0.444489 0.499634 0.607513
0.607849 0.498413 0.499023
0.000000 0.406525 0.615356
0.000000 0.385071 0.590240
0.000000 0.342133 0.538177
0.000000 0.387543 0.582397
0.000000 0.446472 0.630615
0.258331 0.469910 0.641052
0.444763 0.499756 0.607605
0.609314 0.493958 0.490509
0.000000 0.551666 0.759918
0.000000 0.540771 0.752472
0.000000 0.506714 0.721588
0.000000 0.467346 0.672943
0.097534 0.499329 0.686707
0.296539 0.492767 0.659790
0.446228 0.501465 0.609344
0.612335 0.485138 0.473297
0.330292 0.628021 0.807068
0.319031 0.625244 0.805573
0.281738 0.619019 0.802673
0.219299 0.610321 0.796448
0.275299 0.574310 0.758423
0.420593 0.571136 0.722168
0.553894 0.581909 0.668945
0.691284 0.546692 0.523773
0.559509 0.713226 0.843262
0.557159 0.711945 0.842712
0.549866 0.707947 0.840851
0.532715 0.698669 0.836578
0.539886 0.695648 0.829376
0.587463 0.693878 0.806763
0.711426 0.688232 0.729279
0.810760 0.671722 0.640717
0.739471 0.809631 0.874207
0.740662 0.810425 0.874756
0.742859 0.811829 0.875641
0.743927 0.812622 0.876160
0.745209 0.812683 0.874634
0.779266 0.827240 0.869293
0.833649 0.826660 0.835999
0.902527 0.815338 0.790100
0.879242 0.900513 0.911011
0.879303 0.900513 0.910889
0.879242 0.900360 0.910522
0.878326 0.899475 0.909332
0.875183 0.896729 0.906342
0.883026 0.902405 0.909485
0.910858 0.914673 0.916077
0.955872 0.923004 0.911987
0.000000 0.293610 0.472748
0.000000 0.310974 0.497131
0.000000 0.352997 0.548615
0.000000 0.417267 0.617310
0.000000 0.496216 0.684662
0.280975 0.504639 0.681122
0.429382 0.551849 0.691559
0.566406 0.586578 0.668335
0.000000 0.341339 0.538452
0.000000 0.317535 0.507233
0.000000 0.346191 0.541229
0.000000 0.409790 0.609650
0.000000 0.491150 0.680634
0.275604 0.503326 0.680878
0.426941 0.551086 0.691528
0.566406 0.586578 0.668335
0.000000 0.447510 0.666840
0.000000 0.425690 0.642670
0.000000 0.380646 0.585388
0.000000 0.423248 0.627838
0.000000 0.479645 0.671722
0.260681 0.499847 0.680206
0.420044 0.548981 0.691498
0.566406 0.586578 0.668335
0.000000 0.579010 0.785675
0.000000 0.566864 0.776581
0.000000 0.533966 0.752380
0.000000 0.493652 0.708435
0.000000 0.539490 0.730377
0.284088 0.521851 0.699799
0.410950 0.547668 0.693359
0.566406 0.586578 0.668335
0.364532 0.643524 0.818390
0.349854 0.640045 0.816650
0.304657 0.632446 0.813446
0.203552 0.627777 0.812775
0.221375 0.600922 0.788940
0.387421 0.596375 0.760742
0.502350 0.616028 0.746979
0.622040 0.633972 0.705200
0.580780 0.728760 0.857300
0.575256 0.725769 0.855774
0.560455 0.718109 0.852051
0.531952 0.703644 0.845184
0.521118 0.697174 0.840302
0.546906 0.699341 0.833527
0.630066 0.721191 0.824829
0.738708 0.730865 0.775665
0.747681 0.824066 0.899628
0.745911 0.822876 0.899139
0.740997 0.819641 0.897736
0.731232 0.813293 0.894958
0.719086 0.805420 0.891541
0.737274 0.816467 0.895233
0.781982 0.833282 0.892334
0.859558 0.840881 0.858643
0.881714 0.909607 0.938995
0.881805 0.909698 0.939056
0.882019 0.909821 0.939117
0.881500 0.909424 0.938873
0.878845 0.907471 0.937592
0.887909 0.913330 0.938599
0.910004 0.928223 0.943176
0.939941 0.938232 0.940521
