images/nph.auh/Contents/History/resources/CCA4CBED-2E98-46E5-B332-51DCC56087ED.cube
#Created by: Adobe Photoshop Export Color Lookup Plugin
#Copyright: (C) Copyright 2017 ©ThinkTAP
TITLE "Cool Midtones"
#LUT size
LUT_3D_SIZE 32
#data domain
DOMAIN_MIN 0.0 0.0 0.0
DOMAIN_MAX 1.0 1.0 1.0
#LUT data points
0.000000 0.000000 0.000000
0.032013 0.016998 0.016998
0.063965 0.033691 0.033691
0.095947 0.052246 0.052246
0.127930 0.067047 0.067047
0.159576 0.076630 0.076630
0.191010 0.080872 0.080872
0.222443 0.080475 0.080475
0.253876 0.079620 0.079620
0.285248 0.088074 0.088074
0.316132 0.101013 0.101013
0.347015 0.114014 0.114014
0.377899 0.127014 0.127014
0.408783 0.139984 0.139984
0.439270 0.152802 0.152802
0.469604 0.165558 0.165558
0.499969 0.178345 0.178345
0.530304 0.191071 0.191071
0.560455 0.203766 0.203766
0.590240 0.216309 0.216309
0.620026 0.228821 0.228821
0.649811 0.241333 0.241333
0.679596 0.253876 0.253876
0.708893 0.266174 0.266174
0.738129 0.278473 0.278473
0.767365 0.290771 0.290771
0.796600 0.303040 0.303040
0.825592 0.315247 0.315247
0.854279 0.327301 0.327301
0.882965 0.339386 0.339386
0.911652 0.351410 0.351440
0.940338 0.363464 0.363495
0.017120 0.032288 0.017120
0.031891 0.032288 0.017120
0.063385 0.049103 0.033356
0.095398 0.065826 0.051941
0.127380 0.079834 0.066833
0.158752 0.089569 0.076447
0.189941 0.094543 0.080811
0.221375 0.095337 0.080536
0.252808 0.095276 0.079559
0.284088 0.102325 0.087585
0.314514 0.113647 0.100342
0.345398 0.125305 0.113373
0.376282 0.137207 0.126343
0.407166 0.149231 0.139313
0.437256 0.161102 0.151947
0.467438 0.173065 0.164642
0.497803 0.185242 0.177429
0.528137 0.197449 0.190186
0.558167 0.209595 0.202789
0.587555 0.221527 0.215149
0.617340 0.233673 0.227692
0.647125 0.245850 0.240204
0.676910 0.258057 0.252747
0.705750 0.269928 0.264862
0.734894 0.281921 0.277130
0.764130 0.293976 0.289398
0.793365 0.306061 0.301697
0.822144 0.317963 0.313812
0.850494 0.329712 0.325714
0.879181 0.341583 0.337769
0.907867 0.353485 0.349854
0.936554 0.365387 0.361908
0.034027 0.064514 0.034027
0.049347 0.064514 0.034027
0.063660 0.064514 0.034027
0.094818 0.079071 0.051636
0.126831 0.092682 0.066620
0.158203 0.102600 0.076324
0.189087 0.108246 0.080780
0.220306 0.110107 0.080597
0.251740 0.110718 0.079498
0.283020 0.116852 0.087097
0.313354 0.126831 0.099854
0.343781 0.137238 0.112701
0.374664 0.148102 0.125641
0.405548 0.159241 0.138641
0.435638 0.170349 0.151276
0.465424 0.181458 0.163849
0.495636 0.192963 0.176514
0.525970 0.204620 0.189270
0.556000 0.216278 0.201874
0.585236 0.227692 0.214172
0.614624 0.239258 0.226562
0.644409 0.251068 0.239075
0.674194 0.262939 0.251587
0.703033 0.274475 0.263733
0.731750 0.286011 0.275818
0.760895 0.297791 0.288025
0.790131 0.309662 0.300323
0.818878 0.321320 0.312408
0.847046 0.332794 0.324249
0.875397 0.344330 0.336182
0.904083 0.356079 0.348267
0.932770 0.367828 0.360291
0.052704 0.096771 0.052704
0.066193 0.096771 0.052704
0.079193 0.096771 0.052704
0.095428 0.096771 0.052704
0.126312 0.108978 0.066406
0.157654 0.119202 0.076202
0.188568 0.125671 0.080750
0.219452 0.128632 0.080627
0.250641 0.130096 0.079468
0.281921 0.135406 0.086639
0.312286 0.144104 0.099426
0.342621 0.153229 0.112213
0.373047 0.162872 0.124969
0.403931 0.172974 0.137970
0.434021 0.183105 0.150604
0.463806 0.193451 0.163147
0.493652 0.204041 0.175659
0.523834 0.214905 0.188385
0.553833 0.225922 0.200958
0.583099 0.236786 0.213287
0.612335 0.247772 0.225586
0.641724 0.258942 0.237946
0.671509 0.270355 0.250458
0.700348 0.281494 0.262604
0.729034 0.292633 0.274658
0.757721 0.303864 0.286682
0.786896 0.315369 0.298981
0.815643 0.326721 0.311066
0.843811 0.337921 0.322906
0.871948 0.349152 0.334747
0.900330 0.360504 0.346680
0.928986 0.372009 0.358704
0.067474 0.129028 0.067474
0.080139 0.129028 0.067474
0.092743 0.129028 0.067474
0.108612 0.129028 0.067474
0.126984 0.129028 0.067474
0.157135 0.138519 0.076080
0.188019 0.145905 0.080688
0.218903 0.150024 0.080658
0.249817 0.152283 0.079437
0.280853 0.157013 0.086212
0.311188 0.164520 0.098969
0.341522 0.172516 0.111725
0.371887 0.181000 0.124481
0.402313 0.189941 0.137299
0.432404 0.199097 0.149933
0.462189 0.208557 0.162476
0.492035 0.218262 0.175018
0.521820 0.228241 0.187531
0.551697 0.238434 0.200073
0.580933 0.248657 0.212372
0.610168 0.259033 0.224670
0.639404 0.269562 0.236969
0.668793 0.280243 0.249329
0.697662 0.290924 0.261444
0.726349 0.301605 0.273529
0.755035 0.312408 0.285553
0.783722 0.323303 0.297638
0.812408 0.334290 0.309723
0.840546 0.345123 0.321533
0.868713 0.356018 0.333374
0.896851 0.366974 0.345215
0.925232 0.378082 0.357147
0.076996 0.161285 0.076996
0.089722 0.161285 0.076996
0.102417 0.161285 0.076996
0.118591 0.161285 0.076996
0.137421 0.161285 0.076996
0.157806 0.161285 0.076996
0.187164 0.168121 0.080627
0.218048 0.173401 0.080719
0.248962 0.176575 0.079437
0.279694 0.180847 0.085724
0.309814 0.187286 0.098389
0.340149 0.194275 0.111145
0.370483 0.201721 0.123871
0.400818 0.209625 0.136627
0.430481 0.217773 0.149109
0.460266 0.226288 0.161652
0.490082 0.235138 0.174194
0.519897 0.244293 0.186737
0.549377 0.253601 0.199097
0.578461 0.263031 0.211334
0.607697 0.272736 0.223633
0.636932 0.282623 0.235931
0.666199 0.292694 0.248230
0.694641 0.302643 0.260193
0.723328 0.312805 0.272247
0.752014 0.323120 0.284302
0.780731 0.333557 0.296387
0.808929 0.343903 0.308228
0.837006 0.354309 0.320038
0.865143 0.364807 0.331879
0.893311 0.375397 0.343719
0.921448 0.386078 0.355560
0.080994 0.193542 0.080994
0.094269 0.193542 0.080994
0.107513 0.193542 0.080994
0.124390 0.193542 0.080994
0.144135 0.193542 0.080994
0.165436 0.193542 0.080994
0.187866 0.193542 0.080994
0.216980 0.198181 0.080780
0.247864 0.202271 0.079407
0.278625 0.206390 0.085266
0.308411 0.211853 0.097778
0.338531 0.217896 0.110474
0.368866 0.224457 0.123169
0.399200 0.231476 0.135956
0.428772 0.238708 0.148376
0.458099 0.246277 0.160736
0.487946 0.254303 0.173279
0.517731 0.262665 0.185822
0.547211 0.271210 0.198181
0.575928 0.279785 0.210266
0.605011 0.288757 0.222504
0.634247 0.297943 0.234802
0.663483 0.307373 0.247070
0.691803 0.316711 0.259003
0.720093 0.326172 0.270905
0.748779 0.335938 0.282959
0.777496 0.345856 0.295013
0.805695 0.355743 0.306885
0.833313 0.365509 0.318481
0.861389 0.375549 0.330292
0.889526 0.385712 0.342133
0.917664 0.395996 0.353943
0.080292 0.225800 0.080292
0.094666 0.225800 0.080292
0.108765 0.225800 0.080292
0.126526 0.225800 0.080292
0.147339 0.225800 0.080292
0.169739 0.225800 0.080292
0.193176 0.225800 0.080292
0.217651 0.225800 0.080292
0.246796 0.228943 0.079407
0.277527 0.232971 0.084808
0.307343 0.237793 0.097321
0.337128 0.243011 0.109894
0.367249 0.248779 0.122498
0.397583 0.255005 0.135284
0.427155 0.261475 0.147736
0.456421 0.268250 0.160004
0.485779 0.275391 0.172363
0.515564 0.282990 0.184906
0.545044 0.290802 0.197296
0.573761 0.298706 0.209351
0.602448 0.306854 0.221436
0.631531 0.315369 0.233643
0.660797 0.324158 0.245941
0.689087 0.332855 0.257843
0.717255 0.341705 0.269714
0.745544 0.350800 0.281586
0.774261 0.360168 0.293671
0.802460 0.369507 0.305542
0.830078 0.378815 0.317139
0.857666 0.388245 0.328735
0.885742 0.397949 0.340546
0.913879 0.407776 0.352356
0.079956 0.258057 0.079956
0.095062 0.258057 0.079956
0.109772 0.258057 0.079956
0.128052 0.258057 0.079956
0.149323 0.258057 0.079956
0.172363 0.258057 0.079956
0.196472 0.258057 0.079956
0.221588 0.258057 0.079956
0.247406 0.258057 0.079956
0.276459 0.260437 0.084351
0.306244 0.264648 0.096832
0.336060 0.269287 0.109436
0.365845 0.274323 0.121918
0.395966 0.279846 0.134613
0.425537 0.285614 0.147034
0.454803 0.291748 0.159332
0.484070 0.298187 0.171631
0.513397 0.304962 0.183960
0.542877 0.312103 0.196381
0.571594 0.319366 0.208435
0.600281 0.326874 0.220520
0.628998 0.334656 0.232574
0.658081 0.342743 0.244812
0.686401 0.350891 0.256714
0.714539 0.359131 0.268555
0.742706 0.367615 0.280396
0.771027 0.376343 0.292297
0.799225 0.385162 0.304169
0.826843 0.393982 0.315765
0.854431 0.402924 0.327362
0.882050 0.412018 0.338989
0.910095 0.421356 0.350769
0.090210 0.290314 0.090210
0.104004 0.290314 0.090210
0.117798 0.290314 0.090210
0.135162 0.290314 0.090210
0.155457 0.290314 0.090210
0.177612 0.290314 0.090210
0.201111 0.290314 0.090210
0.225800 0.290314 0.090210
0.251312 0.290314 0.090210
0.277222 0.290314 0.090210
0.305115 0.292206 0.096375
0.334900 0.296326 0.108917
0.364716 0.300842 0.121429
0.394501 0.305725 0.134003
0.423828 0.310883 0.146332
0.453094 0.316406 0.158630
0.482391 0.322235 0.170929
0.511627 0.328400 0.183228
0.540649 0.334808 0.195435
0.569366 0.341461 0.207520
0.598053 0.348358 0.219574
0.626770 0.355530 0.231659
0.655457 0.362946 0.243683
0.683685 0.370483 0.255585
0.711853 0.378204 0.267426
0.740021 0.386139 0.279266
0.768158 0.394257 0.291107
0.796570 0.402618 0.303040
0.824158 0.410950 0.314636
0.851776 0.419434 0.326233
0.879364 0.428040 0.337860
0.906952 0.436798 0.349457
0.103729 0.322571 0.103729
0.115936 0.322571 0.103729
0.128387 0.322571 0.103729
0.144409 0.322571 0.103729
0.163483 0.322571 0.103729
0.184357 0.322571 0.103729
0.206757 0.322571 0.103729
0.230560 0.322571 0.103729
0.255432 0.322571 0.103729
0.280792 0.322571 0.103729
0.305969 0.322571 0.103729
0.333282 0.323914 0.108246
0.363098 0.327972 0.120758
0.392883 0.332367 0.133331
0.421906 0.336975 0.145538
0.450928 0.341888 0.157715
0.480225 0.347198 0.170044
0.509460 0.352814 0.182312
0.538422 0.358643 0.194519
0.566650 0.364624 0.206390
0.595367 0.371002 0.218445
0.624054 0.377625 0.230499
0.652771 0.384491 0.242584
0.681030 0.391479 0.254486
0.709198 0.398682 0.266296
0.737335 0.406097 0.278137
0.765503 0.413696 0.289978
0.794861 0.421814 0.302307
0.824890 0.430359 0.314941
0.852509 0.438385 0.326538
0.880096 0.446564 0.338165
0.907715 0.454895 0.349762
0.117310 0.354828 0.117310
0.128265 0.354828 0.117310
0.139435 0.354828 0.117310
0.154175 0.354828 0.117310
0.172058 0.354828 0.117310
0.191895 0.354828 0.117310
0.213165 0.354828 0.117310
0.235992 0.354828 0.117310
0.260101 0.354828 0.117310
0.284882 0.354828 0.117310
0.309570 0.354828 0.117310
0.334686 0.354828 0.117310
0.361481 0.355652 0.120087
0.391266 0.359619 0.132629
0.420288 0.363800 0.144867
0.449005 0.368225 0.156921
0.478058 0.373016 0.169128
0.507324 0.378143 0.181396
0.536255 0.383484 0.193604
0.564423 0.388977 0.205444
0.592651 0.394714 0.217316
0.621368 0.400848 0.229370
0.650055 0.407196 0.241425
0.678314 0.413696 0.253326
0.706512 0.420380 0.265167
0.734680 0.427307 0.277039
0.762817 0.434418 0.288849
0.792206 0.442078 0.301208
0.823212 0.450378 0.314240
0.853241 0.458588 0.326874
0.880829 0.466339 0.338470
0.908447 0.474243 0.350098
0.130890 0.387085 0.130890
0.140808 0.387085 0.130890
0.151062 0.387085 0.130890
0.164520 0.387085 0.130890
0.181213 0.387085 0.130890
0.199982 0.387085 0.130890
0.220367 0.387085 0.130890
0.242157 0.387085 0.130890
0.265289 0.387085 0.130890
0.289490 0.387085 0.130890
0.313629 0.387085 0.130890
0.338287 0.387085 0.130890
0.363403 0.387085 0.130890
0.389648 0.387421 0.131958
0.418671 0.391205 0.144165
0.447388 0.395264 0.156250
0.476135 0.399567 0.168304
0.505157 0.404236 0.180511
0.534119 0.409149 0.192688
0.562256 0.414185 0.204529
0.590424 0.419495 0.216370
0.618683 0.425049 0.228271
0.647369 0.430939 0.240295
0.675629 0.436951 0.252197
0.703796 0.443207 0.264038
0.731995 0.449646 0.275909
0.760162 0.456299 0.287720
0.789520 0.463470 0.300079
0.820526 0.471283 0.313110
0.851532 0.479279 0.326141
0.881561 0.487244 0.338776
0.909180 0.494751 0.350403
0.144440 0.419342 0.144440
0.153473 0.419342 0.144440
0.162933 0.419342 0.144440
0.175415 0.419342 0.144440
0.190857 0.419342 0.144440
0.208588 0.419342 0.144440
0.228058 0.419342 0.144440
0.249023 0.419342 0.144440
0.271271 0.419342 0.144440
0.294525 0.419342 0.144440
0.318146 0.419342 0.144440
0.342316 0.419342 0.144440
0.367004 0.419342 0.144440
0.392120 0.419342 0.144440
0.417328 0.419342 0.144440
0.445770 0.422760 0.155548
0.474518 0.426727 0.167633
0.503235 0.430969 0.179718
0.531952 0.435455 0.191772
0.560120 0.440094 0.203613
0.588257 0.444977 0.215454
0.616425 0.450104 0.227295
0.644684 0.455475 0.239166
0.672943 0.461090 0.251068
0.701111 0.466888 0.262909
0.729309 0.472931 0.274750
0.757477 0.479156 0.286591
0.786865 0.485870 0.298950
0.817871 0.493195 0.311981
0.848877 0.500732 0.325012
0.879883 0.508514 0.338074
0.909912 0.516235 0.350708
0.157990 0.451599 0.157990
0.166168 0.451599 0.157990
0.174866 0.451599 0.157990
0.186493 0.451599 0.157990
0.200928 0.451599 0.157990
0.217499 0.451599 0.157990
0.235992 0.451599 0.157990
0.256134 0.451599 0.157990
0.277649 0.451599 0.157990
0.300049 0.451599 0.157990
0.322815 0.451599 0.157990
0.346497 0.451599 0.157990
0.370697 0.451599 0.157990
0.395447 0.451599 0.157990
0.420013 0.451599 0.157990
0.444946 0.451599 0.157990
0.472717 0.454315 0.166870
0.501434 0.458191 0.178955
0.530640 0.462402 0.191223
0.559784 0.466888 0.203491
0.587952 0.471436 0.215332
0.616119 0.476196 0.227173
0.644287 0.481171 0.239014
0.674469 0.486786 0.251709
0.702667 0.492218 0.263580
0.730835 0.497894 0.275421
0.759003 0.503754 0.287231
0.788635 0.510132 0.299713
0.819794 0.517090 0.312805
0.850800 0.524200 0.325836
0.881805 0.531555 0.338898
0.912811 0.539154 0.351898
0.171570 0.483856 0.171570
0.179047 0.483856 0.171570
0.186981 0.483856 0.171570
0.197784 0.483856 0.171570
0.211334 0.483856 0.171570
0.226959 0.483856 0.171570
0.244293 0.483856 0.171570
0.263580 0.483856 0.171570
0.284302 0.483856 0.171570
0.306091 0.483856 0.171570
0.328064 0.483856 0.171570
0.350983 0.483856 0.171570
0.374725 0.483856 0.171570
0.398987 0.483856 0.171570
0.423218 0.483856 0.171570
0.447571 0.483856 0.171570
0.472504 0.483856 0.171570
0.499573 0.485870 0.178192
0.528778 0.489746 0.190430
0.559235 0.494080 0.203247
0.588379 0.498474 0.215515
0.616547 0.502930 0.227356
0.644714 0.507599 0.239197
0.675293 0.512909 0.252045
0.705902 0.518463 0.264923
0.734070 0.523804 0.276764
0.762268 0.529358 0.288605
0.791870 0.535370 0.301056
0.823425 0.542023 0.314331
0.854584 0.548828 0.327423
0.885590 0.555786 0.340485
0.916595 0.563019 0.353516
0.185150 0.516144 0.185150
0.192047 0.516144 0.185150
0.199341 0.516144 0.185150
0.209320 0.516144 0.185150
0.222046 0.516144 0.185150
0.236847 0.516144 0.185150
0.253357 0.516144 0.185150
0.271545 0.516144 0.185150
0.291473 0.516144 0.185150
0.312592 0.516144 0.185150
0.333954 0.516144 0.185150
0.356140 0.516144 0.185150
0.379150 0.516144 0.185150
0.402954 0.516144 0.185150
0.426788 0.516144 0.185150
0.450836 0.516144 0.185150
0.475220 0.516144 0.185150
0.500061 0.516144 0.185150
0.526917 0.517517 0.189667
0.557373 0.521515 0.202454
0.587830 0.525787 0.215271
0.616974 0.530121 0.227539
0.645142 0.534485 0.239380
0.675720 0.539459 0.252228
0.706726 0.544769 0.265259
0.737305 0.550232 0.278137
0.765503 0.555450 0.289978
0.795135 0.561157 0.302429
0.826660 0.567474 0.315704
0.858215 0.574005 0.328979
0.889374 0.580658 0.342072
0.920380 0.587524 0.355103
0.198669 0.548401 0.198669
0.205139 0.548401 0.198669
0.211945 0.548401 0.198669
0.221252 0.548401 0.198669
0.233032 0.548401 0.198669
0.247009 0.548401 0.198669
0.262756 0.548401 0.198669
0.280212 0.548401 0.198669
0.299103 0.548401 0.198669
0.319458 0.548401 0.198669
0.340271 0.548401 0.198669
0.361877 0.548401 0.198669
0.384186 0.548401 0.198669
0.407318 0.548401 0.198669
0.430725 0.548401 0.198669
0.454407 0.548401 0.198669
0.478455 0.548401 0.198669
0.502808 0.548401 0.198669
0.528046 0.548401 0.198669
0.555511 0.549286 0.201660
0.585968 0.553253 0.214478
0.616425 0.557495 0.227295
0.645569 0.561737 0.239563
0.676147 0.566406 0.252411
0.707153 0.571411 0.265442
0.738159 0.576630 0.278473
0.768738 0.581970 0.291351
0.798370 0.587402 0.303802
0.829895 0.593384 0.317047
0.861450 0.599579 0.330322
0.893005 0.605988 0.343597
0.924164 0.612549 0.356689
0.212280 0.580658 0.212280
0.218231 0.580658 0.212280
0.224579 0.580658 0.212280
0.233276 0.580658 0.212280
0.244354 0.580658 0.212280
0.257477 0.580658 0.212280
0.272430 0.580658 0.212280
0.289154 0.580658 0.212280
0.307343 0.580658 0.212280
0.326874 0.580658 0.212280
0.347198 0.580658 0.212280
0.368256 0.580658 0.212280
0.390106 0.580658 0.212280
0.412598 0.580658 0.212280
0.435944 0.580658 0.212280
0.459259 0.580658 0.212280
0.482941 0.580658 0.212280
0.506989 0.580658 0.212280
0.531952 0.580658 0.212280
0.558258 0.580658 0.212280
0.585419 0.581238 0.214264
0.615845 0.585205 0.227051
0.646301 0.589386 0.239868
0.677368 0.593872 0.252930
0.708374 0.598572 0.265961
0.739380 0.603516 0.278992
0.770386 0.608643 0.292023
0.801758 0.614075 0.305237
0.833313 0.619781 0.318481
0.864838 0.625671 0.331726
0.896393 0.631775 0.345001
0.927948 0.638123 0.358276
0.225830 0.612915 0.225830
0.231323 0.612915 0.225830
0.237274 0.612915 0.225830
0.245392 0.612915 0.225830
0.255829 0.612915 0.225830
0.268158 0.612915 0.225830
0.282288 0.612915 0.225830
0.298248 0.612915 0.225830
0.315765 0.612915 0.225830
0.334656 0.612915 0.225830
0.355042 0.612915 0.225830
0.375702 0.612915 0.225830
0.397064 0.612915 0.225830
0.419098 0.612915 0.225830
0.442719 0.612915 0.225830
0.466553 0.612915 0.225830
0.489960 0.612915 0.225830
0.513733 0.612915 0.225830
0.538422 0.612915 0.225830
0.564941 0.612915 0.225830
0.591278 0.612915 0.225830
0.618561 0.613617 0.228210
0.649017 0.617584 0.240997
0.680389 0.621857 0.254211
0.711609 0.626373 0.267303
0.742615 0.631042 0.280334
0.773621 0.635925 0.293396
0.805084 0.641113 0.306610
0.837067 0.646606 0.320068
0.868622 0.652222 0.333344
0.900177 0.658081 0.346588
0.931702 0.664093 0.359863
0.239380 0.645172 0.239380
0.244537 0.645172 0.239380
0.250031 0.645172 0.239380
0.257629 0.645172 0.239380
0.267456 0.645172 0.239380
0.279205 0.645172 0.239380
0.292572 0.645172 0.239380
0.307709 0.645172 0.239380
0.324524 0.645172 0.239380
0.342743 0.645172 0.239380
0.362518 0.645172 0.239380
0.383331 0.645172 0.239380
0.404327 0.645172 0.239380
0.425903 0.645172 0.239380
0.449097 0.645172 0.239380
0.473236 0.645172 0.239380
0.497253 0.645172 0.239380
0.520721 0.645172 0.239380
0.545135 0.645172 0.239380
0.571381 0.645172 0.239380
0.597931 0.645172 0.239380
0.624298 0.645172 0.239380
0.651703 0.645996 0.242126
0.683075 0.650085 0.255341
0.714630 0.654388 0.268585
0.745850 0.658844 0.281708
0.776855 0.663513 0.294739
0.808319 0.668457 0.307983
0.840393 0.673706 0.321472
0.872406 0.679138 0.334930
0.903961 0.684692 0.348206
0.935486 0.690460 0.361450
0.252960 0.677429 0.252960
0.257782 0.677429 0.252960
0.262970 0.677429 0.252960
0.270050 0.677429 0.252960
0.279327 0.677429 0.252960
0.290405 0.677429 0.252960
0.303192 0.677429 0.252960
0.317596 0.677429 0.252960
0.333618 0.677429 0.252960
0.351196 0.677429 0.252960
0.370331 0.677429 0.252960
0.390564 0.677429 0.252960
0.411774 0.677429 0.252960
0.433044 0.677429 0.252960
0.455780 0.677429 0.252960
0.479523 0.677429 0.252960
0.503845 0.677429 0.252960
0.527924 0.677429 0.252960
0.552063 0.677429 0.252960
0.578033 0.677429 0.252960
0.604340 0.677429 0.252960
0.630951 0.677429 0.252960
0.657318 0.677429 0.252960
0.685791 0.678467 0.256470
0.717316 0.682587 0.269714
0.748840 0.686890 0.282990
0.780090 0.691345 0.296112
0.811554 0.696045 0.309357
0.843628 0.701050 0.322845
0.875702 0.706268 0.336304
0.907715 0.711670 0.349762
0.939270 0.717194 0.363037
0.266510 0.709686 0.266510
0.271088 0.709686 0.266510
0.275970 0.709686 0.266510
0.282684 0.709686 0.266510
0.291321 0.709686 0.266510
0.301819 0.709686 0.266510
0.314026 0.709686 0.266510
0.327820 0.709686 0.266510
0.343170 0.709686 0.266510
0.359955 0.709686 0.266510
0.378479 0.709686 0.266510
0.398163 0.709686 0.266510
0.418793 0.709686 0.266510
0.440308 0.709686 0.266510
0.462738 0.709686 0.266510
0.486084 0.709686 0.266510
0.510010 0.709686 0.266510
0.534454 0.709686 0.266510
0.559204 0.709686 0.266510
0.584930 0.709686 0.266510
0.610992 0.709686 0.266510
0.637329 0.709686 0.266510
0.663971 0.709686 0.266510
0.691162 0.709686 0.266510
0.720001 0.710999 0.270844
0.751556 0.715088 0.284119
0.783081 0.719391 0.297363
0.814789 0.723907 0.310699
0.846863 0.728699 0.324188
0.878967 0.733673 0.337677
0.911041 0.738861 0.351166
0.943054 0.744232 0.364624
0.280060 0.741943 0.280060
0.284393 0.741943 0.280090
0.289032 0.741943 0.280090
0.295380 0.741943 0.280090
0.303619 0.741943 0.280090
0.313843 0.741943 0.280090
0.325653 0.741943 0.280090
0.338989 0.741943 0.280090
0.353790 0.741943 0.280090
0.370056 0.741943 0.280090
0.388306 0.741943 0.280090
0.407501 0.741943 0.280090
0.427673 0.741943 0.280090
0.448761 0.741943 0.280090
0.471161 0.741943 0.280090
0.494202 0.741943 0.280060
0.517792 0.741943 0.280060
0.541870 0.741943 0.280060
0.566711 0.741943 0.280060
0.592407 0.741943 0.280060
0.618195 0.741943 0.280060
0.644287 0.741943 0.280060
0.670715 0.741943 0.280060
0.698181 0.741943 0.280060
0.725555 0.741943 0.280060
0.754700 0.743561 0.285431
0.786255 0.747681 0.298706
0.818237 0.752045 0.312134
0.850555 0.756653 0.325714
0.882660 0.761414 0.339233
0.914734 0.766388 0.352722
0.946838 0.771545 0.366211
0.293640 0.774200 0.293640
0.297729 0.774200 0.293640
0.302124 0.774200 0.293640
0.308167 0.774200 0.293640
0.316040 0.774200 0.293640
0.325775 0.774200 0.293640
0.337433 0.774200 0.293640
0.350403 0.774200 0.293640
0.364716 0.774200 0.293640
0.380524 0.774200 0.293640
0.398376 0.774200 0.293640
0.417328 0.774200 0.293640
0.437042 0.774200 0.293640
0.457703 0.774200 0.293640
0.479706 0.774200 0.293640
0.502686 0.774200 0.293640
0.526001 0.774200 0.293640
0.549774 0.774200 0.293640
0.574280 0.774200 0.293640
0.599854 0.774200 0.293640
0.625641 0.774200 0.293640
0.651550 0.774200 0.293640
0.677704 0.774200 0.293640
0.704987 0.774200 0.293640
0.732605 0.774200 0.293640
0.759979 0.774200 0.293640
0.789490 0.776123 0.300049
0.821503 0.780334 0.313538
0.854126 0.784790 0.327240
0.886444 0.789398 0.340820
0.918518 0.794159 0.354309
0.950623 0.799103 0.367798
0.307190 0.806458 0.307190
0.311096 0.806458 0.307190
0.315247 0.806458 0.307190
0.321014 0.806458 0.307190
0.328522 0.806458 0.307190
0.337830 0.806458 0.307190
0.348999 0.806458 0.307190
0.361816 0.806458 0.307190
0.375824 0.806458 0.307190
0.391144 0.806458 0.307190
0.408508 0.806458 0.307190
0.427094 0.806458 0.307190
0.446594 0.806458 0.307190
0.466858 0.806458 0.307190
0.488464 0.806458 0.307190
0.511047 0.806458 0.307190
0.534332 0.806458 0.307190
0.557831 0.806458 0.307190
0.582031 0.806458 0.307190
0.607361 0.806458 0.307190
0.633057 0.806458 0.307190
0.658936 0.806458 0.307190
0.684906 0.806458 0.307190
0.711945 0.806458 0.307190
0.739380 0.806458 0.307190
0.767059 0.806458 0.307190
0.794464 0.806458 0.307190
0.824738 0.808777 0.314880
0.857361 0.813049 0.328613
0.889984 0.817505 0.342316
0.922302 0.822113 0.355927
0.954376 0.826874 0.369385
0.320770 0.838715 0.320770
0.324432 0.838715 0.320770
0.328430 0.838715 0.320770
0.333923 0.838715 0.320770
0.341095 0.838715 0.320770
0.350006 0.838715 0.320770
0.360718 0.838715 0.320770
0.373047 0.838715 0.320770
0.386932 0.838715 0.320770
0.401947 0.838715 0.320770
0.418854 0.838715 0.320770
0.436951 0.838715 0.320770
0.456146 0.838715 0.320770
0.476227 0.838715 0.320770
0.497406 0.838715 0.320770
0.519592 0.838715 0.320770
0.542542 0.838715 0.320770
0.566040 0.838715 0.320770
0.589996 0.838715 0.320770
0.614990 0.838715 0.320770
0.640442 0.838715 0.320770
0.666260 0.838715 0.320770
0.692230 0.838715 0.320770
0.719055 0.838715 0.320770
0.746277 0.838715 0.320770
0.773773 0.838715 0.320770
0.801483 0.838715 0.320770
0.829315 0.838715 0.320770
0.860596 0.841492 0.329956
0.893219 0.845795 0.343689
0.925842 0.850250 0.357391
0.958160 0.854858 0.370972
0.334351 0.870972 0.334351
0.337860 0.870972 0.334351
0.341675 0.870972 0.334351
0.346924 0.870972 0.334351
0.353760 0.870972 0.334351
0.362427 0.870972 0.334351
0.372742 0.870972 0.334351
0.384644 0.870972 0.334351
0.398071 0.870972 0.334351
0.412994 0.870972 0.334351
0.429474 0.870972 0.334351
0.447144 0.870972 0.334351
0.465912 0.870972 0.334351
0.485657 0.870972 0.334351
0.506683 0.870972 0.334351
0.528534 0.870972 0.334351
