images/nph.auh/Contents/History/resources/CCA4CBED-2E98-46E5-B332-51DCC56087ED.cube
#Created by: Adobe Photoshop Export Color Lookup Plugin
#Copyright: (C) Copyright 2017 ©ThinkTAP
TITLE "Cool Midtones"
#LUT size
LUT_3D_SIZE 5
#data domain
#LUT data points
DOMAIN_MIN 0.000000 0.000000 0.000000
DOMAIN_MAX 0.903226 0.903226 0.903226
0.000000 0.000000 0.000000
0.222443 0.080475 0.080475
0.439270 0.152802 0.152802
0.649811 0.241333 0.241333
0.854279 0.327301 0.327301
0.080292 0.225800 0.080292
0.217651 0.225800 0.080292
0.427155 0.261475 0.147736
0.631531 0.315369 0.233643
0.830078 0.378815 0.317139
0.157990 0.451599 0.157990
0.256134 0.451599 0.157990
0.420013 0.451599 0.157990
0.616119 0.476196 0.227173
0.819794 0.517090 0.312805
0.252960 0.677429 0.252960
0.317596 0.677429 0.252960
0.455780 0.677429 0.252960
0.630951 0.677429 0.252960
0.843628 0.701050 0.322845
0.347900 0.903229 0.347900
0.396606 0.903229 0.347900
0.516144 0.903229 0.347900
0.681671 0.903229 0.347900
0.872375 0.903229 0.347900
0.080200 0.080200 0.227203
0.222839 0.079987 0.230927
0.436920 0.151825 0.269806
0.646271 0.239838 0.326721
0.849579 0.325317 0.392700
0.079773 0.227203 0.234497
0.212219 0.217072 0.222656
0.392761 0.276520 0.284088
0.609406 0.344177 0.353210
0.817780 0.409485 0.418884
0.157990 0.451599 0.277985
0.275146 0.424011 0.292908
0.393616 0.417847 0.298950
0.591309 0.474457 0.355774
0.815521 0.535522 0.423615
0.252960 0.677429 0.341858
0.346558 0.664154 0.366547
0.467987 0.659393 0.374908
0.621094 0.659760 0.372711
0.841064 0.703949 0.426971
0.347900 0.903229 0.414001
0.425964 0.899719 0.439331
0.539642 0.898743 0.445801
0.692322 0.898834 0.443481
0.873413 0.898956 0.441315
0.160187 0.160187 0.456818
0.265930 0.163086 0.463654
0.439270 0.165955 0.470520
0.642822 0.238403 0.501740
0.844971 0.323395 0.546814
0.165833 0.271545 0.470245
0.286560 0.292511 0.450439
0.413086 0.296844 0.455688
0.605743 0.343079 0.505066
0.816040 0.408905 0.562592
0.171509 0.455750 0.483704
0.287384 0.437531 0.465729
0.419495 0.437042 0.457672
0.572021 0.488403 0.510529
0.806458 0.574432 0.595459
0.252960 0.677429 0.523773
0.346802 0.664093 0.523712
0.489929 0.640503 0.530396
0.610687 0.636963 0.536407
0.831879 0.716034 0.604004
0.347900 0.903229 0.566711
0.426636 0.899689 0.575470
0.582825 0.891357 0.610321
0.717621 0.889465 0.618439
0.870972 0.889740 0.613220
0.257843 0.257843 0.689117
0.332367 0.262207 0.699463
0.478577 0.266418 0.709473
0.650055 0.270782 0.719818
0.840332 0.321442 0.744781
0.266388 0.339233 0.709412
0.365204 0.371033 0.707977
0.485809 0.377502 0.717224
0.633698 0.380951 0.728119
0.814972 0.408569 0.751373
0.274658 0.497528 0.729034
0.368042 0.508026 0.728943
0.513824 0.534332 0.715210
0.631775 0.541412 0.711670
0.811676 0.576202 0.744354
0.283173 0.686951 0.749298
0.368805 0.679321 0.731537
0.513947 0.665680 0.704254
0.653015 0.672638 0.695465
0.833374 0.741150 0.759247
0.347900 0.903229 0.759766
0.427368 0.899658 0.753937
0.584595 0.891266 0.756927
0.747650 0.885010 0.774445
0.873108 0.885193 0.776093
0.356598 0.356598 0.923950
0.412842 0.362366 0.937653
0.534149 0.368042 0.951141
0.688629 0.373718 0.964630
0.855225 0.379456 0.978333
0.367920 0.420898 0.950867
0.448700 0.453918 0.963287
0.555084 0.462280 0.977142
0.692200 0.467041 0.991180
0.851837 0.467102 0.991333
0.379059 0.555542 0.977325
0.454468 0.575531 0.988190
0.602356 0.623230 0.995483
0.727631 0.633118 0.987427
0.870483 0.628235 0.971893
0.387085 0.727692 0.996460
0.454498 0.734283 0.986542
0.602478 0.754944 0.973053
0.766602 0.786896 0.954926
0.887024 0.787567 0.938354
0.378571 0.912781 0.976196
0.449036 0.911255 0.961151
0.602661 0.908081 0.942688
0.765991 0.903137 0.922821
0.900848 0.908295 0.916687
