images/nph.auh/Contents/History/resources/CCA4CBED-2E98-46E5-B332-51DCC56087ED.cube
#Created by: Adobe Photoshop Export Color Lookup Plugin
#Copyright: (C) Copyright 2017 ©ThinkTAP
TITLE "Cool Midtones"
#LUT size
LUT_3D_SIZE 8
#data domain
#LUT data points
DOMAIN_MIN 0.000000 0.000000 0.000000
DOMAIN_MAX 0.903226 0.903226 0.903226
0.000000 0.000000 0.000000
0.127930 0.067047 0.067047
0.253876 0.079620 0.079620
0.377899 0.127014 0.127014
0.499969 0.178345 0.178345
0.620026 0.228821 0.228821
0.738129 0.278473 0.278473
0.854279 0.327301 0.327301
0.067474 0.129028 0.067474
0.126984 0.129028 0.067474
0.249817 0.152283 0.079437
0.371887 0.181000 0.124481
0.492035 0.218262 0.175018
0.610168 0.259033 0.224670
0.726349 0.301605 0.273529
0.840546 0.345123 0.321533
0.079956 0.258057 0.079956
0.149323 0.258057 0.079956
0.247406 0.258057 0.079956
0.365845 0.274323 0.121918
0.484070 0.298187 0.171631
0.600281 0.326874 0.220520
0.714539 0.359131 0.268555
0.826843 0.393982 0.315765
0.130890 0.387085 0.130890
0.181213 0.387085 0.130890
0.265289 0.387085 0.130890
0.363403 0.387085 0.130890
0.476135 0.399567 0.168304
0.590424 0.419495 0.216370
0.703796 0.443207 0.264038
0.820526 0.471283 0.313110
0.185150 0.516144 0.185150
0.222046 0.516144 0.185150
0.291473 0.516144 0.185150
0.379150 0.516144 0.185150
0.475220 0.516144 0.185150
0.587830 0.525787 0.215271
0.706726 0.544769 0.265259
0.826660 0.567474 0.315704
0.239380 0.645172 0.239380
0.267456 0.645172 0.239380
0.324524 0.645172 0.239380
0.404327 0.645172 0.239380
0.497253 0.645172 0.239380
0.597931 0.645172 0.239380
0.714630 0.654388 0.268585
0.840393 0.673706 0.321472
0.293640 0.774200 0.293640
0.316040 0.774200 0.293640
0.364716 0.774200 0.293640
0.437042 0.774200 0.293640
0.526001 0.774200 0.293640
0.625641 0.774200 0.293640
0.732605 0.774200 0.293640
0.854126 0.784790 0.327240
0.347900 0.903229 0.347900
0.366608 0.903229 0.347900
0.409607 0.903229 0.347900
0.476044 0.903229 0.347900
0.560089 0.903229 0.347900
0.656372 0.903229 0.347900
0.761261 0.903229 0.347900
0.872375 0.903229 0.347900
0.067657 0.067657 0.129486
0.128693 0.068115 0.130707
0.253082 0.079559 0.154602
0.376709 0.126526 0.184784
0.498413 0.177704 0.222870
0.618103 0.228027 0.264374
0.735840 0.277527 0.307678
0.851624 0.326202 0.351868
0.068573 0.130127 0.131897
0.126831 0.128448 0.130249
0.226044 0.158691 0.161072
0.353027 0.196991 0.199890
0.478363 0.235809 0.238892
0.600189 0.275696 0.278809
0.719025 0.316864 0.319946
0.835205 0.358917 0.361938
0.079956 0.258057 0.156738
0.157593 0.235962 0.163300
0.225464 0.233704 0.165192
0.345093 0.269836 0.200439
0.468719 0.303986 0.239166
0.588928 0.337006 0.278473
0.706146 0.371002 0.318756
0.820709 0.406372 0.359894
0.130890 0.387085 0.189789
0.197418 0.371643 0.204803
0.265594 0.368530 0.208374
0.347107 0.368317 0.209076
0.460052 0.392303 0.237946
0.578461 0.420593 0.276398
0.697388 0.449280 0.316620
0.818604 0.480255 0.359253
0.185150 0.516144 0.230896
0.238586 0.506256 0.246796
0.300934 0.503448 0.251526
0.377716 0.503296 0.252228
0.466217 0.503265 0.252380
0.578644 0.519714 0.276367
0.701385 0.545471 0.317474
0.826019 0.572418 0.361206
0.239380 0.645172 0.276276
0.282471 0.639130 0.290924
0.338013 0.636993 0.295990
0.410583 0.637024 0.295807
0.497467 0.637054 0.295563
0.593689 0.637146 0.295166
0.710999 0.651031 0.319824
0.840149 0.675446 0.365265
0.293640 0.774200 0.324097
0.329590 0.770813 0.337097
0.379089 0.769623 0.341553
0.446716 0.769653 0.341064
0.531342 0.769714 0.340515
0.627411 0.769775 0.339935
0.731323 0.769836 0.339386
0.854218 0.784119 0.369385
0.347900 0.903229 0.373138
0.379211 0.901886 0.384918
0.423492 0.901489 0.388367
0.486664 0.901520 0.387878
0.567688 0.901520 0.387360
0.661438 0.901550 0.386871
0.764160 0.901581 0.386353
0.873566 0.901611 0.385895
0.080139 0.080139 0.259796
0.152130 0.080475 0.262115
0.253876 0.080902 0.264435
0.375549 0.126038 0.283020
0.496887 0.177032 0.309021
0.616211 0.227234 0.339691
0.733551 0.276550 0.373779
0.848969 0.325073 0.410309
0.080872 0.153809 0.264343
0.160767 0.162720 0.244324
0.232239 0.163879 0.245941
0.351807 0.196625 0.280396
0.476746 0.235291 0.315063
0.598206 0.275024 0.348602
0.716675 0.316040 0.383240
0.832489 0.357910 0.419159
0.081879 0.259460 0.268890
0.160919 0.240448 0.249390
0.240601 0.246704 0.253693
0.327362 0.274109 0.282257
0.447327 0.316467 0.326172
0.571136 0.355927 0.366760
0.692871 0.393280 0.404755
0.811676 0.430023 0.441925
0.130890 0.387085 0.290375
0.197174 0.371704 0.288727
0.271820 0.351593 0.290192
0.333832 0.349609 0.295898
0.435699 0.383881 0.328583
0.556702 0.425751 0.370331
0.683411 0.464508 0.409821
0.812286 0.501740 0.448608
0.185150 0.516144 0.319763
0.238342 0.506287 0.326019
0.314575 0.488312 0.337860
0.380371 0.480988 0.345551
0.451385 0.481079 0.345032
0.560028 0.509003 0.370331
0.688751 0.548248 0.409851
0.821381 0.584473 0.449219
0.239380 0.645172 0.354523
0.282257 0.639160 0.363556
0.355927 0.626526 0.380249
0.425781 0.620117 0.389526
0.498871 0.620270 0.388763
0.583466 0.620514 0.387543
0.700592 0.644226 0.410522
0.836304 0.679840 0.450714
0.293640 0.774200 0.392334
0.329590 0.770813 0.401184
0.399200 0.763214 0.420563
0.468750 0.759460 0.430237
0.543030 0.759674 0.428680
0.629974 0.759857 0.427155
0.726044 0.760040 0.425598
0.851135 0.782684 0.452240
0.347900 0.903229 0.431763
0.379364 0.901886 0.440002
0.445129 0.898773 0.461456
0.511414 0.897491 0.470001
0.584808 0.897552 0.468475
0.671783 0.897644 0.466949
0.768707 0.897736 0.465424
0.873138 0.897797 0.463928
0.132507 0.132507 0.390961
0.186249 0.133942 0.394379
0.275024 0.135376 0.397766
0.377869 0.136810 0.401184
0.495331 0.176361 0.417175
0.614288 0.226410 0.440430
0.731262 0.275604 0.467102
0.846283 0.323944 0.496552
0.135315 0.188568 0.397644
0.203888 0.205902 0.385712
0.274567 0.207825 0.388519
0.361755 0.208923 0.392090
0.475189 0.234802 0.414703
0.596252 0.274353 0.444427
0.714325 0.315186 0.473907
0.829803 0.356934 0.504364
0.138123 0.281433 0.404327
0.204834 0.282471 0.393066
0.282410 0.289459 0.375916
0.347046 0.292511 0.377777
0.445648 0.315918 0.405731
0.569061 0.355286 0.448212
0.690430 0.392517 0.485382
0.810883 0.429779 0.520111
0.140961 0.390167 0.411011
0.205750 0.378937 0.400360
0.282471 0.364105 0.383392
0.358093 0.371887 0.388062
0.434082 0.394287 0.411285
0.545227 0.436768 0.455994
0.673309 0.482178 0.501801
0.806549 0.525513 0.544342
0.185150 0.516144 0.431366
0.238129 0.506348 0.429626
0.314087 0.488434 0.424622
0.387543 0.474365 0.424500
0.455719 0.477692 0.434326
0.547668 0.507050 0.461151
0.675476 0.557129 0.508057
0.814758 0.604675 0.552765
0.239380 0.645172 0.459167
0.282227 0.639160 0.462433
0.356079 0.626495 0.465851
0.437439 0.611267 0.474091
0.507751 0.605011 0.482422
0.575897 0.605225 0.480438
0.688782 0.638977 0.508270
0.830566 0.688538 0.552917
0.293640 0.774200 0.488007
0.329712 0.770813 0.492126
0.399567 0.763184 0.501312
0.486206 0.752441 0.518219
0.562042 0.747375 0.528320
0.635559 0.747620 0.525970
0.719452 0.747894 0.523651
0.846283 0.782074 0.552979
0.347900 0.903229 0.517212
0.379517 0.901886 0.521362
0.445618 0.898743 0.535004
0.534546 0.894012 0.559418
0.611633 0.892059 0.570007
0.688019 0.892181 0.567505
0.775543 0.892334 0.564972
0.871674 0.892456 0.562469
0.188049 0.188049 0.523010
0.228912 0.189911 0.527496
0.304321 0.191772 0.531982
0.398346 0.193695 0.536499
0.500000 0.195587 0.540985
0.612366 0.225616 0.554291
0.728973 0.274628 0.576141
0.843628 0.322845 0.600525
0.191742 0.231628 0.531830
0.248199 0.250061 0.526520
0.312469 0.252594 0.530579
0.395386 0.254120 0.535248
0.487885 0.255646 0.539886
0.594269 0.273682 0.554321
0.711975 0.314362 0.580872
0.827057 0.355927 0.607574
0.195435 0.311554 0.540649
0.250061 0.320038 0.535858
0.329926 0.337463 0.523193
0.397614 0.341736 0.525635
0.473907 0.343262 0.530457
0.566986 0.354645 0.545349
0.687988 0.391785 0.583313
0.810303 0.429596 0.616333
0.199127 0.411865 0.549469
0.251953 0.412201 0.545166
0.330261 0.414185 0.533234
0.407593 0.423157 0.522644
0.470673 0.429230 0.525208
0.545715 0.436951 0.534210
0.674347 0.482513 0.583252
0.807739 0.525879 0.626465
0.202850 0.521637 0.558289
0.253845 0.515961 0.554474
0.330566 0.505676 0.543304
0.407501 0.496277 0.527588
0.483276 0.503510 0.527344
0.557861 0.523254 0.544983
0.673248 0.570160 0.592316
0.812256 0.623993 0.645020
0.239380 0.645172 0.577393
0.282318 0.639130 0.574615
0.356201 0.626465 0.566559
0.437836 0.611206 0.558228
0.515686 0.603516 0.558533
0.588989 0.611298 0.570404
0.686157 0.644196 0.599091
0.826630 0.703186 0.652771
0.293640 0.774200 0.599121
0.329834 0.770813 0.598450
0.400055 0.763123 0.598236
0.487061 0.752350 0.601410
0.574524 0.742676 0.610962
0.648102 0.740173 0.618805
0.717590 0.740234 0.615936
0.842682 0.784821 0.652710
0.347900 0.903229 0.619263
0.379669 0.901886 0.619537
0.446106 0.898712 0.625702
0.535370 0.893951 0.639191
0.631683 0.888794 0.660187
0.709900 0.887085 0.669159
0.785461 0.887238 0.665924
0.870605 0.887360 0.662720
0.243835 0.243835 0.655823
0.276428 0.246216 0.661407
0.340393 0.248566 0.666992
0.425110 0.250916 0.672577
0.520264 0.253265 0.678162
0.620239 0.255615 0.683746
0.726685 0.273682 0.694031
0.840942 0.321716 0.715118
0.248505 0.279541 0.666779
0.295471 0.297211 0.666473
0.352295 0.300232 0.671783
0.428711 0.302216 0.677521
0.516693 0.304230 0.683228
0.610504 0.306274 0.688995
0.709625 0.313507 0.697174
0.824341 0.354919 0.721741
0.253082 0.348358 0.677734
0.298462 0.359711 0.677856
0.375122 0.382660 0.672241
0.441956 0.388214 0.676361
0.517548 0.390045 0.682343
0.600586 0.391876 0.688324
0.688202 0.393433 0.693420
0.810059 0.429504 0.723480
0.257690 0.439819 0.688721
0.301422 0.445465 0.689209
0.376068 0.457275 0.684326
0.459503 0.476166 0.677246
0.527161 0.484192 0.679321
0.597565 0.483673 0.677795
0.675598 0.483063 0.675934
0.808868 0.526245 0.720520
0.262329 0.543549 0.699677
0.304443 0.544800 0.700500
0.376984 0.547485 0.696075
0.459595 0.551300 0.680664
0.539398 0.561066 0.667969
0.604156 0.567017 0.665466
0.675659 0.571167 0.667755
0.815277 0.625092 0.723755
0.266907 0.653809 0.710632
0.305603 0.650543 0.704590
0.376801 0.643707 0.693054
0.459808 0.634857 0.676697
0.539703 0.629211 0.661804
0.618073 0.638580 0.662506
0.698334 0.660828 0.680969
0.828400 0.718597 0.737518
0.293640 0.774200 0.718567
0.329987 0.770782 0.713043
0.400574 0.763062 0.704376
0.487885 0.752258 0.695099
0.575562 0.742584 0.689636
0.658081 0.740997 0.693970
0.730011 0.747589 0.702698
0.844208 0.793793 0.743500
0.347900 0.903229 0.730743
0.379822 0.901855 0.727600
0.446625 0.898682 0.727081
0.536255 0.893921 0.730499
0.632782 0.888763 0.738892
0.725616 0.885284 0.752991
0.799316 0.884979 0.758209
0.872040 0.884979 0.754608
0.300049 0.300049 0.789490
0.326996 0.302856 0.796143
0.381622 0.305695 0.802826
0.457489 0.308472 0.809509
0.545746 0.311279 0.816162
0.640564 0.314087 0.822845
0.738617 0.316895 0.829529
0.838287 0.320587 0.836365
0.305573 0.330536 0.802582
0.345612 0.347168 0.806244
0.395508 0.350708 0.812836
0.464874 0.353180 0.819611
0.547211 0.355682 0.826447
0.636841 0.358185 0.833252
0.730316 0.360687 0.840057
0.825623 0.363159 0.846710
0.311096 0.390411 0.815674
0.349670 0.402832 0.819641
0.420929 0.428192 0.820709
0.484650 0.434753 0.826752
0.557220 0.436981 0.833801
0.638214 0.439209 0.840881
0.725739 0.440308 0.844360
0.818542 0.440521 0.845123
0.316589 0.473389 0.828796
0.353790 0.481720 0.833069
0.422729 0.498901 0.834747
0.508087 0.525085 0.834839
0.578094 0.534882 0.836395
0.649597 0.534332 0.834656
0.729706 0.533386 0.831635
0.816345 0.532318 0.828186
0.322113 0.570587 0.841888
0.357941 0.575592 0.846436
0.424194 0.585175 0.845520
0.508392 0.599243 0.835602
0.596680 0.619049 0.825195
0.666962 0.627167 0.820892
0.736023 0.624359 0.813263
0.818298 0.626221 0.811096
0.326508 0.675690 0.852356
0.358704 0.676605 0.848816
0.423950 0.679230 0.842377
0.508698 0.683563 0.830688
0.597137 0.690063 0.815460
0.680054 0.701202 0.803619
0.745392 0.704590 0.796783
0.831390 0.719879 0.810028
0.326385 0.784485 0.852081
0.357025 0.782440 0.843170
0.422638 0.778412 0.831024
0.508575 0.772400 0.815887
0.597473 0.766205 0.800201
0.680145 0.764008 0.789062
0.759491 0.774933 0.792603
0.853027 0.807770 0.822144
0.347900 0.903229 0.847565
0.379974 0.901855 0.841339
0.447113 0.898651 0.834930
0.537109 0.893860 0.829254
0.633972 0.888702 0.825836
0.726898 0.885254 0.826599
0.811249 0.886658 0.833832
0.879303 0.888916 0.835968
0.356598 0.356598 0.923950
0.379669 0.359863 0.931732
0.426880 0.363129 0.939484
0.494720 0.366394 0.947266
0.576080 0.369659 0.955017
0.665405 0.372925 0.962799
0.759186 0.376190 0.970551
0.855225 0.379456 0.978333
0.363007 0.383575 0.939209
0.397980 0.399384 0.946198
0.441956 0.403381 0.954041
0.504608 0.406372 0.961914
0.580933 0.409363 0.969818
0.665680 0.412384 0.977692
0.755371 0.415375 0.985596
0.847717 0.418396 0.993469
0.369446 0.436432 0.954468
0.403137 0.449310 0.961700
0.468628 0.475494 0.968628
0.528351 0.482880 0.976624
0.596863 0.485535 0.984772
0.674500 0.488251 0.992950
0.760101 0.488800 0.994659
0.852356 0.488281 0.993103
0.375854 0.511719 0.969696
0.408325 0.521576 0.977173
0.471497 0.541687 0.984589
0.555695 0.572510 0.992401
0.625610 0.583252 0.992798
0.696167 0.582489 0.990326
0.776154 0.581451 0.986969
0.864075 0.579651 0.981049
0.382263 0.602448 0.984955
0.413544 0.609680 0.992615
0.473175 0.622864 0.993317
0.556000 0.643677 0.989685
0.649963 0.672272 0.985657
0.724518 0.682678 0.980377
0.796021 0.679657 0.971344
0.876251 0.676636 0.962341
0.386169 0.701752 0.994293
0.413635 0.705048 0.992706
0.472626 0.713013 0.988861
0.556061 0.726166 0.981873
0.650543 0.744019 0.972076
0.744324 0.765625 0.961670
0.815491 0.770691 0.952087
0.885254 0.766937 0.942810
0.384979 0.805664 0.991425
0.410553 0.806335 0.983459
0.470184 0.809418 0.974823
0.555389 0.815033 0.965179
0.651001 0.822815 0.954468
0.744537 0.832367 0.943481
0.828186 0.843658 0.933960
0.891907 0.843536 0.925537
0.378571 0.912781 0.976196
0.405365 0.911957 0.967987
0.467377 0.910980 0.958862
0.554749 0.909271 0.948364
0.651276 0.906677 0.936768
0.744385 0.903687 0.925293
0.826996 0.902283 0.916473
0.900848 0.908295 0.916687
