images/nph.auh/Contents/History/resources/D35A8166-0BE5-4383-BE26-1A588F9B516B.cube
# Created by: Adobe Lightroom Export LUT Plugin
LUT_3D_SIZE 8
DOMAIN_MIN 0.000000 0.000000 0.000000
DOMAIN_MAX 0.903226 0.903226 0.903226
0.000000 0.000000 0.000000
0.065370 0.032593 0.033112
0.169345 0.060487 0.060182
0.301915 0.065919 0.063630
0.453956 0.107851 0.104219
0.622644 0.161990 0.157534
0.798978 0.233341 0.228641
0.955627 0.336889 0.333227
0.035309 0.067536 0.035370
0.069612 0.070466 0.039734
0.166232 0.097383 0.060731
0.296818 0.116548 0.067170
0.450263 0.152316 0.108064
0.620539 0.199008 0.160311
0.797940 0.262577 0.231083
0.955047 0.357946 0.335882
0.063813 0.163394 0.064881
0.097017 0.163821 0.065644
0.164401 0.165896 0.068269
0.283574 0.198276 0.079103
0.439948 0.241947 0.119234
0.613977 0.288212 0.169375
0.794491 0.343969 0.239628
0.953094 0.422553 0.345159
0.087037 0.283696 0.089082
0.122408 0.284337 0.090242
0.199619 0.286687 0.094911
0.288670 0.291569 0.103090
0.428382 0.334386 0.134676
0.605554 0.390967 0.183078
0.789731 0.448310 0.253483
0.949981 0.515160 0.361334
0.140780 0.434730 0.143801
0.170443 0.435370 0.144778
0.246433 0.437507 0.148348
0.340703 0.441596 0.155001
0.443458 0.447761 0.164645
0.598108 0.495216 0.199924
0.784848 0.560082 0.271855
0.946227 0.620844 0.384222
0.204410 0.609674 0.208743
0.230106 0.610285 0.209659
0.302770 0.612512 0.213230
0.399939 0.616846 0.219791
0.509270 0.623133 0.229709
0.625910 0.631739 0.243259
0.781094 0.673487 0.294865
0.942382 0.730770 0.414099
0.300359 0.792538 0.305303
0.319982 0.792966 0.306523
0.381598 0.794491 0.310918
0.471290 0.797299 0.319005
0.576440 0.801450 0.331456
0.689662 0.806912 0.348791
0.806821 0.813657 0.371679
0.938872 0.839872 0.451057
0.457832 0.945800 0.462257
0.470344 0.945861 0.463905
0.511894 0.946136 0.469520
0.578515 0.946654 0.479835
0.661891 0.947326 0.495338
0.754391 0.948150 0.516228
0.850614 0.948974 0.542870
0.946288 0.949737 0.575280
0.036347 0.036622 0.068421
0.066835 0.037232 0.066407
0.145174 0.072816 0.093751
0.258457 0.094972 0.119539
0.417609 0.135103 0.160342
0.596429 0.184329 0.207431
0.784146 0.253483 0.272343
0.948333 0.358465 0.371221
0.039490 0.067140 0.066224
0.072419 0.072816 0.072023
0.140230 0.097810 0.096559
0.257694 0.123049 0.120485
0.416388 0.165042 0.161501
0.595392 0.213352 0.208804
0.783536 0.278813 0.273960
0.947875 0.377234 0.373358
0.072511 0.151369 0.096162
0.100435 0.144564 0.100191
0.147951 0.149203 0.103243
0.255924 0.186191 0.124636
0.412940 0.238041 0.165957
0.592309 0.290318 0.213718
0.781552 0.351843 0.279698
0.946441 0.436500 0.380957
0.100923 0.267124 0.127565
0.130800 0.262058 0.131075
0.192355 0.266392 0.134646
0.271489 0.274022 0.141268
0.408850 0.323003 0.173922
0.588312 0.385840 0.221958
0.778622 0.450019 0.289830
0.944091 0.523766 0.394598
0.156008 0.416632 0.180423
0.179782 0.417548 0.181216
0.245823 0.420447 0.184390
0.332494 0.425971 0.190036
0.429999 0.434028 0.198398
0.584894 0.486641 0.234073
0.775875 0.558038 0.304570
0.941161 0.625360 0.414923
0.217014 0.596674 0.241581
0.239811 0.597406 0.242435
0.306096 0.600275 0.245518
0.397925 0.605371 0.251621
0.503349 0.612940 0.260655
0.617304 0.622980 0.273259
0.773953 0.669184 0.324468
0.938170 0.732235 0.442054
0.312902 0.785275 0.334081
0.331304 0.785794 0.335210
0.389044 0.787625 0.339239
0.474952 0.790921 0.346960
0.576989 0.795712 0.358831
0.687800 0.802029 0.375372
0.803067 0.809751 0.397284
0.935607 0.839017 0.475654
0.471778 0.942504 0.485847
0.483528 0.942626 0.487312
0.522972 0.943084 0.492622
0.586816 0.943816 0.502403
0.667414 0.944854 0.517082
0.757473 0.946136 0.536950
0.851591 0.947478 0.562188
0.945434 0.948791 0.593103
0.060670 0.060853 0.173404
0.098177 0.063722 0.165560
0.149722 0.077028 0.148409
0.252171 0.106569 0.181674
0.388251 0.161837 0.232212
0.548699 0.226963 0.292485
0.749966 0.299046 0.364416
0.928466 0.415381 0.466011
0.076570 0.098695 0.147951
0.100160 0.100618 0.143648
0.143862 0.105531 0.142733
0.243168 0.136416 0.180758
0.379675 0.188876 0.234318
0.548669 0.245792 0.293523
0.750027 0.317296 0.365423
0.928283 0.429908 0.467628
0.083772 0.147860 0.145815
0.108370 0.146792 0.144747
0.186465 0.187442 0.185550
0.244022 0.195590 0.193179
0.375677 0.243717 0.240055
0.549493 0.301305 0.296635
0.750088 0.374487 0.369299
0.927764 0.477485 0.473304
0.110506 0.258854 0.186831
0.139315 0.252140 0.186709
0.201297 0.253544 0.200687
0.259373 0.261509 0.207156
0.379217 0.311040 0.246372
0.551385 0.379614 0.302525
0.750546 0.457832 0.376379
0.926970 0.551232 0.483833
0.164614 0.408637 0.242832
0.192355 0.400977 0.244755
0.254826 0.390723 0.254429
0.322362 0.397772 0.260288
0.404669 0.408148 0.268925
0.555108 0.469612 0.311467
0.751827 0.554955 0.387549
0.926177 0.640772 0.499214
0.230930 0.584314 0.307988
0.257237 0.577844 0.311467
0.320348 0.569787 0.320684
0.396857 0.576837 0.326513
0.490028 0.586969 0.335363
0.594903 0.600092 0.347478
0.754452 0.658717 0.403113
0.925750 0.737758 0.519615
0.334539 0.773648 0.399817
0.357916 0.769680 0.405859
0.413336 0.767575 0.414984
0.488014 0.772183 0.422309
0.580133 0.778897 0.433387
0.682979 0.787533 0.449134
0.791897 0.798062 0.469459
0.925933 0.836942 0.545068
0.502342 0.934905 0.544488
0.520409 0.932921 0.552331
0.555383 0.933532 0.557733
0.611536 0.935058 0.566217
0.684016 0.937194 0.578882
0.766659 0.939879 0.596124
0.854429 0.942809 0.618189
0.942809 0.945830 0.645106
0.072908 0.073945 0.307164
0.122255 0.080598 0.298283
0.198215 0.097505 0.277531
0.261875 0.115938 0.259342
0.394842 0.168795 0.310491
0.554406 0.234134 0.372259
0.738094 0.327825 0.452979
0.908965 0.476967 0.567590
0.100740 0.129854 0.271244
0.130129 0.131258 0.268162
0.191684 0.136172 0.259678
0.253666 0.144900 0.251377
0.386725 0.195438 0.307469
0.547326 0.258732 0.372290
0.733211 0.349798 0.455756
0.906126 0.494209 0.572625
0.118379 0.193515 0.257267
0.144747 0.192996 0.250950
0.200961 0.202274 0.249668
0.257450 0.211612 0.255772
0.376287 0.260777 0.310338
0.532128 0.324102 0.378180
0.719966 0.413519 0.467475
0.905547 0.531579 0.577874
0.129366 0.259739 0.255772
0.153597 0.256474 0.252567
0.216312 0.264439 0.261082
0.336309 0.338079 0.334966
0.392828 0.341314 0.337621
0.532372 0.395300 0.390539
0.723262 0.479377 0.474067
0.906706 0.589380 0.585229
0.177127 0.399268 0.314855
0.201938 0.394110 0.313573
0.265202 0.387640 0.318059
0.348150 0.404944 0.346929
0.410620 0.413489 0.354284
0.540887 0.470436 0.399817
0.728237 0.561242 0.484321
0.908507 0.663416 0.596368
0.242374 0.576318 0.387182
0.266728 0.571069 0.387793
0.332189 0.559167 0.393805
0.411902 0.557092 0.410925
0.488014 0.568200 0.420203
0.578363 0.582849 0.432990
0.735378 0.652888 0.498116
0.911131 0.747250 0.611292
0.346502 0.768734 0.476661
0.368566 0.765286 0.480079
0.433173 0.755459 0.493141
0.511406 0.750240 0.511406
0.589105 0.758907 0.521904
0.679530 0.770169 0.536095
0.778500 0.783810 0.554314
0.914641 0.835996 0.630152
0.514092 0.932555 0.602350
0.530632 0.930816 0.607813
0.581292 0.925658 0.625483
0.642573 0.923186 0.643641
0.705379 0.926787 0.654566
0.778714 0.931273 0.669306
0.858152 0.936339 0.688136
0.939117 0.941711 0.710994
0.123537 0.124269 0.462226
0.165652 0.129793 0.456214
0.250126 0.144350 0.439887
0.333074 0.161807 0.420386
0.407080 0.180697 0.403204
0.564813 0.243931 0.467140
0.746090 0.340429 0.546715
0.913237 0.491920 0.646052
0.147036 0.177005 0.434150
0.177218 0.178683 0.430915
0.248631 0.184421 0.421241
0.326513 0.193790 0.408209
0.399603 0.206943 0.395911
0.558434 0.268193 0.464088
0.741665 0.362097 0.547112
0.910704 0.508629 0.649195
0.178225 0.252384 0.402167
0.203281 0.254276 0.395270
0.255589 0.257420 0.389868
0.320043 0.262425 0.386755
0.388739 0.271550 0.385687
0.544549 0.333440 0.460090
0.729427 0.425544 0.551110
0.903044 0.559167 0.659602
0.188052 0.326360 0.399298
0.211551 0.324681 0.394110
0.271336 0.327062 0.386328
0.348180 0.350134 0.399390
0.412696 0.363531 0.410315
0.544884 0.419013 0.473396
0.718807 0.508232 0.564416
0.893950 0.627192 0.675746
0.202426 0.404028 0.397955
0.223789 0.400641 0.394812
0.282017 0.397467 0.392157
0.368292 0.421485 0.416785
0.506767 0.509209 0.504936
0.571130 0.514061 0.509392
0.722560 0.584497 0.579675
0.896483 0.688899 0.685023
0.258488 0.567315 0.470283
0.280278 0.563745 0.469245
0.341680 0.556390 0.469612
0.424720 0.559411 0.483558
0.522271 0.585565 0.520623
0.592859 0.596338 0.530388
0.732052 0.662257 0.591547
0.901335 0.760647 0.696925
0.363470 0.762539 0.563989
0.383673 0.759731 0.565362
0.444129 0.751858 0.571405
0.524010 0.745083 0.584863
0.606195 0.747951 0.605310
0.683192 0.760037 0.618097
0.770565 0.774899 0.634455
0.907225 0.838865 0.712184
0.529992 0.929442 0.673915
0.545159 0.927947 0.677363
0.591882 0.923552 0.688746
0.657313 0.918364 0.706508
0.725887 0.916838 0.726040
0.790585 0.922942 0.739010
0.861936 0.929961 0.755367
0.935454 0.937530 0.775082
0.187808 0.188754 0.638025
0.222293 0.192996 0.634638
0.306828 0.204898 0.624537
0.403693 0.221012 0.610193
0.497810 0.239628 0.594415
0.585046 0.261204 0.579583
0.756527 0.358038 0.651240
0.918547 0.512261 0.735195
0.206912 0.234928 0.620478
0.235111 0.236912 0.618189
0.310399 0.243320 0.610742
0.401648 0.253635 0.599451
0.493050 0.267552 0.586328
0.579339 0.284886 0.574029
0.752682 0.379339 0.649744
0.916381 0.528191 0.736660
0.246708 0.322087 0.583612
0.266209 0.322850 0.582544
0.323156 0.325444 0.578851
0.400244 0.330358 0.573083
0.483314 0.338293 0.566644
0.566064 0.349676 0.561273
0.741878 0.441901 0.646967
0.909850 0.576837 0.741756
0.262455 0.404517 0.576959
0.284398 0.404883 0.572137
0.345281 0.409094 0.559930
0.414343 0.416907 0.555383
0.486030 0.423499 0.556146
0.563073 0.433692 0.559167
0.732509 0.522728 0.649165
0.902068 0.642786 0.750484
0.275547 0.493324 0.576013
0.296269 0.491707 0.572229
0.354711 0.489357 0.562951
0.433021 0.497200 0.560845
0.523857 0.526360 0.580346
0.594415 0.540002 0.591547
0.735653 0.610101 0.664881
0.896269 0.715908 0.764736
0.292943 0.585382 0.576898
0.312047 0.582513 0.574243
0.367864 0.576074 0.568261
0.445563 0.576776 0.569940
0.543816 0.603540 0.597925
0.682521 0.684810 0.680781
0.756344 0.701045 0.696834
0.898558 0.783413 0.780026
0.384833 0.756039 0.653498
0.403113 0.753933 0.653376
0.458076 0.748440 0.654108
0.532952 0.744839 0.659693
0.617823 0.750027 0.675898
0.710689 0.770718 0.709316
0.779507 0.782620 0.721248
0.905730 0.849302 0.792782
0.548882 0.925994 0.752041
0.562402 0.924804 0.753811
0.604883 0.921263 0.759762
0.665797 0.917235 0.769863
0.736324 0.914488 0.785550
0.806729 0.916228 0.806302
0.868132 0.924712 0.820096
0.932586 0.934142 0.836576
0.281041 0.281712 0.812802
0.306798 0.285527 0.811368
0.380560 0.297185 0.806668
0.477546 0.314763 0.799435
0.580865 0.336858 0.790524
0.682460 0.362737 0.780911
0.778347 0.391455 0.771725
0.924620 0.538170 0.829679
0.299718 0.321233 0.804715
0.322423 0.323583 0.803555
0.389624 0.331853 0.799741
0.481483 0.345556 0.793454
0.581415 0.363928 0.785550
0.680720 0.386175 0.776974
0.775113 0.411902 0.768704
0.922881 0.553246 0.829740
0.346258 0.413153 0.783841
0.363287 0.414374 0.783139
0.416999 0.418921 0.780636
0.495277 0.427039 0.776486
0.584680 0.438666 0.771145
0.676570 0.453925 0.765347
0.765957 0.471382 0.760098
0.917662 0.599481 0.830259
0.385443 0.505669 0.769833
0.404608 0.508782 0.766903
0.459052 0.518181 0.759091
0.520287 0.522637 0.757229
0.594629 0.529076 0.755001
0.674861 0.537530 0.752956
0.756680 0.547784 0.751736
0.911437 0.662776 0.832303
0.401190 0.593530 0.769711
0.419043 0.594537 0.767147
0.472023 0.598352 0.759518
0.542535 0.606012 0.750607
0.612757 0.615167 0.747951
0.682033 0.621210 0.749325
0.755856 0.629572 0.751980
0.906737 0.733486 0.837919
0.421210 0.687373 0.770596
0.437354 0.686732 0.768551
0.486336 0.685328 0.762387
0.553094 0.685206 0.755489
0.628840 0.691890 0.753872
0.712551 0.714717 0.766384
0.776852 0.725368 0.774258
0.906706 0.806668 0.850706
0.444678 0.782650 0.773129
0.459236 0.780941 0.771572
0.503838 0.775814 0.766964
0.566644 0.770077 0.762173
0.641291 0.769100 0.762417
0.729366 0.785183 0.780209
0.840696 0.842344 0.839414
0.915373 0.873777 0.871092
0.569451 0.922576 0.831907
0.581384 0.921691 0.832364
0.619440 0.919127 0.834104
0.676356 0.916167 0.838102
0.744442 0.914488 0.846098
0.815671 0.916655 0.860258
0.883238 0.925597 0.882414
0.933867 0.934997 0.894438
0.432136 0.432410 0.951965
0.448493 0.436225 0.951476
0.501030 0.449409 0.949798
0.579248 0.470802 0.947051
0.669490 0.497841 0.943511
0.762478 0.527703 0.939544
0.852903 0.558434 0.935546
0.938140 0.588373 0.931884
0.453498 0.465736 0.949126
0.468360 0.468879 0.948699
0.516411 0.479622 0.947265
0.589502 0.497658 0.944762
0.675410 0.520867 0.941527
0.765103 0.547112 0.937896
0.853269 0.574548 0.934234
0.937011 0.601740 0.930907
0.510369 0.552178 0.941070
0.521721 0.554070 0.940764
0.559472 0.560449 0.939696
0.619532 0.571527 0.937926
0.693385 0.586419 0.935546
0.773465 0.604120 0.932860
0.854490 0.623316 0.930205
0.933440 0.643030 0.927825
0.575250 0.649073 0.930938
0.583520 0.650050 0.930755
0.611444 0.653285 0.930175
0.657771 0.659052 0.929168
0.717494 0.667018 0.927825
0.785275 0.676936 0.926390
0.856657 0.687984 0.925017
0.928832 0.699977 0.923949
0.588251 0.713802 0.930999
0.600122 0.716396 0.930053
0.637324 0.724697 0.926970
0.690333 0.736507 0.922454
0.741329 0.742763 0.921416
0.798245 0.748348 0.921019
0.860349 0.755337 0.920684
0.924529 0.763821 0.920623
0.606439 0.787778 0.931365
0.617273 0.789120 0.930571
0.651423 0.793240 0.928069
0.701167 0.799344 0.924346
0.759426 0.808042 0.920073
0.815946 0.817350 0.918151
0.868162 0.822416 0.918883
0.922850 0.828702 0.920043
0.628077 0.865202 0.932311
0.637720 0.865446 0.931731
0.668482 0.866178 0.929839
0.715175 0.867460 0.926909
0.770840 0.869871 0.923583
0.829038 0.875090 0.921477
0.885283 0.886503 0.923980
0.928679 0.892576 0.927092
0.652369 0.942229 0.934142
0.660853 0.941680 0.933745
0.688594 0.939879 0.932372
0.732174 0.936950 0.930266
0.784726 0.933593 0.927947
0.840055 0.931243 0.926879
0.896635 0.934020 0.931182
0.954772 0.955413 0.954223
