images/nph.auh/Contents/History/resources/D35A8166-0BE5-4383-BE26-1A588F9B516B.cube
# Created by: Adobe Lightroom Export LUT Plugin
LUT_3D_SIZE 32
0.000000 0.000000 0.000000
0.006622 0.003449 0.003876
0.015412 0.008881 0.008606
0.036469 0.020233 0.020111
0.065370 0.032593 0.033112
0.088136 0.044648 0.044282
0.112947 0.053162 0.052674
0.140230 0.058534 0.058015
0.169345 0.060487 0.060182
0.200351 0.061585 0.060548
0.232883 0.061341 0.060182
0.266697 0.062531 0.060578
0.301915 0.065919 0.063630
0.338293 0.074128 0.071595
0.375677 0.084688 0.081575
0.414343 0.095979 0.092531
0.453956 0.107851 0.104219
0.494453 0.120424 0.116518
0.535546 0.133486 0.129519
0.578668 0.147280 0.143069
0.622644 0.161990 0.157534
0.667048 0.177768 0.173159
0.711543 0.194797 0.190097
0.755581 0.213291 0.208591
0.798978 0.233341 0.228641
0.841123 0.255192 0.250797
0.881651 0.279545 0.275273
0.920043 0.306645 0.302556
0.955627 0.336889 0.333227
0.987793 0.371099 0.367681
1.000000 0.409735 0.406806
1.000000 0.453803 0.451270
0.004730 0.006073 0.004791
0.007050 0.006836 0.005737
0.016052 0.012268 0.009400
0.037110 0.023621 0.020905
0.065553 0.038392 0.032624
0.087800 0.050629 0.044800
0.112947 0.058991 0.052979
0.139986 0.062898 0.058167
0.169131 0.065248 0.060243
0.200015 0.067201 0.060517
0.232456 0.067933 0.060548
0.266300 0.069398 0.060883
0.301335 0.072999 0.063935
0.337743 0.081086 0.072145
0.375311 0.090852 0.082033
0.413825 0.101778 0.093172
0.453498 0.113161 0.104738
0.494087 0.125490 0.116945
0.535149 0.138399 0.129885
0.578393 0.151705 0.143343
0.622492 0.166049 0.157778
0.666896 0.181552 0.173373
0.711391 0.198428 0.190280
0.755489 0.216526 0.208835
0.798886 0.236332 0.228855
0.841032 0.258152 0.250980
0.881590 0.282109 0.275364
0.919951 0.309148 0.302861
0.955566 0.339117 0.333501
0.987732 0.373022 0.368048
1.000000 0.411414 0.407019
1.000000 0.455268 0.451545
0.009918 0.016754 0.010285
0.013611 0.017273 0.011200
0.017304 0.017823 0.012146
0.037415 0.029389 0.021515
0.065675 0.044190 0.033234
0.087770 0.057679 0.045106
0.112581 0.063813 0.053071
0.139437 0.068360 0.058167
0.168643 0.071687 0.060121
0.199435 0.073915 0.060822
0.231846 0.075471 0.060761
0.265660 0.077516 0.061036
0.300572 0.081544 0.064454
0.337072 0.089326 0.072511
0.374517 0.099092 0.082582
0.413367 0.109071 0.093599
0.452979 0.120363 0.105074
0.493599 0.132113 0.117403
0.534722 0.144442 0.130465
0.578058 0.157748 0.143648
0.622156 0.171786 0.158175
0.666712 0.186618 0.173709
0.711208 0.203220 0.190646
0.755337 0.220951 0.209049
0.798764 0.240574 0.229221
0.840940 0.261967 0.251316
0.881437 0.285740 0.275853
0.919860 0.312291 0.303258
0.955505 0.342046 0.333898
0.987640 0.375708 0.368444
1.000000 0.413703 0.407446
1.000000 0.457282 0.451972
0.022492 0.040070 0.022095
0.026154 0.040589 0.023041
0.031037 0.042084 0.023865
0.043519 0.044678 0.025513
0.066163 0.057008 0.034058
0.087984 0.065919 0.045655
0.112337 0.072633 0.053193
0.138705 0.078553 0.058717
0.167636 0.082887 0.060304
0.198306 0.086213 0.060853
0.230442 0.089509 0.061036
0.264225 0.092531 0.061616
0.299016 0.097353 0.065278
0.335454 0.104921 0.073793
0.373388 0.113619 0.083589
0.412146 0.123384 0.094636
0.451942 0.134127 0.106325
0.492561 0.145327 0.118441
0.533898 0.156985 0.131289
0.577264 0.169558 0.144686
0.621515 0.182956 0.159030
0.666102 0.197513 0.174533
0.710689 0.213382 0.191470
0.754910 0.230533 0.209873
0.798428 0.249332 0.229923
0.840635 0.270207 0.252079
0.881254 0.293278 0.276432
0.919677 0.319280 0.304021
0.955322 0.348302 0.334691
0.987488 0.381262 0.369146
1.000000 0.418769 0.408301
1.000000 0.461616 0.452796
0.035309 0.067536 0.035370
0.040375 0.067659 0.036286
0.047700 0.068025 0.037079
0.059449 0.069154 0.037476
0.069612 0.070466 0.039734
0.087709 0.076661 0.046326
0.111604 0.084779 0.054047
0.137758 0.091646 0.058930
0.166232 0.097383 0.060731
0.196475 0.102205 0.061494
0.228489 0.106600 0.061891
0.261967 0.110964 0.063111
0.296818 0.116548 0.067170
0.333471 0.124208 0.075685
0.371313 0.132906 0.085603
0.410315 0.142336 0.096468
0.450263 0.152316 0.108064
0.491005 0.163088 0.120027
0.532525 0.174258 0.132937
0.576104 0.186130 0.146059
0.620539 0.199008 0.160311
0.665309 0.212924 0.175845
0.710018 0.228000 0.192721
0.754360 0.244694 0.210971
0.797940 0.262577 0.231083
0.840238 0.282567 0.253239
0.880888 0.304723 0.277836
0.919402 0.329625 0.305180
0.955047 0.357946 0.335882
0.987243 0.389899 0.370520
1.000000 0.426459 0.409674
1.000000 0.468391 0.454231
0.046876 0.089418 0.047364
0.052583 0.089693 0.047944
0.059083 0.089906 0.047730
0.067506 0.090455 0.048798
0.078523 0.091432 0.049531
0.091920 0.092622 0.050690
0.110780 0.097597 0.055055
0.136263 0.105653 0.059632
0.164157 0.112856 0.061555
0.194034 0.119081 0.062867
0.225742 0.124819 0.063416
0.258915 0.130495 0.065187
0.293828 0.136934 0.069520
0.330755 0.145052 0.078035
0.368902 0.154116 0.087709
0.407996 0.163485 0.098604
0.448127 0.173404 0.110384
0.489021 0.183780 0.122347
0.530724 0.194491 0.134890
0.574578 0.206058 0.147799
0.619165 0.218509 0.162142
0.664179 0.231968 0.177493
0.709102 0.246281 0.194217
0.753567 0.262150 0.212680
0.797269 0.279454 0.232700
0.839658 0.298344 0.254795
0.880430 0.319615 0.279332
0.918975 0.343389 0.306767
0.954681 0.370459 0.337560
0.986908 0.401251 0.372198
1.000000 0.436652 0.411505
1.000000 0.477455 0.456123
0.054841 0.113100 0.055207
0.059632 0.113313 0.055818
0.064393 0.113375 0.055573
0.073457 0.113680 0.056580
0.085756 0.114382 0.057160
0.099825 0.115023 0.058259
0.115114 0.115785 0.059266
0.134646 0.119875 0.060822
0.161715 0.128359 0.063264
0.191012 0.136019 0.064637
0.222293 0.143099 0.065980
0.255467 0.150057 0.067597
0.290440 0.157687 0.072175
0.327672 0.166690 0.080659
0.366064 0.175937 0.090791
0.405310 0.185702 0.101503
0.445624 0.195804 0.112734
0.486824 0.205997 0.124788
0.528740 0.216587 0.137057
0.572839 0.228061 0.150179
0.617670 0.240299 0.164248
0.662898 0.253208 0.179538
0.707973 0.267277 0.196231
0.752682 0.282261 0.214481
0.796475 0.298802 0.234531
0.839017 0.316808 0.256687
0.879850 0.337011 0.281346
0.918456 0.359777 0.308904
0.954223 0.385534 0.339696
0.986419 0.415137 0.374487
1.000000 0.449012 0.413764
1.000000 0.488533 0.458564
0.060243 0.137667 0.060670
0.063844 0.137819 0.061006
0.069062 0.137972 0.061250
0.078798 0.138125 0.061341
0.091585 0.138521 0.061616
0.106477 0.138857 0.062165
0.122194 0.139437 0.062898
0.139010 0.140230 0.063813
0.159030 0.143282 0.065492
0.187808 0.152346 0.067079
0.218845 0.160861 0.068360
0.251896 0.169375 0.070619
0.287053 0.178134 0.075196
0.324376 0.188022 0.084077
0.362799 0.198123 0.093965
0.402411 0.208194 0.104463
0.442969 0.218601 0.115908
0.484230 0.229160 0.127565
0.526513 0.239963 0.139620
0.570733 0.251499 0.152743
0.615900 0.263645 0.166781
0.661311 0.276555 0.181949
0.706691 0.290135 0.198611
0.751583 0.304662 0.216892
0.795560 0.320409 0.236881
0.838193 0.337804 0.259190
0.879149 0.356939 0.283726
0.917906 0.378515 0.311254
0.953674 0.403052 0.342290
0.985931 0.431189 0.377111
1.000000 0.463722 0.416571
1.000000 0.501640 0.461524
0.063813 0.163394 0.064881
0.067781 0.163333 0.064790
0.073091 0.163424 0.065003
0.083406 0.163455 0.065461
0.097017 0.163821 0.065644
0.112337 0.164096 0.066072
0.128969 0.164645 0.066621
0.146395 0.165225 0.067353
0.164401 0.165896 0.068269
0.184756 0.168338 0.069886
0.215427 0.178225 0.071351
0.248264 0.187991 0.073671
0.283574 0.198276 0.079103
0.320958 0.209262 0.087922
0.359411 0.220218 0.097719
0.399207 0.231083 0.108095
0.439948 0.241947 0.119234
0.481544 0.252964 0.130770
0.523888 0.263981 0.142794
0.568505 0.275853 0.155612
0.613977 0.288212 0.169375
0.659724 0.300999 0.184604
0.705257 0.314458 0.201144
0.750362 0.328710 0.219516
0.794491 0.343969 0.239628
0.837308 0.360449 0.261814
0.878416 0.378790 0.286564
0.917205 0.399329 0.314153
0.953094 0.422553 0.345159
0.985351 0.449287 0.380255
1.000000 0.480262 0.419867
1.000000 0.516533 0.465003
0.067262 0.190311 0.068299
0.071809 0.190341 0.068574
0.076814 0.190433 0.068788
0.087617 0.190616 0.068757
0.101717 0.190829 0.069306
0.117769 0.191165 0.069642
0.135073 0.191470 0.070527
0.153292 0.191989 0.071107
0.172122 0.192569 0.072145
0.191592 0.193393 0.073243
0.212100 0.195041 0.074891
0.244846 0.206210 0.077516
0.280034 0.217777 0.083040
0.317449 0.229923 0.091707
0.356329 0.241886 0.101320
0.396124 0.253635 0.111757
0.437140 0.265385 0.122652
0.478798 0.276799 0.134096
0.521294 0.288334 0.146120
0.566094 0.300603 0.158785
0.611963 0.313420 0.172457
0.657862 0.326421 0.187625
0.703792 0.339818 0.204105
0.749020 0.353887 0.222385
0.793423 0.368688 0.242588
0.836332 0.384710 0.264927
0.877592 0.402197 0.289647
0.916503 0.421698 0.317327
0.952392 0.443824 0.348638
0.984680 0.469062 0.383795
1.000000 0.498482 0.423590
1.000000 0.533043 0.468879
0.071046 0.218997 0.072755
0.075685 0.219120 0.072938
0.081239 0.219150 0.072786
0.092378 0.219272 0.073091
0.106844 0.219455 0.073548
0.123690 0.219699 0.074128
0.141665 0.220249 0.074769
0.160464 0.220706 0.075593
0.180148 0.221378 0.076692
0.200229 0.222049 0.077943
0.220859 0.223087 0.079469
0.241794 0.224002 0.081056
0.276829 0.237003 0.087129
0.314397 0.250462 0.096071
0.353216 0.263493 0.105379
0.393072 0.276097 0.115816
0.434028 0.288518 0.126497
0.475776 0.300633 0.137911
0.518578 0.312810 0.149691
0.563775 0.325811 0.162051
0.609796 0.339025 0.175906
0.656062 0.352300 0.190829
0.702174 0.365911 0.207462
0.747646 0.380011 0.225711
0.792172 0.394598 0.245945
0.835325 0.410132 0.268284
0.876677 0.426917 0.293187
0.915648 0.445594 0.321080
0.951629 0.466499 0.352453
0.983917 0.490364 0.387762
1.000000 0.518212 0.427802
1.000000 0.551049 0.473335
0.076844 0.250004 0.078737
0.081147 0.250004 0.078950
0.087282 0.250065 0.079072
0.098238 0.250126 0.079347
0.113008 0.250492 0.079988
0.130617 0.250736 0.080751
0.149050 0.251255 0.081514
0.168673 0.251896 0.082643
0.189090 0.252598 0.083833
0.210056 0.253544 0.085298
0.231418 0.254582 0.087282
0.253452 0.255955 0.089235
0.275334 0.256931 0.091798
0.311620 0.270634 0.100252
0.350225 0.284581 0.109804
0.390143 0.298253 0.119844
0.431159 0.311559 0.130617
0.472908 0.324529 0.141726
0.515862 0.337438 0.153384
0.561334 0.351110 0.165743
0.607691 0.364935 0.179416
0.654078 0.378668 0.194491
0.700435 0.392554 0.210941
0.746181 0.406683 0.229282
0.790951 0.421210 0.249577
0.834226 0.436439 0.272038
0.875700 0.452644 0.297124
0.914824 0.470466 0.325078
0.950805 0.490364 0.356695
0.983124 0.512932 0.392279
1.000000 0.539300 0.432685
1.000000 0.570275 0.478248
0.087037 0.283696 0.089082
0.091096 0.283665 0.089265
0.096773 0.283818 0.089357
0.107607 0.283940 0.089784
0.122408 0.284337 0.090242
0.139742 0.284764 0.091035
0.158694 0.285344 0.092134
0.178683 0.285893 0.093538
0.199619 0.286687 0.094911
0.221164 0.287724 0.096498
0.243259 0.288884 0.098512
0.265751 0.290043 0.100526
0.288670 0.291569 0.103090
0.312078 0.293156 0.105562
0.347601 0.305577 0.113924
0.387396 0.320256 0.124056
0.428382 0.334386 0.134676
0.470192 0.348119 0.145663
0.513329 0.361883 0.157259
0.559045 0.376379 0.169528
0.605554 0.390967 0.183078
0.652308 0.405219 0.198154
0.698756 0.419532 0.214817
0.744778 0.433783 0.233188
0.789731 0.448310 0.253483
0.833127 0.463294 0.276005
0.874784 0.479194 0.301305
0.913909 0.496315 0.329595
0.949981 0.515160 0.361334
0.982238 0.536645 0.397314
1.000000 0.561395 0.437781
1.000000 0.590570 0.483589
0.099489 0.319463 0.101839
0.103517 0.319493 0.101961
0.108614 0.319677 0.102235
0.118898 0.319829 0.102602
0.133516 0.320134 0.102937
0.150576 0.320500 0.103822
0.169650 0.321019 0.104891
0.189731 0.321752 0.105959
0.210666 0.322515 0.107485
0.232700 0.323400 0.108949
0.255222 0.324529 0.110780
0.278233 0.325811 0.112947
0.301640 0.327092 0.115053
0.325475 0.328679 0.117647
0.349767 0.330388 0.120272
0.385077 0.341863 0.128237
0.425818 0.356909 0.138857
0.467506 0.371527 0.149966
0.510857 0.386206 0.161318
0.556725 0.401709 0.173526
0.603510 0.416968 0.187167
0.650416 0.432013 0.202152
0.697139 0.446723 0.218723
0.743313 0.461341 0.237186
0.788418 0.475929 0.257633
0.832029 0.490791 0.280430
0.873747 0.506249 0.305852
0.912993 0.522759 0.334356
0.949096 0.540795 0.366522
0.981323 0.561059 0.402686
1.000000 0.584497 0.443641
1.000000 0.611749 0.489387
0.112856 0.356664 0.115206
0.116548 0.356725 0.115480
0.121065 0.356817 0.115541
0.131197 0.357000 0.115999
0.145266 0.357305 0.116487
0.162142 0.357824 0.117098
0.180819 0.358251 0.118013
0.200961 0.358892 0.119265
0.222324 0.359686 0.120638
0.244511 0.360571 0.122194
0.267399 0.361608 0.123690
0.290745 0.362768 0.125643
0.314672 0.364111 0.127871
0.339055 0.365637 0.130159
0.363806 0.367315 0.132662
0.388861 0.369055 0.135409
0.423438 0.379248 0.143313
0.465126 0.394812 0.154147
0.508537 0.410437 0.165499
0.554620 0.426886 0.177768
0.601556 0.443091 0.191318
0.648676 0.458808 0.206149
0.695644 0.474098 0.222812
0.741909 0.489021 0.241581
0.787167 0.503746 0.262089
0.830930 0.518578 0.285069
0.872770 0.533745 0.310704
0.912078 0.549859 0.339605
0.948180 0.567041 0.371954
0.980346 0.586175 0.408453
1.000000 0.608240 0.449775
1.000000 0.633661 0.495644
0.126406 0.395209 0.129305
0.129885 0.395270 0.129366
0.134463 0.395361 0.129580
0.143923 0.395514 0.129793
0.157504 0.395758 0.130343
0.174166 0.396277 0.131044
0.192630 0.396765 0.131930
0.212741 0.397375 0.132937
0.234226 0.398077 0.134249
0.256565 0.398993 0.135683
0.279728 0.399969 0.137209
0.303502 0.401099 0.139162
0.327611 0.402289 0.141207
0.352483 0.403754 0.143374
0.377539 0.405310 0.145663
0.403174 0.407050 0.148379
0.428992 0.408789 0.151156
0.462867 0.417884 0.158389
0.506493 0.434546 0.169833
0.552667 0.452033 0.182071
0.599786 0.469184 0.195438
0.647028 0.485603 0.210575
0.694087 0.501549 0.227390
0.740597 0.516899 0.246036
0.785977 0.531853 0.266850
0.829831 0.546746 0.290013
0.871794 0.561700 0.315892
0.911162 0.577234 0.345006
0.947173 0.593774 0.377935
0.979339 0.611902 0.414771
1.000000 0.632593 0.456519
1.000000 0.656245 0.502403
0.140780 0.434730 0.143801
0.143832 0.434882 0.143679
0.148470 0.434882 0.144015
0.157351 0.435157 0.144320
0.170443 0.435370 0.144778
0.186496 0.435737 0.145388
0.204746 0.436194 0.146273
0.225010 0.436866 0.147219
0.246433 0.437507 0.148348
0.268742 0.438361 0.149660
0.292180 0.439307 0.151369
0.316167 0.440406 0.153017
0.340703 0.441596 0.155001
0.365728 0.442908 0.157137
0.391333 0.444404 0.159457
0.417151 0.446021 0.161898
0.443458 0.447761 0.164645
0.470314 0.449836 0.167422
0.504662 0.458595 0.174228
0.550896 0.477150 0.186557
0.598108 0.495216 0.199924
0.645472 0.512474 0.215030
0.692714 0.528954 0.232029
0.739284 0.544884 0.250858
0.784848 0.560082 0.271855
0.828763 0.574975 0.295293
0.870817 0.589837 0.321599
0.910216 0.605035 0.351049
0.946227 0.620844 0.384222
0.978271 0.637995 0.421668
1.000000 0.657343 0.463630
1.000000 0.679255 0.509514
0.155001 0.475349 0.158694
0.158328 0.475319 0.158602
0.162570 0.475441 0.158877
0.171267 0.475624 0.159152
0.183871 0.475898 0.159518
0.199496 0.476234 0.160281
0.217502 0.476722 0.161013
0.237522 0.477333 0.161959
0.258885 0.478004 0.163149
0.281437 0.478920 0.164492
0.304936 0.479927 0.165896
0.329198 0.480964 0.167666
0.354162 0.482246 0.169528
0.379644 0.483803 0.171542
0.405707 0.485389 0.173800
0.432197 0.487251 0.176181
0.459266 0.489235 0.178866
0.486793 0.491463 0.181613
0.514733 0.493843 0.184543
0.549371 0.502220 0.191043
0.596612 0.521202 0.204623
0.644129 0.539269 0.219883
0.691463 0.556481 0.236851
0.738186 0.572869 0.255894
0.783749 0.588403 0.277165
0.827787 0.603449 0.300938
0.869841 0.618219 0.327550
0.909270 0.632990 0.357427
0.945251 0.648157 0.390997
0.977203 0.664393 0.428840
1.000000 0.682368 0.471168
1.000000 0.702510 0.517021
0.170565 0.518151 0.174105
0.173312 0.518212 0.174136
0.177462 0.518273 0.174258
0.185702 0.518517 0.174594
0.197940 0.518853 0.175113
0.213413 0.519158 0.175784
0.231235 0.519799 0.176455
0.251011 0.520439 0.177340
0.272435 0.521355 0.178500
0.295079 0.522271 0.179873
0.318975 0.523369 0.181247
0.343450 0.524590 0.182895
0.368933 0.525963 0.184756
0.394965 0.527520 0.186648
0.421485 0.529229 0.188846
0.448524 0.531029 0.191409
0.476081 0.533074 0.193973
0.503990 0.535241 0.196750
0.532433 0.537530 0.199863
0.561334 0.540032 0.203128
0.595392 0.547173 0.209506
0.642939 0.566094 0.224826
0.690364 0.583978 0.241947
0.737148 0.600885 0.261234
0.782742 0.616754 0.282750
0.826871 0.631952 0.306798
0.869017 0.646662 0.333745
0.908385 0.661097 0.364141
0.944274 0.675654 0.398230
0.976135 0.690944 0.436622
1.000000 0.707607 0.479072
1.000000 0.726040 0.524834
0.186557 0.563500 0.190555
0.189425 0.563531 0.190829
0.193301 0.563684 0.190799
0.201144 0.563897 0.191073
0.213291 0.564233 0.191531
0.228244 0.564599 0.192172
0.246006 0.565118 0.192966
0.265629 0.565759 0.193820
0.287083 0.566613 0.195010
0.309911 0.567498 0.196262
0.333806 0.568566 0.197757
0.358587 0.569818 0.199435
0.384192 0.571069 0.201358
0.410559 0.572534 0.203464
0.437507 0.574182 0.205661
0.464912 0.575891 0.208133
0.492805 0.577874 0.210727
0.521141 0.579919 0.213687
0.549859 0.582116 0.216892
0.579004 0.584527 0.220157
0.608545 0.586999 0.223819
0.641871 0.592889 0.229923
0.689296 0.611505 0.247379
0.736110 0.628870 0.266789
0.781827 0.645136 0.288701
0.826047 0.660487 0.313054
0.868162 0.675105 0.340429
0.907500 0.689265 0.371283
0.943328 0.703212 0.405982
0.975006 0.717556 0.444831
1.000000 0.732876 0.487343
1.000000 0.749691 0.533074
0.204410 0.609674 0.208743
0.207126 0.609705 0.208865
0.211002 0.609766 0.208957
0.218387 0.610040 0.209262
0.230106 0.610285 0.209659
0.244816 0.610651 0.210513
0.261997 0.611170 0.211185
0.281376 0.611810 0.212192
0.302770 0.612512 0.213230
0.325292 0.613428 0.214694
0.349248 0.614466 0.216129
0.374243 0.615534 0.217868
0.399939 0.616846 0.219791
0.426459 0.618158 0.221897
0.453529 0.619715 0.224338
0.481178 0.621393 0.226810
0.509270 0.623133 0.229709
0.537896 0.625147 0.232700
0.566857 0.627253 0.235904
0.596155 0.629358 0.239567
0.625910 0.631739 0.243259
0.655940 0.634241 0.247257
0.688533 0.638911 0.253025
0.735378 0.656825 0.272740
0.781094 0.673487 0.294865
0.825284 0.689052 0.319738
0.867399 0.703548 0.347631
0.906645 0.717403 0.378912
0.942382 0.730770 0.414099
0.973938 0.744228 0.453376
1.000000 0.758206 0.496040
1.000000 0.773587 0.541680
0.224308 0.656092 0.229007
0.226963 0.656123 0.229099
0.230320 0.656214 0.229160
0.237736 0.656397 0.229557
0.248753 0.656672 0.229953
0.262974 0.657038 0.230686
0.279728 0.657557 0.231510
0.298711 0.658076 0.232517
0.319554 0.658839 0.233646
0.342077 0.659571 0.234989
0.365728 0.660578 0.236759
0.390539 0.661616 0.238499
0.416327 0.662806 0.240513
0.442695 0.664118 0.242649
0.469856 0.665461 0.245121
0.497566 0.667048 0.247929
0.525750 0.668666 0.250797
0.554406 0.670466 0.254002
0.583490 0.672419 0.257481
0.612879 0.674434 0.261082
0.642634 0.676631 0.265110
0.672724 0.678889 0.269261
0.703029 0.681331 0.273808
0.734737 0.684871 0.279026
0.780453 0.701808 0.301549
0.824643 0.717525 0.326696
0.866697 0.732082 0.355138
0.905882 0.745541 0.386908
0.941436 0.758236 0.422705
0.972808 0.770779 0.462287
0.999603 0.783627 0.504967
1.000000 0.797696 0.550530
0.246769 0.702358 0.251499
0.248997 0.702449 0.251652
0.252384 0.702510 0.251713
0.259281 0.702663 0.252049
0.269780 0.702907 0.252567
0.283238 0.703273 0.253269
0.299413 0.703700 0.254154
0.317632 0.704280 0.255161
0.338048 0.704891 0.256474
0.360052 0.705623 0.257877
0.383429 0.706477 0.259648
0.407874 0.707485 0.261570
0.433295 0.708553 0.263615
0.459602 0.709682 0.265965
0.486580 0.711025 0.268620
0.514214 0.712428 0.271397
0.542290 0.713924 0.274418
0.570855 0.715541 0.277836
0.599786 0.717220 0.281590
0.629145 0.719112 0.285435
0.658778 0.721065 0.289647
0.688624 0.723079 0.294224
0.718807 0.725246 0.299016
0.749142 0.727565 0.304112
0.780667 0.730861 0.309911
0.824094 0.745937 0.334051
0.866087 0.760372 0.362951
0.905180 0.773526 0.395392
0.940551 0.785672 0.431769
0.971740 0.797269 0.471595
0.998352 0.809018 0.514153
1.000000 0.821744 0.559777
0.271855 0.748043 0.276860
0.273991 0.748135 0.276982
0.277043 0.748135 0.277043
0.283543 0.748287 0.277409
0.293339 0.748562 0.277867
0.306096 0.748867 0.278630
0.321324 0.749264 0.279637
0.338872 0.749752 0.280705
0.358556 0.750301 0.281987
0.379828 0.750942 0.283574
0.402625 0.751736 0.285405
0.426459 0.752560 0.287388
0.451423 0.753536 0.289616
0.477394 0.754574 0.292149
0.503929 0.755734 0.294835
0.531182 0.756954 0.297917
0.559014 0.758297 0.301244
0.587243 0.759701 0.304906
0.616022 0.761257 0.308659
0.645045 0.762905 0.312810
0.674342 0.764614 0.317357
0.703914 0.766476 0.322179
0.733730 0.768399 0.327337
0.763729 0.770413 0.332891
0.793820 0.772519 0.338720
0.824582 0.775235 0.345190
0.865599 0.788540 0.371252
0.904509 0.801358 0.404395
0.939696 0.812924 0.441199
0.970642 0.823667 0.481117
0.997040 0.834257 0.523674
1.000000 0.845670 0.569268
0.300359 0.792538 0.305303
0.302281 0.792599 0.305425
0.305028 0.792630 0.305608
0.310887 0.792782 0.305913
0.319982 0.792966 0.306523
0.331884 0.793240 0.307256
0.346227 0.793576 0.308324
0.362829 0.794003 0.309514
0.381598 0.794491 0.310918
0.401984 0.795041 0.312627
0.423835 0.795743 0.314488
0.446998 0.796475 0.316625
0.471290 0.797299 0.319005
0.496437 0.798215 0.321691
0.522484 0.799191 0.324681
0.549126 0.800320 0.327794
0.576440 0.801450 0.331456
0.604211 0.802731 0.335302
0.632380 0.804013 0.339483
0.660914 0.805447 0.343999
0.689662 0.806912 0.348791
0.718746 0.808438 0.353918
0.748013 0.810147 0.359411
0.777371 0.811887 0.365270
0.806821 0.813657 0.371679
0.836301 0.815518 0.378332
0.865812 0.817441 0.385443
0.903929 0.828977 0.413733
0.938872 0.839872 0.451057
0.969635 0.849699 0.490974
0.995758 0.859190 0.533623
1.000000 0.869200 0.579065
0.332464 0.835386 0.337621
0.334386 0.835416 0.337743
0.336919 0.835477 0.337896
0.342321 0.835569 0.338354
0.350500 0.835752 0.338872
0.361517 0.835966 0.339696
0.374731 0.836271 0.340764
0.390173 0.836637 0.341985
0.407813 0.837034 0.343633
0.427008 0.837491 0.345342
0.447852 0.838010 0.347356
0.469947 0.838651 0.349737
0.493263 0.839322 0.352239
0.517571 0.840055 0.355169
0.542596 0.840909 0.358404
0.568475 0.841794 0.361944
0.594965 0.842710 0.365728
0.621881 0.843717 0.369848
0.649256 0.844816 0.374334
0.676997 0.845975 0.379034
0.705074 0.847166 0.384222
0.733303 0.848417 0.389868
0.761654 0.849729 0.395819
0.790127 0.851133 0.402197
0.818662 0.852537 0.408942
0.847166 0.854002 0.416175
0.875608 0.855497 0.423865
0.903868 0.857115 0.431922
0.938170 0.866392 0.461097
0.968688 0.875242 0.501122
0.994568 0.883513 0.543694
1.000000 0.892149 0.589166
0.369329 0.875822 0.374273
0.370916 0.875822 0.374395
0.373266 0.875853 0.374578
0.377935 0.875944 0.374975
0.385443 0.876066 0.375494
0.395331 0.876249 0.376471
0.407446 0.876463 0.377569
0.421698 0.876768 0.378973
0.437964 0.877043 0.380713
0.455787 0.877409 0.382666
0.475196 0.877806 0.384894
0.496040 0.878294 0.387335
0.518059 0.878813 0.390112
0.541131 0.879362 0.393194
0.565057 0.879942 0.396674
0.589685 0.880613 0.400397
0.615045 0.881346 0.404578
0.640864 0.882078 0.408972
0.667201 0.882811 0.413855
0.693812 0.883696 0.419043
0.720699 0.884520 0.424659
0.747860 0.885466 0.430640
0.775051 0.886412 0.436896
0.802335 0.887419 0.443641
0.829587 0.888426 0.450782
0.856901 0.889464 0.458198
0.884123 0.890532 0.465888
0.911070 0.891661 0.474128
0.937530 0.892851 0.482704
0.967834 0.900084 0.511559
0.993408 0.907103 0.554253
1.000000 0.914244 0.599634
0.411048 0.912871 0.415747
0.412512 0.912871 0.415930
0.414466 0.912902 0.416144
0.418769 0.912963 0.416541
0.425452 0.913054 0.417273
0.434241 0.913146 0.418280
0.445106 0.913298 0.419532
0.457832 0.913451 0.420966
0.472572 0.913664 0.422736
0.489052 0.913878 0.424933
0.506859 0.914153 0.427283
0.526146 0.914458 0.429938
0.546532 0.914763 0.433021
0.568078 0.915129 0.436347
0.590387 0.915496 0.440009
0.613581 0.915923 0.444068
0.637354 0.916350 0.448371
0.661707 0.916838 0.452949
0.686519 0.917296 0.458045
0.711696 0.917815 0.463294
0.737087 0.918364 0.469123
0.762692 0.918944 0.475105
