images/nph.auh/Contents/History/resources/D35A8166-0BE5-4383-BE26-1A588F9B516B.cube
# Created by: Adobe Lightroom Export LUT Plugin
LUT_3D_SIZE 5
DOMAIN_MIN 0.000000 0.000000 0.000000
DOMAIN_MAX 0.903226 0.903226 0.903226
0.000000 0.000000 0.000000
0.140230 0.058534 0.058015
0.375677 0.084688 0.081575
0.667048 0.177768 0.173159
0.955627 0.336889 0.333227
0.060243 0.137667 0.060670
0.139010 0.140230 0.063813
0.362799 0.198123 0.093965
0.661311 0.276555 0.181949
0.953674 0.403052 0.342290
0.112856 0.356664 0.115206
0.200961 0.358892 0.119265
0.363806 0.367315 0.132662
0.648676 0.458808 0.206149
0.948180 0.567041 0.371954
0.224308 0.656092 0.229007
0.298711 0.658076 0.232517
0.469856 0.665461 0.245121
0.672724 0.678889 0.269261
0.941436 0.758236 0.422705
0.457832 0.945800 0.462257
0.498848 0.946044 0.467659
0.618585 0.946960 0.486946
0.778256 0.948363 0.522484
0.946288 0.949737 0.575280
0.059388 0.059571 0.143954
0.127321 0.069825 0.126162
0.316350 0.131594 0.189059
0.610163 0.230014 0.286503
0.934234 0.398657 0.439429
0.075319 0.125795 0.124178
0.153964 0.154757 0.153323
0.306096 0.198215 0.195315
0.609918 0.294621 0.289677
0.933471 0.449378 0.445197
0.133639 0.333532 0.197879
0.207309 0.318608 0.206943
0.330144 0.333104 0.218601
0.610681 0.445594 0.301427
0.931273 0.588037 0.466255
0.250004 0.633478 0.309789
0.317876 0.626276 0.319066
0.463783 0.637446 0.330327
0.651057 0.656733 0.351934
0.929137 0.761349 0.504051
0.499916 0.935485 0.532921
0.534722 0.936156 0.537469
0.640009 0.938537 0.553857
0.786038 0.942382 0.584192
0.943572 0.946715 0.629908
0.096651 0.097200 0.382605
0.204196 0.115114 0.361700
0.332006 0.146853 0.328862
0.604334 0.258274 0.436652
0.910948 0.483803 0.605097
0.144900 0.205570 0.328069
0.207767 0.209354 0.317845
0.317144 0.220768 0.314611
0.587121 0.328588 0.436622
0.902495 0.536767 0.618280
0.164096 0.329534 0.324498
0.229160 0.324437 0.320043
0.419928 0.422065 0.418280
0.583978 0.467140 0.462074
0.899779 0.640833 0.636744
0.270848 0.620630 0.450202
0.338720 0.608911 0.452399
0.484016 0.607294 0.482795
0.626184 0.630488 0.504509
0.906523 0.773800 0.658869
0.521569 0.931060 0.636896
0.571618 0.926055 0.651301
0.684688 0.919402 0.685267
0.802853 0.928527 0.708583
0.937285 0.939605 0.743221
0.207614 0.208743 0.683040
0.299809 0.220859 0.674281
0.471046 0.249516 0.652247
0.633692 0.287205 0.627863
0.920012 0.518181 0.758511
0.255314 0.318883 0.643793
0.320073 0.322148 0.639704
0.465644 0.334173 0.627588
0.619226 0.355993 0.613916
0.913542 0.567681 0.762234
0.293126 0.471260 0.624933
0.355993 0.472023 0.613123
0.486671 0.489296 0.603967
0.614679 0.505180 0.610895
0.901183 0.682918 0.775570
0.323400 0.634974 0.626032
0.380163 0.627497 0.619074
0.514763 0.627955 0.621332
0.724697 0.726894 0.723049
0.901183 0.806516 0.803281
0.553887 0.925109 0.772030
0.595819 0.921660 0.776608
0.702419 0.915435 0.792660
0.826291 0.917418 0.825742
0.932250 0.933715 0.851255
0.432136 0.432410 0.951965
0.484901 0.445289 0.950347
0.623529 0.483803 0.945342
0.785489 0.535454 0.938537
0.938140 0.588373 0.931884
0.494331 0.528069 0.943450
0.534478 0.535332 0.942321
0.648219 0.558526 0.938720
0.791836 0.592645 0.933623
0.934508 0.630610 0.928740
0.580560 0.679530 0.930999
0.619776 0.690211 0.927642
0.701595 0.702998 0.924743
0.807797 0.714900 0.923278
0.926543 0.731411 0.922118
0.611536 0.806973 0.931518
0.645258 0.810269 0.929168
0.732570 0.819242 0.922911
0.833646 0.835019 0.918425
0.923278 0.844663 0.920806
0.652369 0.942229 0.934142
0.679927 0.940459 0.932799
0.757778 0.935271 0.929046
0.854002 0.931182 0.927153
0.954772 0.955413 0.954223
