images/nph.auh/Contents/History/resources/F0C225EF-5C09-4734-B50A-AC84173BB0C1.cube
#Created by: Adobe Photoshop Export Color Lookup Plugin
#Copyright: (C) Copyright 2017 ©ThinkTAP
TITLE "HiCon"
#LUT size
LUT_3D_SIZE 32
#data domain
DOMAIN_MIN 0.0 0.0 0.0
DOMAIN_MAX 1.0 1.0 1.0
#LUT data points
0.000000 0.000000 0.000000
0.000000 0.000000 0.000000
0.010864 0.005157 0.004639
0.037262 0.024933 0.026855
0.066620 0.045288 0.051239
0.096161 0.063080 0.071838
0.126709 0.078552 0.088715
0.157990 0.091522 0.101318
0.192566 0.102844 0.110931
0.234436 0.117249 0.123444
0.282379 0.141296 0.148956
0.332214 0.166138 0.175720
0.381592 0.190430 0.201996
0.429321 0.213501 0.227081
0.476562 0.235779 0.251801
0.525574 0.258392 0.277039
0.574860 0.280365 0.302185
0.619751 0.299896 0.324860
0.661346 0.317688 0.345764
0.700012 0.334137 0.365173
0.725159 0.344666 0.377808
0.734528 0.347992 0.382538
0.738556 0.349213 0.384766
0.741577 0.350189 0.386414
0.743805 0.350861 0.387604
0.745331 0.351349 0.388458
0.746307 0.351685 0.389008
0.746918 0.351837 0.389282
0.747223 0.351959 0.389465
0.747467 0.352051 0.389587
0.747803 0.352142 0.389801
0.748291 0.352325 0.390076
0.000000 0.000000 0.000000
0.002228 0.001648 0.001221
0.018890 0.013123 0.012939
0.049744 0.035217 0.038940
0.079254 0.053925 0.061157
0.109833 0.070984 0.080444
0.140564 0.084961 0.094940
0.171265 0.096069 0.105225
0.201630 0.105499 0.113129
0.237457 0.118591 0.124817
0.281586 0.140900 0.148560
0.331360 0.165741 0.175262
0.380859 0.190094 0.201599
0.428711 0.213196 0.226776
0.475983 0.235565 0.251465
0.524750 0.258087 0.276611
0.573853 0.280060 0.301666
0.618866 0.299591 0.324432
0.660431 0.317444 0.345245
0.699036 0.333923 0.364655
0.724365 0.344452 0.377350
0.733734 0.347809 0.382172
0.737823 0.348999 0.384338
0.740936 0.349976 0.386047
0.743164 0.350677 0.387268
0.744629 0.351166 0.388123
0.745667 0.351471 0.388611
0.746246 0.351654 0.388977
0.746613 0.351746 0.389130
0.746857 0.351837 0.389282
0.747162 0.351959 0.389435
0.747681 0.352112 0.389771
0.000000 0.000000 0.000000
0.002136 0.003571 0.002686
0.025818 0.021027 0.021576
0.059570 0.043915 0.049042
0.094116 0.064331 0.072754
0.126923 0.080322 0.090149
0.160400 0.093536 0.102844
0.194061 0.103760 0.111572
0.227600 0.114532 0.120789
0.261566 0.130737 0.137665
0.297943 0.149017 0.157257
0.336060 0.167999 0.177734
0.380066 0.189697 0.201172
0.428009 0.212860 0.226379
0.475403 0.235229 0.251160
0.523804 0.257721 0.276093
0.572662 0.279633 0.301086
0.617828 0.299286 0.323944
0.659332 0.317108 0.344696
0.697968 0.333588 0.364105
0.723419 0.344208 0.376831
0.732880 0.347565 0.381683
0.737061 0.348755 0.383911
0.740173 0.349731 0.385620
0.742401 0.350464 0.386871
0.743927 0.350952 0.387665
0.744965 0.351257 0.388245
0.745544 0.351440 0.388550
0.745880 0.351532 0.388733
0.746124 0.351624 0.388885
0.746399 0.351685 0.389038
0.746979 0.351868 0.389313
0.000000 0.004089 0.002594
0.000000 0.005402 0.003937
0.022736 0.022400 0.022186
0.051178 0.041718 0.045013
0.087158 0.063538 0.070312
0.122498 0.081299 0.089661
0.158936 0.095978 0.103790
0.197327 0.107666 0.113770
0.240082 0.122040 0.127075
0.281097 0.141876 0.148773
0.322693 0.161835 0.170746
0.359253 0.179504 0.190125
0.391296 0.195160 0.207001
0.427277 0.212524 0.226044
0.474609 0.234863 0.250793
0.522705 0.257294 0.275574
0.571350 0.279175 0.300446
0.616669 0.298920 0.323334
0.658081 0.316772 0.344086
0.696686 0.333252 0.363464
0.722290 0.343903 0.376282
0.731903 0.347321 0.381195
0.736115 0.348480 0.383453
0.739288 0.349426 0.385132
0.741516 0.350159 0.386353
0.743103 0.350677 0.387207
0.744080 0.351013 0.387756
0.744690 0.351166 0.388092
0.745056 0.351257 0.388306
0.745270 0.351349 0.388428
0.745605 0.351471 0.388580
0.746124 0.351624 0.388885
0.003601 0.012177 0.010071
0.003601 0.012085 0.010040
0.014648 0.020660 0.018707
0.041656 0.040039 0.040955
0.075531 0.061035 0.065063
0.111877 0.080536 0.086365
0.149628 0.096741 0.102509
0.189636 0.109772 0.113770
0.235840 0.124817 0.127228
0.286194 0.147980 0.152924
0.334991 0.170624 0.178223
0.379333 0.190979 0.201233
0.417114 0.208160 0.220795
0.445679 0.221222 0.235687
0.475677 0.235352 0.251282
0.521454 0.256805 0.274933
0.569733 0.278625 0.299591
0.615295 0.298462 0.322632
0.656647 0.316345 0.343323
0.695129 0.332825 0.362610
0.721008 0.343536 0.375580
0.730713 0.347015 0.380585
0.735016 0.348114 0.382812
0.738190 0.349091 0.384521
0.740479 0.349823 0.385803
0.742065 0.350342 0.386688
0.743073 0.350647 0.387207
0.743652 0.350830 0.387512
0.744019 0.350983 0.387726
0.744263 0.351044 0.387878
0.744568 0.351135 0.388031
0.745148 0.351288 0.388367
0.012665 0.024811 0.022644
0.012573 0.024689 0.022491
0.014526 0.026062 0.023773
0.026001 0.034760 0.032166
0.057159 0.055542 0.055267
0.096100 0.078339 0.080292
0.135498 0.097137 0.099487
0.177094 0.111786 0.112793
0.223663 0.126556 0.125061
0.278412 0.150543 0.151184
0.334503 0.176300 0.179932
0.387878 0.200043 0.207214
0.436371 0.220795 0.231750
0.475769 0.237274 0.251678
0.505798 0.249786 0.266907
0.531067 0.261261 0.279846
0.568024 0.278046 0.298767
0.613403 0.297882 0.321655
0.654938 0.315857 0.342468
0.693268 0.332336 0.361664
0.719116 0.343079 0.374603
0.729004 0.346588 0.379669
0.733398 0.347687 0.381989
0.736694 0.348663 0.383728
0.739014 0.349335 0.384979
0.740631 0.349884 0.385895
0.741638 0.350189 0.386444
0.742279 0.350433 0.386810
0.742615 0.350525 0.386963
0.742889 0.350586 0.387115
0.743195 0.350708 0.387299
0.743713 0.350861 0.387573
0.023712 0.039673 0.037842
0.023621 0.039551 0.037750
0.023560 0.039429 0.037628
0.026947 0.042114 0.040009
0.037720 0.050415 0.046844
0.071777 0.072754 0.069244
0.120514 0.098663 0.096588
0.167755 0.117645 0.113922
0.217194 0.132904 0.126251
0.272430 0.155884 0.150970
0.329712 0.182404 0.180298
0.386627 0.207733 0.208923
0.440063 0.230530 0.235626
0.490814 0.251465 0.260803
0.536865 0.269470 0.283630
0.571198 0.282196 0.300629
0.592346 0.289795 0.311127
0.616364 0.299591 0.323151
0.652435 0.315094 0.341248
0.690399 0.331543 0.360229
0.716309 0.342346 0.373169
0.726471 0.345886 0.378296
0.730988 0.347076 0.380737
0.734406 0.347961 0.382507
0.736816 0.348694 0.383789
0.738464 0.349213 0.384674
0.739532 0.349518 0.385284
0.740143 0.349731 0.385620
0.740509 0.349823 0.385803
0.740784 0.349915 0.385956
0.741089 0.350006 0.386108
0.741638 0.350189 0.386444
0.036530 0.057037 0.055206
0.036499 0.056946 0.055084
0.036377 0.056854 0.055023
0.036285 0.056732 0.054901
0.039978 0.059479 0.057465
0.051544 0.069824 0.065521
0.091095 0.094818 0.086945
0.150360 0.123077 0.113617
0.209381 0.142944 0.129181
0.269928 0.166534 0.153992
0.332550 0.193787 0.184906
0.389587 0.219543 0.213440
0.444611 0.243317 0.240509
0.497742 0.265228 0.266449
0.549866 0.286163 0.291901
0.596313 0.303833 0.314270
0.633453 0.316254 0.332214
0.658966 0.323303 0.344574
0.674652 0.327332 0.352173
0.695618 0.335083 0.362579
0.715057 0.342682 0.372406
0.722565 0.344910 0.376251
0.727325 0.346130 0.378754
0.730835 0.347046 0.380615
0.733398 0.347687 0.381989
0.735138 0.348175 0.382904
0.736237 0.348511 0.383484
0.736877 0.348724 0.383881
0.737274 0.348846 0.384064
0.737549 0.348907 0.384186
0.737885 0.348999 0.384369
0.738464 0.349213 0.384674
0.051605 0.078156 0.075928
0.051575 0.078094 0.075806
0.051483 0.077972 0.075745
0.051422 0.077881 0.075653
0.051361 0.077789 0.075500
0.055542 0.080627 0.078125
0.069397 0.093353 0.087646
0.113892 0.121765 0.107727
0.189362 0.154358 0.132507
0.264191 0.181366 0.157806
0.334229 0.210388 0.190826
0.399933 0.237946 0.222351
0.456696 0.262054 0.249603
0.510406 0.284698 0.275421
0.563354 0.306305 0.300690
0.612854 0.325562 0.324036
0.655365 0.341034 0.343903
0.689789 0.352417 0.359955
0.717804 0.360352 0.373199
0.739532 0.364899 0.383575
0.744446 0.362976 0.386047
0.737335 0.356995 0.382812
0.736298 0.354492 0.382507
0.738800 0.354156 0.383942
0.740509 0.353821 0.384918
0.741882 0.353607 0.385742
0.742340 0.353394 0.386047
0.742462 0.353180 0.386108
0.742523 0.353058 0.386169
0.742554 0.352966 0.386200
0.742584 0.352844 0.386230
0.742615 0.352631 0.386322
0.070801 0.105438 0.102631
0.070709 0.105347 0.102570
0.070679 0.105286 0.102509
0.070648 0.105225 0.102417
0.070587 0.105164 0.102356
0.070496 0.104980 0.102203
0.074097 0.106750 0.103516
0.089508 0.121582 0.114929
0.142426 0.156708 0.133606
0.241577 0.199036 0.161316
0.332031 0.232574 0.197449
0.406189 0.262024 0.230957
0.472839 0.288666 0.261841
0.531952 0.312378 0.289154
0.587158 0.334869 0.314697
0.635925 0.354401 0.337036
0.678284 0.370575 0.356201
0.714447 0.383606 0.372559
0.744171 0.393768 0.385925
0.768188 0.401306 0.396820
0.782623 0.404297 0.403381
0.784637 0.401001 0.404419
0.782715 0.395905 0.403564
0.781342 0.391571 0.403076
0.780243 0.388123 0.402740
0.779755 0.385773 0.402710
0.778748 0.384003 0.402374
0.777466 0.382751 0.401794
0.776703 0.381989 0.401459
0.776062 0.381439 0.401184
0.775391 0.380798 0.400909
0.774323 0.379730 0.400452
0.092285 0.138947 0.133820
0.092255 0.138916 0.133820
0.092224 0.138885 0.133759
0.092194 0.138824 0.133698
0.092163 0.138733 0.133636
0.092102 0.138672 0.133545
0.092010 0.138550 0.133392
0.095032 0.138428 0.133667
0.114868 0.156616 0.148163
0.188690 0.206543 0.169006
0.309082 0.258636 0.205536
0.407379 0.291687 0.240295
0.482788 0.320557 0.272614
0.552612 0.347626 0.303375
0.614502 0.371704 0.330780
0.665894 0.391327 0.353271
0.708221 0.407227 0.371704
0.742126 0.420380 0.386475
0.769379 0.430634 0.398315
0.791809 0.438904 0.408051
0.805481 0.443390 0.414093
0.807983 0.442047 0.415161
0.807190 0.439056 0.414764
0.806702 0.436554 0.414490
0.806366 0.434692 0.414276
0.806091 0.433350 0.414124
0.805908 0.432465 0.414032
0.805786 0.431915 0.413971
0.805695 0.431610 0.413940
0.805664 0.431366 0.413940
0.805634 0.431091 0.413910
0.805603 0.430573 0.413910
0.114166 0.177307 0.167389
0.114136 0.177277 0.167328
0.114136 0.177246 0.167328
0.114105 0.177185 0.167297
0.114075 0.177124 0.167267
0.114044 0.177094 0.167175
0.113983 0.176971 0.167114
0.113892 0.176788 0.166992
0.117004 0.174835 0.166199
0.146973 0.201385 0.187927
0.257385 0.271576 0.215851
0.385803 0.325867 0.252991
0.485779 0.356750 0.284088
0.565613 0.385376 0.314667
0.636200 0.413086 0.344330
0.691956 0.433624 0.367584
0.735840 0.449219 0.385895
0.769867 0.461853 0.400116
0.795593 0.471924 0.410980
0.815308 0.480072 0.419403
0.827789 0.485168 0.424713
0.829895 0.484497 0.425568
0.828888 0.482239 0.425110
0.828247 0.480530 0.424774
0.827667 0.479248 0.424500
0.827301 0.478241 0.424347
0.827087 0.477661 0.424225
0.826904 0.477295 0.424133
0.826843 0.477051 0.424103
0.826782 0.476868 0.424072
0.826721 0.476685 0.424011
0.826599 0.476318 0.423920
0.135834 0.218964 0.202301
0.135834 0.218933 0.202271
0.135803 0.218933 0.202271
0.135803 0.218903 0.202240
0.135773 0.218842 0.202179
0.135742 0.218781 0.202118
0.135681 0.218658 0.202026
0.135620 0.218567 0.201935
0.135498 0.218292 0.201721
0.144348 0.216400 0.203033
0.195465 0.266083 0.239777
0.344818 0.349091 0.270233
0.465363 0.395905 0.299103
0.566833 0.425629 0.326904
0.651245 0.452606 0.354523
0.712677 0.476807 0.379089
0.758179 0.493042 0.397339
0.791809 0.505524 0.411102
0.816498 0.515503 0.421356
0.835175 0.523163 0.429199
0.847992 0.528595 0.434631
0.850647 0.528442 0.435699
0.849792 0.526459 0.435303
0.849091 0.524811 0.434906
0.848572 0.523621 0.434662
0.848175 0.522766 0.434479
0.847961 0.522186 0.434357
0.847809 0.521881 0.434296
0.847748 0.521667 0.434265
0.847656 0.521515 0.434204
0.847595 0.521362 0.434174
0.847473 0.521057 0.434113
0.161987 0.267242 0.243988
0.161957 0.267212 0.243927
0.161926 0.267212 0.243896
0.161926 0.267120 0.243866
0.161896 0.267120 0.243866
0.161865 0.267059 0.243774
0.161804 0.266968 0.243683
0.161743 0.266846 0.243561
0.161621 0.266602 0.243378
0.161407 0.266296 0.243103
0.187622 0.272278 0.255951
0.268372 0.354095 0.300354
0.436096 0.429932 0.319580
0.549072 0.469788 0.343323
0.651550 0.498291 0.367706
0.728180 0.519012 0.388855
0.778107 0.538055 0.407593
0.811371 0.551392 0.421021
0.835114 0.561279 0.430847
0.852570 0.568207 0.438141
0.865387 0.573669 0.443542
0.868927 0.574219 0.445068
0.868286 0.572479 0.444733
0.867737 0.571045 0.444458
0.867340 0.570007 0.444244
0.867096 0.569275 0.444092
0.866913 0.568848 0.444000
0.866821 0.568542 0.443939
0.866730 0.568359 0.443939
0.866699 0.568237 0.443909
0.866638 0.568115 0.443848
0.866516 0.567810 0.443817
0.190918 0.321320 0.290680
0.190918 0.321289 0.290649
0.190887 0.321259 0.290619
0.190887 0.321228 0.290619
0.190857 0.321198 0.290558
0.190826 0.321136 0.290497
0.190796 0.321045 0.290466
0.190735 0.320923 0.290344
0.190643 0.320709 0.290161
0.190491 0.320465 0.289948
0.192474 0.318787 0.289215
0.246735 0.348175 0.325836
0.370331 0.454285 0.365936
0.529388 0.514771 0.368164
0.639648 0.550720 0.386719
0.731232 0.575104 0.405334
0.793549 0.589111 0.419647
0.830170 0.600983 0.431641
0.853058 0.610596 0.440491
0.869324 0.616730 0.446960
0.881409 0.621338 0.451935
0.886047 0.622681 0.453888
0.885742 0.621338 0.453705
0.885345 0.620148 0.453461
0.885040 0.619202 0.453308
0.884827 0.618591 0.453186
0.884674 0.618195 0.453125
0.884613 0.617981 0.453094
0.884552 0.617798 0.453033
0.884521 0.617676 0.453033
0.884491 0.617554 0.453033
0.884399 0.617340 0.452972
0.218353 0.375183 0.336609
0.218353 0.375183 0.336609
0.218323 0.375183 0.336578
0.218323 0.375153 0.336548
0.218323 0.375092 0.336487
0.218292 0.375092 0.336487
0.218262 0.375000 0.336426
0.218201 0.374878 0.336334
0.218140 0.374756 0.336212
0.218018 0.374512 0.335999
0.217834 0.374115 0.335663
0.238922 0.376373 0.343567
0.324646 0.450348 0.404022
0.480194 0.550873 0.426819
0.625488 0.601227 0.411591
0.726410 0.632385 0.425903
0.799103 0.650604 0.438232
0.844238 0.658081 0.446442
0.869904 0.662018 0.452728
0.885345 0.667358 0.457642
0.896545 0.670685 0.461548
0.902283 0.671631 0.463715
0.902649 0.670746 0.463745
0.902283 0.669678 0.463531
0.902039 0.668945 0.463318
0.901855 0.668396 0.463196
0.901733 0.668030 0.463104
0.901672 0.667816 0.463074
0.901642 0.667694 0.463074
0.901611 0.667603 0.463043
0.901581 0.667511 0.463043
0.901489 0.667297 0.462982
0.242584 0.426392 0.379333
0.242584 0.426392 0.379333
0.242554 0.426361 0.379272
0.242554 0.426331 0.379272
0.242554 0.426331 0.379242
0.242523 0.426270 0.379211
0.242493 0.426239 0.379181
0.242462 0.426147 0.379089
0.242432 0.426056 0.379028
0.242340 0.425842 0.378876
0.242188 0.425507 0.378571
0.241974 0.425049 0.378235
0.306152 0.455322 0.417542
0.418854 0.567535 0.468231
0.586304 0.639069 0.472107
0.715973 0.681061 0.446777
0.797821 0.704620 0.457306
0.849396 0.714905 0.464050
0.880890 0.717407 0.467804
0.899841 0.717590 0.471130
0.911224 0.720032 0.473969
0.918213 0.720764 0.476318
0.919098 0.719849 0.476440
0.918823 0.718994 0.476196
0.918640 0.718353 0.476044
0.918488 0.717896 0.475922
0.918365 0.717560 0.475800
0.918304 0.717407 0.475769
0.918304 0.717285 0.475769
0.918274 0.717194 0.475739
0.918213 0.717133 0.475739
0.918152 0.716980 0.475677
0.263763 0.473755 0.418182
0.263763 0.473755 0.418152
0.263763 0.473724 0.418152
0.263763 0.473694 0.418152
0.263733 0.473694 0.418121
0.263733 0.473663 0.418121
0.263702 0.473633 0.418091
0.263672 0.473541 0.417999
0.263641 0.473419 0.417908
0.263580 0.473267 0.417786
0.263458 0.472992 0.417542
0.263336 0.472656 0.417297
0.283264 0.477814 0.426208
0.390900 0.554565 0.499847
0.527832 0.666901 0.516693
0.685242 0.714172 0.498993
0.787415 0.744995 0.474426
0.848877 0.760559 0.479584
0.884186 0.765167 0.482666
0.906799 0.765961 0.484680
0.921295 0.766144 0.487030
0.930542 0.766174 0.489380
0.932800 0.765594 0.490082
0.932587 0.764862 0.489899
0.932434 0.764343 0.489746
0.932343 0.763977 0.489594
0.932251 0.763702 0.489563
0.932220 0.763550 0.489502
0.932220 0.763489 0.489502
0.932190 0.763428 0.489441
0.932159 0.763336 0.489410
0.932129 0.763184 0.489380
0.281830 0.516449 0.452698
0.281830 0.516418 0.452698
0.281830 0.516418 0.452698
0.281830 0.516418 0.452667
0.281830 0.516388 0.452667
0.281799 0.516357 0.452637
0.281799 0.516296 0.452576
0.281769 0.516296 0.452545
0.281738 0.516144 0.452515
0.281677 0.516052 0.452393
0.281616 0.515869 0.452240
0.281494 0.515564 0.451996
0.281311 0.515167 0.451630
0.348541 0.545624 0.490143
0.463715 0.653717 0.549530
0.625122 0.736542 0.549774
0.763855 0.774506 0.514191
0.837860 0.792572 0.492859
0.882568 0.801788 0.494446
0.908630 0.804443 0.496033
0.924774 0.805756 0.497803
0.935974 0.806824 0.500153
0.941284 0.806732 0.502197
0.941467 0.806213 0.502136
0.941406 0.805786 0.502014
0.941315 0.805481 0.501953
0.941284 0.805328 0.501892
0.941254 0.805206 0.501862
0.941254 0.805115 0.501831
0.941254 0.805084 0.501831
0.941254 0.805054 0.501831
0.941223 0.804932 0.501801
0.296844 0.554413 0.483032
0.296844 0.554382 0.483032
0.296844 0.554382 0.483032
0.296844 0.554382 0.483032
0.296814 0.554321 0.483002
0.296814 0.554321 0.483002
0.296814 0.554291 0.482971
0.296783 0.554230 0.482910
0.296753 0.554169 0.482880
0.296722 0.554047 0.482758
0.296661 0.553894 0.482666
0.296539 0.553619 0.482422
0.296448 0.553253 0.482147
0.317261 0.557037 0.490021
0.425507 0.624359 0.559235
0.533447 0.728271 0.574219
0.700043 0.783722 0.567627
0.814728 0.813721 0.516632
0.872345 0.826965 0.504608
0.906097 0.832916 0.504669
0.925171 0.835052 0.506042
0.937195 0.836823 0.507568
0.945404 0.837952 0.510529
0.946533 0.837891 0.511047
0.946503 0.837585 0.511017
0.946472 0.837402 0.510925
0.946442 0.837280 0.510895
0.946442 0.837219 0.510895
0.946442 0.837189 0.510895
0.946442 0.837128 0.510864
0.946442 0.837097 0.510864
0.946411 0.837006 0.510834
0.310730 0.589630 0.511627
0.310730 0.589630 0.511627
0.310730 0.589600 0.511597
0.310730 0.589600 0.511597
0.310730 0.589600 0.511597
0.310730 0.589569 0.511536
0.310699 0.589539 0.511536
0.310669 0.589478 0.511475
0.310669 0.589355 0.511444
0.310608 0.589264 0.511322
0.310516 0.589081 0.511200
0.310394 0.588806 0.510986
0.310242 0.588409 0.510681
0.310059 0.587982 0.510284
0.378357 0.613098 0.543701
0.489716 0.696198 0.606750
0.609192 0.779968 0.594238
0.756256 0.816345 0.574585
0.850525 0.840759 0.516785
0.897614 0.852112 0.512634
0.922577 0.856293 0.512329
0.936768 0.858093 0.513672
0.946106 0.859070 0.515015
0.949951 0.859344 0.516449
0.949921 0.859100 0.516418
0.949890 0.858978 0.516327
0.949860 0.858856 0.516327
0.949860 0.858826 0.516327
0.949860 0.858795 0.516296
0.949829 0.858765 0.516296
0.949829 0.858734 0.516296
0.949829 0.858673 0.516266
0.331085 0.638916 0.553040
0.331085 0.638916 0.553040
0.331055 0.638855 0.553040
0.331055 0.638855 0.553040
0.331055 0.638855 0.553009
0.331055 0.638855 0.553009
0.331055 0.638855 0.553009
0.331055 0.638824 0.553009
0.331055 0.638824 0.553009
0.331024 0.638794 0.552948
0.330994 0.638702 0.552917
0.330994 0.638641 0.552856
0.330933 0.638519 0.552734
0.330872 0.638397 0.552643
0.375671 0.646515 0.569244
0.472656 0.691925 0.620087
0.535645 0.758331 0.626770
0.667236 0.818268 0.611877
0.793945 0.841888 0.582001
0.875488 0.863617 0.522888
0.913910 0.872406 0.520782
0.934052 0.876251 0.520660
0.946350 0.877502 0.520721
0.953247 0.877289 0.520844
0.953827 0.877106 0.520996
0.953796 0.876923 0.520966
0.953766 0.876831 0.520935
0.953735 0.876770 0.520935
0.953735 0.876740 0.520874
0.953735 0.876709 0.520874
0.953705 0.876617 0.520874
0.953705 0.876587 0.520844
0.338440 0.656647 0.568085
0.338440 0.656647 0.568085
0.338440 0.656647 0.568085
0.338440 0.656647 0.568085
0.338440 0.656647 0.568085
0.338440 0.656647 0.568085
0.338440 0.656647 0.568085
0.338440 0.656647 0.568085
0.338440 0.656647 0.568085
0.338440 0.656647 0.568085
0.338440 0.656647 0.568085
0.338440 0.656647 0.568085
0.338440 0.656647 0.568085
0.338440 0.656647 0.568085
0.356476 0.659302 0.573578
0.454712 0.691895 0.618469
0.530151 0.748383 0.645660
0.615295 0.806854 0.623077
0.750854 0.842316 0.604980
0.852295 0.865479 0.547852
0.903076 0.876617 0.523315
0.928497 0.882599 0.524689
0.943878 0.885529 0.524292
0.953278 0.885590 0.523590
0.956024 0.885406 0.523376
0.956024 0.885345 0.523346
0.955963 0.885315 0.523346
0.955963 0.885254 0.523315
0.955963 0.885223 0.523315
0.955963 0.885223 0.523315
0.955963 0.885193 0.523315
0.955933 0.885193 0.523315
0.338440 0.656647 0.568085
0.338440 0.656647 0.568085
0.338440 0.656647 0.568085
0.338440 0.656647 0.568085
0.338440 0.656647 0.568085
0.338440 0.656647 0.568085
0.338440 0.656647 0.568085
0.338440 0.656647 0.568085
0.338440 0.656647 0.568085
0.338440 0.656647 0.568085
0.338440 0.656647 0.568085
0.338440 0.656647 0.568085
0.338440 0.656647 0.568085
0.338440 0.656647 0.568085
0.338440 0.656647 0.568085
0.420044 0.681183 0.602539
0.520569 0.736755 0.646637
0.600220 0.798157 0.628876
0.730103 0.838501 0.609589
0.836700 0.860840 0.557434
0.896942 0.876038 0.525024
0.924255 0.882202 0.524841
0.940765 0.885834 0.524872
0.951080 0.886719 0.524200
0.955963 0.886505 0.523743
0.956329 0.886475 0.523682
0.956329 0.886475 0.523682
0.956329 0.886475 0.523682
0.956329 0.886475 0.523682
0.956329 0.886475 0.523682
0.956329 0.886475 0.523682
0.956329 0.886475 0.523682
0.338440 0.656647 0.568085
0.338440 0.656647 0.568085
0.338440 0.656647 0.568085
0.338440 0.656647 0.568085
0.338440 0.656647 0.568085
0.338440 0.656647 0.568085
0.338440 0.656647 0.568085
0.338440 0.656647 0.568085
0.338440 0.656647 0.568085
0.338440 0.656647 0.568085
0.338440 0.656647 0.568085
0.338440 0.656647 0.568085
0.338440 0.656647 0.568085
0.338440 0.656647 0.568085
0.338440 0.656647 0.568085
0.404877 0.675812 0.596008
0.513062 0.727844 0.645538
0.587311 0.790894 0.630859
0.713562 0.835083 0.610992
0.825378 0.857025 0.563904
0.891357 0.874451 0.528564
0.921051 0.881348 0.524628
0.938385 0.885406 0.524994
0.949127 0.886658 0.524353
0.955475 0.886505 0.523773
0.956329 0.886475 0.523682
0.956329 0.886475 0.523682
0.956329 0.886475 0.523682
0.956329 0.886475 0.523682
0.956329 0.886475 0.523682
0.956329 0.886475 0.523682
0.956329 0.886475 0.523682
0.338440 0.656647 0.568085
0.338440 0.656647 0.568085
0.338440 0.656647 0.568085
0.338440 0.656647 0.568085
0.338440 0.656647 0.568085
0.338440 0.656647 0.568085
0.338440 0.656647 0.568085
0.338440 0.656647 0.568085
0.338440 0.656647 0.568085
0.338440 0.656647 0.568085
0.338440 0.656647 0.568085
0.338440 0.656647 0.568085
0.338440 0.656647 0.568085
0.338440 0.656647 0.568085
0.338440 0.656647 0.568085
0.401642 0.672974 0.593994
0.507324 0.721497 0.643524
0.578217 0.785736 0.631744
0.701294 0.832428 0.611816
0.816895 0.854004 0.567688
0.887329 0.873230 0.531311
0.918610 0.880676 0.524475
0.936676 0.885071 0.525055
0.947754 0.886658 0.524445
0.954681 0.886536 0.523834
0.956329 0.886475 0.523682
0.956329 0.886475 0.523682
0.956329 0.886475 0.523682
0.956329 0.886475 0.523682
0.956329 0.886475 0.523682
0.956329 0.886475 0.523682
0.956329 0.886475 0.523682
0.338440 0.656647 0.568085
0.338440 0.656647 0.568085
0.338440 0.656647 0.568085
0.338440 0.656647 0.568085
0.338440 0.656647 0.568085
0.338440 0.656647 0.568085
0.338440 0.656647 0.568085
0.338440 0.656647 0.568085
0.338440 0.656647 0.568085
0.338440 0.656647 0.568085
0.338440 0.656647 0.568085
0.338440 0.656647 0.568085
0.338440 0.656647 0.568085
0.338440 0.656647 0.568085
0.338440 0.656647 0.568085
0.399719 0.671082 0.592682
0.503113 0.717407 0.641449
0.572205 0.782349 0.632141
0.693146 0.830627 0.612366
0.811768 0.852539 0.570923
0.884674 0.872406 0.533173
0.917023 0.880249 0.524323
0.935516 0.884857 0.525146
0.946869 0.886566 0.524567
0.953857 0.886627 0.523926
0.956207 0.886475 0.523682
0.956329 0.886475 0.523682
0.956329 0.886475 0.523682
0.956329 0.886475 0.523682
0.956329 0.886475 0.523682
0.956329 0.886475 0.523682
0.956329 0.886475 0.523682
0.338440 0.656647 0.568085
0.338440 0.656647 0.568085
0.338440 0.656647 0.568085
0.338440 0.656647 0.568085
0.338440 0.656647 0.568085
0.338440 0.656647 0.568085
0.338440 0.656647 0.568085
0.338440 0.656647 0.568085
0.338440 0.656647 0.568085
0.338440 0.656647 0.568085
0.338440 0.656647 0.568085
0.338440 0.656647 0.568085
0.338440 0.656647 0.568085
0.338440 0.656647 0.568085
0.338440 0.656647 0.568085
0.398560 0.669891 0.591858
0.500641 0.714966 0.640076
