images/nph.auh/Contents/History/resources/F0C225EF-5C09-4734-B50A-AC84173BB0C1.cube
#Created by: Adobe Photoshop Export Color Lookup Plugin
#Copyright: (C) Copyright 2017 ©ThinkTAP
TITLE "HiCon"
#LUT size
LUT_3D_SIZE 8
#data domain
#LUT data points
DOMAIN_MIN 0.000000 0.000000 0.000000
DOMAIN_MAX 0.903226 0.903226 0.903226
0.000000 0.000000 0.000000
0.066620 0.045288 0.051239
0.192566 0.102844 0.110931
0.381592 0.190430 0.201996
0.574860 0.280365 0.302185
0.725159 0.344666 0.377808
0.743805 0.350861 0.387604
0.747223 0.351959 0.389465
0.003601 0.012177 0.010071
0.075531 0.061035 0.065063
0.235840 0.124817 0.127228
0.417114 0.208160 0.220795
0.569733 0.278625 0.299591
0.721008 0.343536 0.375580
0.740479 0.349823 0.385803
0.744019 0.350983 0.387726
0.051605 0.078156 0.075928
0.051361 0.077789 0.075500
0.189362 0.154358 0.132507
0.456696 0.262054 0.249603
0.655365 0.341034 0.343903
0.744446 0.362976 0.386047
0.740509 0.353821 0.384918
0.742523 0.353058 0.386169
0.135834 0.218964 0.202301
0.135773 0.218842 0.202179
0.135498 0.218292 0.201721
0.465363 0.395905 0.299103
0.758179 0.493042 0.397339
0.847992 0.528595 0.434631
0.848572 0.523621 0.434662
0.847748 0.521667 0.434265
0.242584 0.426392 0.379333
0.242554 0.426331 0.379242
0.242432 0.426056 0.379028
0.306152 0.455322 0.417542
0.797821 0.704620 0.457306
0.911224 0.720032 0.473969
0.918640 0.718353 0.476044
0.918304 0.717285 0.475769
0.310730 0.589630 0.511627
0.310730 0.589600 0.511597
0.310669 0.589355 0.511444
0.310242 0.588409 0.510681
0.609192 0.779968 0.594238
0.922577 0.856293 0.512329
0.949921 0.859100 0.516418
0.949860 0.858795 0.516296
0.338440 0.656647 0.568085
0.338440 0.656647 0.568085
0.338440 0.656647 0.568085
0.338440 0.656647 0.568085
0.513062 0.727844 0.645538
0.891357 0.874451 0.528564
0.955475 0.886505 0.523773
0.956329 0.886475 0.523682
0.338440 0.656647 0.568085
0.338440 0.656647 0.568085
0.338440 0.656647 0.568085
0.338440 0.656647 0.568085
0.499420 0.713715 0.639435
0.882111 0.871643 0.534973
0.953125 0.886688 0.524048
0.956329 0.886475 0.523682
0.000000 0.000000 0.000000
0.109619 0.070160 0.081329
0.252899 0.121948 0.131439
0.434326 0.209534 0.228699
0.619080 0.293121 0.325714
0.755005 0.353882 0.394257
0.767914 0.358978 0.401459
0.770172 0.359802 0.402863
0.006134 0.014160 0.014313
0.077820 0.063843 0.070007
0.251953 0.131042 0.135986
0.443481 0.215332 0.233887
0.614075 0.291595 0.322906
0.752106 0.352905 0.392578
0.765747 0.358246 0.400116
0.768097 0.359039 0.401581
0.052307 0.078796 0.076874
0.052124 0.078491 0.076660
0.195618 0.156372 0.134766
0.467224 0.265045 0.254303
0.677917 0.343933 0.354156
0.764435 0.364655 0.396820
0.766083 0.360474 0.399109
0.766876 0.359863 0.399963
0.135254 0.217834 0.201355
0.135162 0.217651 0.201202
0.134888 0.217163 0.200745
0.464478 0.394440 0.298279
0.757294 0.491791 0.396942
0.847900 0.527832 0.434570
0.850403 0.524231 0.435425
0.850250 0.522522 0.435303
0.242310 0.425751 0.378815
0.242249 0.425629 0.378693
0.242126 0.425354 0.378448
0.305084 0.454071 0.416412
0.797394 0.703857 0.456970
0.910980 0.719360 0.473785
0.918427 0.717743 0.475861
0.918060 0.716644 0.475586
0.310577 0.589203 0.511322
0.310577 0.589172 0.511292
0.310486 0.588989 0.511078
0.310089 0.588043 0.510345
0.609131 0.779694 0.594025
0.922516 0.856079 0.512268
0.949860 0.858917 0.516327
0.949829 0.858582 0.516266
0.338440 0.656647 0.568085
0.338440 0.656647 0.568085
0.338440 0.656647 0.568085
0.338440 0.656647 0.568085
0.512848 0.727570 0.645508
0.891235 0.874420 0.528625
0.955475 0.886505 0.523773
0.956329 0.886475 0.523682
0.338440 0.656647 0.568085
0.338440 0.656647 0.568085
0.338440 0.656647 0.568085
0.338440 0.656647 0.568085
0.499237 0.713501 0.639313
0.881958 0.871613 0.535034
0.953064 0.886688 0.524048
0.956329 0.886475 0.523682
0.000000 0.002838 0.004913
0.068909 0.058960 0.079681
0.298767 0.161713 0.200104
0.482605 0.225281 0.267792
0.649780 0.300262 0.352966
0.786591 0.374298 0.424103
0.789093 0.377747 0.427582
0.788910 0.378021 0.428040
0.000000 0.006165 0.008911
0.028320 0.030823 0.043152
0.291321 0.159210 0.196686
0.480438 0.224274 0.266113
0.649384 0.300018 0.352325
0.786591 0.373840 0.423523
0.789276 0.377411 0.427124
0.789062 0.377747 0.427612
0.078125 0.109589 0.119141
0.077820 0.109253 0.118774
0.193268 0.168488 0.173523
0.504395 0.285309 0.295319
0.702026 0.342743 0.377411
0.790924 0.376953 0.423981
0.789795 0.376404 0.425629
0.789642 0.376740 0.426086
0.152496 0.243866 0.229553
0.152527 0.243866 0.229584
0.152588 0.243835 0.229675
0.471832 0.396210 0.310120
0.770630 0.479980 0.401489
0.862274 0.517731 0.440094
0.863373 0.510559 0.440399
0.862823 0.508057 0.440125
0.241302 0.423553 0.376923
0.241241 0.423462 0.376862
0.241119 0.423157 0.376617
0.301392 0.449707 0.412415
0.796021 0.701324 0.455963
0.910187 0.717194 0.473114
0.917694 0.715546 0.475250
0.917358 0.714447 0.474976
0.310028 0.587891 0.510223
0.309998 0.587830 0.510132
0.309937 0.587646 0.509979
0.309540 0.586700 0.509216
0.608856 0.778870 0.593414
0.922302 0.855316 0.511993
0.949738 0.858185 0.516174
0.949707 0.857880 0.516113
0.338440 0.656647 0.568085
0.338440 0.656647 0.568085
0.338440 0.656647 0.568085
0.338440 0.656647 0.568085
0.512207 0.726715 0.645447
0.890717 0.874237 0.528870
0.955444 0.886505 0.523773
0.956329 0.886475 0.523682
0.338440 0.656647 0.568085
0.338440 0.656647 0.568085
0.338440 0.656647 0.568085
0.338440 0.656647 0.568085
0.498596 0.712860 0.639069
0.881439 0.871399 0.535309
0.952881 0.886688 0.524048
0.956329 0.886475 0.523682
0.054291 0.079346 0.096741
0.054321 0.079407 0.096741
0.219604 0.168427 0.223724
0.502472 0.283234 0.371735
0.671631 0.323242 0.426697
0.779205 0.379517 0.472931
0.781342 0.382050 0.474518
0.781433 0.382141 0.474792
0.054138 0.079132 0.096466
0.054169 0.079163 0.096497
0.205170 0.161804 0.215393
0.500702 0.282471 0.370697
0.670990 0.322876 0.426117
0.779053 0.379303 0.472626
0.781250 0.381958 0.474304
0.781342 0.382050 0.474579
0.050446 0.073730 0.090027
0.050476 0.073792 0.090149
0.154236 0.137085 0.187164
0.494385 0.279846 0.367065
0.668671 0.321625 0.424103
0.778656 0.378723 0.471619
0.780975 0.381683 0.473419
0.781067 0.381775 0.473694
0.216064 0.303894 0.319489
0.215973 0.303711 0.319366
0.215729 0.303253 0.319031
0.414185 0.390106 0.404022
0.763672 0.508148 0.504608
0.865295 0.513031 0.515564
0.864014 0.505341 0.512909
0.863068 0.502747 0.511780
0.297028 0.493378 0.465424
0.296997 0.493317 0.465393
0.296936 0.493073 0.465240
0.293549 0.496399 0.461273
0.781769 0.698608 0.539978
0.929352 0.724518 0.545105
0.937347 0.729004 0.556885
0.937164 0.728027 0.557098
0.335693 0.619415 0.551910
0.335693 0.619415 0.551910
0.335724 0.619324 0.551910
0.335785 0.618866 0.551819
0.575439 0.767609 0.615784
0.935974 0.870422 0.567383
0.958557 0.873199 0.589294
0.958588 0.873016 0.589966
0.347290 0.665955 0.581818
0.347290 0.665955 0.581818
0.347321 0.665985 0.581879
0.347534 0.666168 0.582184
0.517181 0.718842 0.654236
0.887115 0.878601 0.562714
0.957825 0.892883 0.559296
0.959198 0.892914 0.560822
0.346069 0.664825 0.580017
0.346069 0.664825 0.580017
0.346100 0.664856 0.580078
0.346313 0.665070 0.580414
0.502136 0.705444 0.644592
0.877655 0.875122 0.561310
0.954041 0.890930 0.546661
0.958099 0.890503 0.546509
0.086151 0.124756 0.151550
0.086151 0.124756 0.151550
0.096527 0.123474 0.156982
0.443726 0.307678 0.409912
0.654449 0.380524 0.513580
0.794830 0.434906 0.577850
0.801880 0.438873 0.579926
0.801880 0.438965 0.580170
0.086090 0.124695 0.151459
0.086090 0.124695 0.151459
0.087067 0.115387 0.144897
0.441376 0.306610 0.408539
0.653809 0.380249 0.513153
0.794647 0.434662 0.577576
0.801880 0.438721 0.579712
0.801910 0.438873 0.579956
0.085968 0.124481 0.151184
0.085968 0.124512 0.151184
0.085175 0.123138 0.149628
0.433350 0.302917 0.403809
0.651611 0.379211 0.511658
0.794098 0.433990 0.576691
0.801880 0.438293 0.578979
0.801880 0.438416 0.579224
0.187042 0.282776 0.319031
0.186890 0.282532 0.318787
0.186340 0.281769 0.318054
0.278107 0.294739 0.355682
0.730957 0.468384 0.587921
0.827454 0.490906 0.597748
0.824371 0.482178 0.590729
0.823547 0.480011 0.590210
0.341095 0.503510 0.517059
0.341064 0.503418 0.516998
0.340881 0.503052 0.516785
0.346710 0.513428 0.526428
0.714264 0.687958 0.689667
0.921112 0.733734 0.694458
0.927704 0.721039 0.683746
0.926727 0.717957 0.681641
0.387726 0.660461 0.624146
0.387695 0.660431 0.624146
0.387695 0.660339 0.624115
0.387695 0.659912 0.623962
0.559204 0.716919 0.702454
0.946411 0.901093 0.746582
0.974518 0.904602 0.771545
0.974518 0.904297 0.771729
0.407959 0.718353 0.667480
0.407990 0.718384 0.667542
0.408020 0.718384 0.667572
0.408173 0.718475 0.667755
0.439697 0.721313 0.664795
0.854004 0.884277 0.710754
0.967896 0.920258 0.713043
0.970520 0.918701 0.712128
0.406799 0.717438 0.666016
0.406830 0.717468 0.666046
0.406860 0.717499 0.666077
0.406982 0.717590 0.666229
0.424316 0.718781 0.659698
0.835480 0.875702 0.703552
0.965210 0.920685 0.711487
0.970245 0.918152 0.709412
0.119354 0.178345 0.215942
0.119354 0.178345 0.215942
0.119385 0.178406 0.216003
0.395477 0.318176 0.433685
0.623962 0.414093 0.559113
0.774597 0.477081 0.645294
0.789001 0.485474 0.654663
0.789001 0.485535 0.654724
0.119293 0.178192 0.215790
0.119293 0.178192 0.215790
0.119324 0.178284 0.215851
0.392761 0.316742 0.432129
0.623108 0.413727 0.558533
0.774384 0.476868 0.645050
0.789001 0.485413 0.654572
0.789001 0.485474 0.654663
0.119019 0.177704 0.215210
0.119019 0.177704 0.215210
0.119049 0.177765 0.215240
0.383362 0.311768 0.426727
0.620270 0.412445 0.556793
0.772675 0.475708 0.643677
0.788940 0.485199 0.654236
0.788940 0.485260 0.654327
0.117493 0.175201 0.212250
0.117523 0.175232 0.212250
0.117523 0.175232 0.212280
0.323120 0.278809 0.392487
0.605164 0.405579 0.547394
0.759766 0.467163 0.633942
0.788788 0.483978 0.652649
0.788788 0.484039 0.652771
0.311646 0.472321 0.514771
0.311554 0.472168 0.514618
0.311310 0.471863 0.514343
0.309967 0.470062 0.512756
0.523926 0.523285 0.604279
0.895874 0.672821 0.779358
0.912140 0.677734 0.776459
0.911682 0.676605 0.776184
0.445129 0.685974 0.690308
0.445068 0.685913 0.690277
0.445038 0.685760 0.690186
0.444672 0.684998 0.689728
0.479004 0.741821 0.738983
0.931854 0.923920 0.917969
0.987976 0.940796 0.920502
0.987671 0.939789 0.919647
0.468994 0.756683 0.738037
0.468994 0.756683 0.738037
0.468994 0.756653 0.737976
0.469055 0.756470 0.737976
0.469238 0.768646 0.743958
0.803894 0.876465 0.836273
0.981415 0.959656 0.878754
0.989532 0.961975 0.879791
0.468292 0.757172 0.737732
0.468292 0.757172 0.737732
0.468323 0.757172 0.737732
0.468445 0.757233 0.737885
0.468781 0.765106 0.741852
0.776703 0.863129 0.829987
0.973206 0.954132 0.863708
0.985962 0.953918 0.851868
0.130371 0.197662 0.239197
0.130371 0.197662 0.239197
0.130371 0.197662 0.239197
0.364746 0.309082 0.433075
0.615448 0.421570 0.572083
0.783966 0.503693 0.675873
0.798340 0.512085 0.685730
0.798340 0.512085 0.685730
0.130371 0.197662 0.239197
0.130371 0.197662 0.239197
0.130371 0.197662 0.239197
0.361206 0.307190 0.431152
0.614624 0.421204 0.571625
0.783478 0.503357 0.675537
0.798340 0.512085 0.685730
0.798340 0.512085 0.685730
0.130371 0.197693 0.239227
0.130371 0.197693 0.239227
0.130371 0.197693 0.239227
0.348663 0.300323 0.424347
0.612000 0.420013 0.570129
0.781677 0.502319 0.674286
0.798340 0.512085 0.685730
0.798340 0.512085 0.685730
0.130463 0.197723 0.239288
0.130463 0.197723 0.239288
0.130463 0.197723 0.239288
0.276123 0.265564 0.373474
0.596893 0.413422 0.561432
0.771484 0.496368 0.667328
0.798340 0.511902 0.685577
0.798340 0.511902 0.685577
0.290588 0.452911 0.502167
0.290527 0.452789 0.502045
0.290283 0.452423 0.501709
0.288940 0.450500 0.499878
0.452576 0.458069 0.555389
0.859558 0.634460 0.773529
0.893494 0.660828 0.797852
0.893036 0.659698 0.797180
0.439087 0.668945 0.689117
0.439026 0.668884 0.689087
0.438904 0.668671 0.688873
0.438141 0.667572 0.688019
0.455841 0.697815 0.717224
0.892883 0.867615 0.905426
0.979462 0.910675 0.939941
0.979248 0.909637 0.939301
0.482483 0.746735 0.748383
0.482452 0.746674 0.748322
0.482361 0.746460 0.748199
0.481873 0.745575 0.747528
0.491394 0.761536 0.761597
0.761414 0.872375 0.899933
0.984955 0.983948 0.979950
0.999786 0.990356 0.982697
0.491180 0.763031 0.760925
0.491180 0.763031 0.760925
0.491180 0.763031 0.760925
0.491180 0.763031 0.760956
0.497589 0.773773 0.770111
0.684784 0.843384 0.872711
0.953125 0.968506 0.959045
0.995758 0.992462 0.975037
0.130341 0.197571 0.239166
0.130341 0.197571 0.239166
0.130341 0.197571 0.239166
0.354736 0.303680 0.427734
0.613403 0.420715 0.570984
0.782715 0.502960 0.675049
0.798340 0.512085 0.685730
0.798340 0.512085 0.685730
0.130341 0.197571 0.239166
0.130341 0.197571 0.239166
0.130341 0.197571 0.239166
0.350861 0.301544 0.425568
0.612610 0.420319 0.570526
0.782166 0.502655 0.674622
0.798340 0.512085 0.685730
0.798340 0.512085 0.685730
0.130341 0.197571 0.239166
0.130341 0.197571 0.239166
0.130341 0.197571 0.239166
0.337524 0.294250 0.418335
0.609772 0.419067 0.568939
0.780304 0.501587 0.673401
0.798340 0.512085 0.685730
0.798340 0.512085 0.685730
0.130341 0.197571 0.239166
0.130341 0.197571 0.239166
0.130341 0.197571 0.239166
0.260803 0.257446 0.357330
0.594452 0.412415 0.560181
0.769928 0.495697 0.666473
0.798340 0.512085 0.685730
0.798340 0.512085 0.685730
0.283722 0.442749 0.492676
0.283630 0.442627 0.492523
0.283386 0.442230 0.492188
0.282043 0.440186 0.490295
0.442200 0.445923 0.546051
0.853607 0.625824 0.767609
0.889923 0.652771 0.793274
0.889435 0.651520 0.792511
0.433441 0.661407 0.684052
0.433441 0.661346 0.684021
0.433289 0.661163 0.683868
0.432587 0.660126 0.683014
0.440765 0.675903 0.699768
0.871490 0.839142 0.886841
0.972443 0.890533 0.931091
0.972504 0.890015 0.930847
0.481781 0.741272 0.746887
0.481750 0.741211 0.746857
0.481689 0.741028 0.746674
0.481232 0.740051 0.745972
0.489166 0.753418 0.757843
0.724823 0.853912 0.888458
0.981171 0.978485 0.983948
1.000000 0.987579 0.990936
0.492279 0.762177 0.763123
0.492279 0.762177 0.763123
0.492279 0.762177 0.763153
0.492310 0.762146 0.763153
0.498077 0.771698 0.771484
0.634338 0.830261 0.852020
0.933350 0.958710 0.966858
0.996399 0.996704 0.993469
