images/nph.auh/Contents/History/resources/F0C225EF-5C09-4734-B50A-AC84173BB0C1.cube
#Created by: Adobe Photoshop Export Color Lookup Plugin
#Copyright: (C) Copyright 2017 ©ThinkTAP
TITLE "HiCon"
#LUT size
LUT_3D_SIZE 5
#data domain
#LUT data points
DOMAIN_MIN 0.000000 0.000000 0.000000
DOMAIN_MAX 0.903226 0.903226 0.903226
0.000000 0.000000 0.000000
0.157990 0.091522 0.101318
0.476562 0.235779 0.251801
0.734528 0.347992 0.382538
0.747223 0.351959 0.389465
0.036530 0.057037 0.055206
0.150360 0.123077 0.113617
0.549866 0.286163 0.291901
0.722565 0.344910 0.376251
0.737274 0.348846 0.384064
0.190918 0.321320 0.290680
0.190735 0.320923 0.290344
0.639648 0.550720 0.386719
0.886047 0.622681 0.453888
0.884552 0.617798 0.453033
0.331085 0.638916 0.553040
0.331055 0.638824 0.553009
0.375671 0.646515 0.569244
0.934052 0.876251 0.520660
0.953735 0.876740 0.520874
0.338440 0.656647 0.568085
0.338440 0.656647 0.568085
0.338440 0.656647 0.568085
0.915436 0.879761 0.523987
0.956329 0.886475 0.523682
0.000000 0.000000 0.000000
0.246246 0.130157 0.157776
0.568146 0.263641 0.304626
0.788605 0.371582 0.418915
0.791046 0.374054 0.422180
0.052490 0.075928 0.082794
0.156525 0.135590 0.141571
0.607086 0.297729 0.326508
0.786102 0.369354 0.416046
0.789673 0.372314 0.419861
0.189362 0.318481 0.288208
0.189178 0.318085 0.287872
0.637268 0.547058 0.385010
0.885925 0.621185 0.453796
0.886108 0.617584 0.453705
0.330933 0.638489 0.552734
0.330902 0.638458 0.552673
0.373840 0.645752 0.568115
0.933868 0.875519 0.520325
0.953552 0.876007 0.520691
0.338440 0.656647 0.568085
0.338440 0.656647 0.568085
0.338440 0.656647 0.568085
0.915100 0.879639 0.523926
0.956329 0.886475 0.523682
0.072510 0.104797 0.127289
0.077789 0.099670 0.127380
0.587494 0.334290 0.446289
0.793274 0.406738 0.521484
0.793488 0.407257 0.522430
0.072327 0.104523 0.126923
0.069122 0.099670 0.121307
0.584320 0.332947 0.444336
0.793060 0.406311 0.520660
0.793335 0.406891 0.521729
0.277710 0.397766 0.414124
0.277527 0.397430 0.413879
0.552094 0.524994 0.537170
0.895966 0.610840 0.591156
0.893219 0.601105 0.585938
0.374054 0.671814 0.614258
0.373962 0.671600 0.614105
0.370148 0.669800 0.609344
0.950653 0.898071 0.643402
0.966400 0.899384 0.676514
0.382172 0.698547 0.633209
0.382202 0.698608 0.633301
0.382690 0.698914 0.633911
0.911438 0.898132 0.649628
0.964996 0.906219 0.642212
0.129272 0.195343 0.235901
0.129303 0.195374 0.235931
0.522736 0.378113 0.512329
0.792175 0.495972 0.667450
0.792328 0.496338 0.667847
0.129211 0.195190 0.235718
0.129211 0.195221 0.235779
0.518311 0.376312 0.509796
0.791962 0.495697 0.667114
0.792206 0.496033 0.667542
0.221191 0.343903 0.393982
0.220886 0.343384 0.393494
0.335266 0.346100 0.440491
0.843048 0.558411 0.718323
0.837982 0.550537 0.711487
0.458557 0.708344 0.711792
0.458527 0.708252 0.711731
0.457947 0.706909 0.710907
0.953461 0.948212 0.943054
0.994019 0.963531 0.949738
0.479858 0.761047 0.748291
0.479889 0.761047 0.748322
0.480164 0.761108 0.748535
0.839752 0.895844 0.858429
0.990967 0.967621 0.894684
0.130341 0.197571 0.239166
0.130341 0.197571 0.239166
0.506195 0.376160 0.509888
0.796783 0.511078 0.684662
0.798340 0.512085 0.685730
0.130341 0.197571 0.239166
0.130341 0.197571 0.239166
0.501404 0.374268 0.507202
0.796295 0.510803 0.684296
0.798340 0.512085 0.685730
0.167114 0.259216 0.305450
0.166931 0.258972 0.305145
0.367371 0.330566 0.446198
0.809906 0.532440 0.701050
0.815979 0.534149 0.704254
0.454803 0.693451 0.710236
0.454712 0.693298 0.710114
0.453430 0.691498 0.708679
0.922668 0.903503 0.933838
0.984650 0.934418 0.959717
0.492279 0.762177 0.763123
0.492279 0.762177 0.763123
0.492279 0.762115 0.763153
0.745361 0.870148 0.900818
0.996399 0.996704 0.993469
